(G-code generated by FlatCAM Evo vUnstable - Version Date: 2023/6/31)

(Name: init_reader-B_Cu.gbr_iso_combined_cnc)
(Type: G-code from Geometry)
(Units: MM)

(Created on Sunday, 01 March 2026 at 10:51)

(This preprocessor is the default preprocessor.)
(It is made to work with MACH3 compatible motion controllers.)

(TOOL DIAMETER: 0.1946 mm)
(Feedrate_XY: 120.0 mm/min)
(Feedrate_Z: 60.0 mm/min)
(Feedrate rapids 1500.0 mm/min)

(Z_Cut: -0.03 mm)
(Z_Move: 2.0 mm)
(Z Start: None mm)
(Z End: 15.0 mm)
(X,Y End: None mm)
(Steps per circle: 16)
(Preprocessor Geometry: default)

(X range:   -2.7242 ...  145.8242  mm)
(Y range:   -2.7242 ...   97.8242  mm)

(Spindle Speed: 800.0 RPM)
G21
G90
G94

G01 F120.00
G00 Z2.0000

M03 S800.0
G01 F120.00
G00 X5.4853 Y3.6268
G01 F60.00
G01 Z-0.0300
G01 F120.00
G01 X5.7348 Y3.6268
G01 X5.9821 Y3.6594
G01 X6.2231 Y3.7240
G01 X6.4536 Y3.8194
G01 X6.6697 Y3.9442
G01 X6.8676 Y4.0961
G01 X7.0440 Y4.2725
G01 X7.1959 Y4.4704
G01 X7.3206 Y4.6865
G01 X7.4161 Y4.9169
G01 X7.4807 Y5.1579
G01 X7.5132 Y5.4053
G01 X7.5132 Y5.6548
G01 X7.4807 Y5.9021
G01 X7.4161 Y6.1431
G01 X7.3206 Y6.3736
G01 X7.1959 Y6.5897
G01 X7.0440 Y6.7876
G01 X6.8676 Y6.9640
G01 X6.6697 Y7.1159
G01 X6.4536 Y7.2406
G01 X6.2231 Y7.3361
G01 X5.9821 Y7.4007
G01 X5.7348 Y7.4332
G01 X5.4853 Y7.4332
G01 X5.2379 Y7.4007
G01 X4.9969 Y7.3361
G01 X4.7665 Y7.2406
G01 X4.5504 Y7.1159
G01 X4.3525 Y6.9640
G01 X4.1761 Y6.7876
G01 X4.0242 Y6.5897
G01 X3.8994 Y6.3736
G01 X3.8040 Y6.1431
G01 X3.7394 Y5.9021
G01 X3.7068 Y5.6548
G01 X3.7068 Y5.4053
G01 X3.7394 Y5.1579
G01 X3.8040 Y4.9169
G01 X3.8994 Y4.6865
G01 X4.0242 Y4.4704
G01 X4.1761 Y4.2725
G01 X4.3525 Y4.0961
G01 X4.5504 Y3.9442
G01 X4.7665 Y3.8194
G01 X4.9969 Y3.7240
G01 X5.2379 Y3.6594
G01 X5.4853 Y3.6268
G00 Z2.0000
G00 X4.0426 Y5.8369
G01 F60.00
G01 Z-0.0300
G01 F120.00
G01 X4.0802 Y5.9891
G01 X4.1326 Y6.1368
G01 X4.2032 Y6.2863
G01 X4.2840 Y6.4204
G01 X4.3784 Y6.5470
G01 X4.4806 Y6.6595
G01 X4.5931 Y6.7616
G01 X4.7187 Y6.8554
G01 X4.8529 Y6.9364
G01 X4.9944 Y7.0038
G01 X5.1502 Y7.0596
G01 X5.3019 Y7.0973
G01 X5.4487 Y7.1190
G01 X5.6053 Y7.1272
G01 X5.7618 Y7.1200
G01 X5.9169 Y7.0974
G01 X6.0691 Y7.0598
G01 X6.2168 Y7.0075
G01 X6.3663 Y6.9369
G01 X6.5004 Y6.8561
G01 X6.6270 Y6.7616
G01 X6.7395 Y6.6595
G01 X6.8416 Y6.5470
G01 X6.9354 Y6.4213
G01 X7.0164 Y6.2871
G01 X7.0838 Y6.1457
G01 X7.1397 Y5.9896
G01 X7.1773 Y5.8381
G01 X7.2000 Y5.6818
G01 X7.2072 Y5.5253
G01 X7.1990 Y5.3687
G01 X7.1773 Y5.2219
G01 X7.1370 Y5.0618
G01 X7.0838 Y4.9144
G01 X7.0169 Y4.7737
G01 X6.9360 Y4.6396
G01 X6.8416 Y4.5131
G01 X6.7395 Y4.4006
G01 X6.6270 Y4.2984
G01 X6.5013 Y4.2047
G01 X6.3671 Y4.1237
G01 X6.2257 Y4.0562
G01 X6.0699 Y4.0004
G01 X5.9181 Y3.9628
G01 X5.7713 Y3.9410
G01 X5.6148 Y3.9328
G01 X5.4582 Y3.9401
G01 X5.3031 Y3.9626
G01 X5.1510 Y4.0002
G01 X5.0032 Y4.0526
G01 X4.8537 Y4.1232
G01 X4.7197 Y4.2040
G01 X4.5931 Y4.2984
G01 X4.4806 Y4.4006
G01 X4.3784 Y4.5131
G01 X4.2847 Y4.6387
G01 X4.2037 Y4.7729
G01 X4.1362 Y4.9144
G01 X4.0804 Y5.0705
G01 X4.0428 Y5.2219
G01 X4.0210 Y5.3687
G01 X4.0128 Y5.5253
G01 X4.0201 Y5.6818
G01 X4.0426 Y5.8369
G00 Z2.0000
G00 X16.7722 Y10.1948
G01 F60.00
G01 Z-0.0300
G01 F120.00
G01 X16.8218 Y10.3946
G01 X16.8907 Y10.5885
G01 X16.9782 Y10.7748
G01 X17.0836 Y10.9515
G01 X17.2059 Y11.1171
G01 X17.3470 Y11.2734
G01 X17.4959 Y11.4085
G01 X17.6609 Y11.5314
G01 X17.8372 Y11.6377
G01 X18.0231 Y11.7261
G01 X18.2253 Y11.7985
G01 X18.4244 Y11.8480
G01 X18.6197 Y11.8770
G01 X18.8253 Y11.8875
G01 X19.0308 Y11.8779
G01 X19.2345 Y11.8482
G01 X19.4342 Y11.7986
G01 X19.6282 Y11.7297
G01 X19.8144 Y11.6422
G01 X19.9912 Y11.5368
G01 X20.1568 Y11.4145
G01 X20.3130 Y11.2734
G01 X20.4481 Y11.1245
G01 X20.5711 Y10.9595
G01 X20.6773 Y10.7832
G01 X20.7657 Y10.5973
G01 X20.8381 Y10.3954
G01 X20.8877 Y10.1960
G01 X20.9176 Y9.9912
G01 X20.9272 Y9.7856
G01 X20.9166 Y9.5800
G01 X20.8877 Y9.3847
G01 X20.8383 Y9.1861
G01 X20.7694 Y8.9922
G01 X20.6818 Y8.8060
G01 X20.5764 Y8.6292
G01 X20.4542 Y8.4636
G01 X20.3130 Y8.3073
G01 X20.1642 Y8.1722
G01 X19.9991 Y8.0493
G01 X19.8228 Y7.9431
G01 X19.6370 Y7.8546
G01 X19.4347 Y7.7822
G01 X19.2357 Y7.7327
G01 X19.0403 Y7.7037
G01 X18.8348 Y7.6932
G01 X18.6292 Y7.7028
G01 X18.4256 Y7.7325
G01 X18.2258 Y7.7821
G01 X18.0319 Y7.8510
G01 X17.8456 Y7.9386
G01 X17.6689 Y8.0440
G01 X17.5033 Y8.1662
G01 X17.3470 Y8.3073
G01 X17.2119 Y8.4562
G01 X17.0889 Y8.6213
G01 X16.9827 Y8.7975
G01 X16.8943 Y8.9834
G01 X16.8220 Y9.1854
G01 X16.7724 Y9.3847
G01 X16.7434 Y9.5800
G01 X16.7328 Y9.7856
G01 X16.7425 Y9.9912
G01 X16.7722 Y10.1948
G00 Z2.0000
G00 X19.7511 Y7.5666
G01 F60.00
G01 Z-0.0300
G01 F120.00
G01 X19.9943 Y7.6837
G01 X20.2229 Y7.8273
G01 X20.4339 Y7.9956
G01 X20.6248 Y8.1865
G01 X20.7931 Y8.3975
G01 X20.9367 Y8.6261
G01 X21.0538 Y8.8692
G01 X21.1429 Y9.1240
G01 X21.2030 Y9.3872
G01 X21.2332 Y9.6554
G01 X21.2332 Y9.9253
G01 X21.2030 Y10.1935
G01 X21.1429 Y10.4567
G01 X21.0538 Y10.7115
G01 X20.9367 Y10.9547
G01 X20.7931 Y11.1832
G01 X20.6248 Y11.3942
G01 X20.4339 Y11.5851
G01 X20.2229 Y11.7534
G01 X19.9943 Y11.8970
G01 X19.7511 Y12.0141
G01 X19.4964 Y12.1033
G01 X19.2332 Y12.1633
G01 X18.9650 Y12.1936
G01 X18.6951 Y12.1936
G01 X18.4268 Y12.1633
G01 X18.1637 Y12.1033
G01 X17.9089 Y12.0141
G01 X17.6657 Y11.8970
G01 X17.4372 Y11.7534
G01 X17.2261 Y11.5851
G01 X17.0353 Y11.3942
G01 X16.8670 Y11.1832
G01 X16.7234 Y10.9547
G01 X16.6063 Y10.7115
G01 X16.5171 Y10.4567
G01 X16.4570 Y10.1935
G01 X16.4268 Y9.9253
G01 X16.4268 Y9.6554
G01 X16.4570 Y9.3872
G01 X16.5171 Y9.1240
G01 X16.6063 Y8.8692
G01 X16.7234 Y8.6261
G01 X16.8670 Y8.3975
G01 X17.0353 Y8.1865
G01 X17.2261 Y7.9956
G01 X17.4372 Y7.8273
G01 X17.6657 Y7.6837
G01 X17.9089 Y7.5666
G01 X18.1637 Y7.4774
G01 X18.4269 Y7.4174
G01 X18.6951 Y7.3872
G01 X18.9650 Y7.3872
G01 X19.2332 Y7.4174
G01 X19.4964 Y7.4774
G01 X19.7511 Y7.5666
G00 Z2.0000
G00 X26.2523 Y8.4483
G01 F60.00
G01 Z-0.0300
G01 F120.00
G01 X26.2523 Y8.2924
G01 X26.2801 Y8.3201
G01 X26.2801 Y8.4206
G01 X26.2523 Y8.4483
G00 Z2.0000
G00 X27.1248 Y9.2653
G01 F60.00
G01 Z-0.0300
G01 F120.00
G01 X27.2253 Y9.2653
G01 X27.2530 Y9.2931
G01 X27.0970 Y9.2931
G01 X27.1248 Y9.2653
G00 Z2.0000
G00 X28.0700 Y8.4206
G01 F60.00
G01 Z-0.0300
G01 F120.00
G01 X28.0700 Y8.3201
G01 X28.0977 Y8.2924
G01 X28.0977 Y8.4483
G01 X28.0700 Y8.4206
G00 Z2.0000
G00 X29.0660 Y8.5501
G01 F60.00
G01 Z-0.0300
G01 F120.00
G01 X29.0879 Y8.6354
G01 X29.1515 Y8.7891
G01 X29.2017 Y8.8728
G01 X29.3072 Y9.0014
G01 X29.4505 Y9.1190
G01 X29.5973 Y9.1974
G01 X29.6887 Y9.2302
G01 X29.7747 Y9.2512
G01 X29.9403 Y9.2675
G01 X30.0377 Y9.2628
G01 X30.2009 Y9.2303
G01 X30.3722 Y9.1594
G01 X30.5105 Y9.0669
G01 X30.5828 Y9.0014
G01 X30.6416 Y8.9358
G01 X30.7340 Y8.7975
G01 X30.8048 Y8.6270
G01 X30.8384 Y8.4535
G01 X30.8422 Y8.3656
G01 X30.8259 Y8.2000
G01 X30.7721 Y8.0226
G01 X30.7340 Y7.9432
G01 X30.6416 Y7.8049
G01 X30.5105 Y7.6738
G01 X30.3722 Y7.5814
G01 X30.2925 Y7.5432
G01 X30.2925 Y7.1689
G01 X31.7739 Y5.6875
G01 X53.1361 Y5.6875
G01 X56.8344 Y9.3857
G01 X56.8831 Y9.4261
G01 X56.9427 Y9.4591
G01 X57.0076 Y9.4797
G01 X57.0800 Y9.4875
G01 X62.1093 Y9.4861
G01 X62.2173 Y9.4591
G01 X62.2769 Y9.4261
G01 X62.3257 Y9.3857
G01 X67.8149 Y3.8965
G01 X82.1351 Y3.8965
G01 X95.7026 Y17.4639
G01 X95.7026 Y34.4762
G01 X95.0229 Y34.4763
G01 X94.9279 Y34.4857
G01 X94.8677 Y34.5008
G01 X94.7342 Y34.5639
G01 X94.6491 Y34.6331
G01 X94.6108 Y34.6758
G01 X94.5578 Y34.7551
G01 X94.5142 Y34.8601
G01 X94.4954 Y34.9545
G01 X94.4922 Y35.0117
G01 X94.4945 Y39.1361
G01 X94.5140 Y39.2392
G01 X94.5349 Y39.2976
G01 X94.5852 Y39.3898
G01 X94.6491 Y39.4670
G01 X94.7263 Y39.5308
G01 X94.8184 Y39.5811
G01 X94.9186 Y39.6125
G01 X94.9800 Y39.6216
G01 X97.1296 Y39.6207
G01 X97.2728 Y39.5848
G01 X97.3738 Y39.5308
G01 X97.4832 Y39.4317
G01 X97.5201 Y39.3818
G01 X97.5651 Y39.2976
G01 X97.5965 Y39.1975
G01 X97.6078 Y39.0884
G01 X97.6078 Y35.0117
G01 X97.5968 Y34.9037
G01 X97.5467 Y34.7635
G01 X97.4832 Y34.6684
G01 X97.3738 Y34.5692
G01 X97.3205 Y34.5373
G01 X97.2323 Y34.5008
G01 X97.1721 Y34.4857
G01 X97.0771 Y34.4763
G01 X96.3975 Y34.4762
G01 X96.3975 Y17.3200
G01 X96.3897 Y17.2476
G01 X96.3691 Y17.1827
G01 X96.3361 Y17.1231
G01 X96.2957 Y17.0744
G01 X82.5247 Y3.3034
G01 X82.4759 Y3.2629
G01 X82.4163 Y3.2300
G01 X82.3515 Y3.2093
G01 X82.2790 Y3.2016
G01 X67.6710 Y3.2016
G01 X67.5748 Y3.2153
G01 X67.5031 Y3.2450
G01 X67.4254 Y3.3034
G01 X61.9361 Y8.7926
G01 X57.2239 Y8.7926
G01 X53.5257 Y5.0944
G01 X53.4769 Y5.0539
G01 X53.4173 Y5.0210
G01 X53.3525 Y5.0003
G01 X53.2800 Y4.9926
G01 X31.5912 Y4.9949
G01 X31.4927 Y5.0210
G01 X31.4331 Y5.0539
G01 X31.3878 Y5.0911
G01 X29.6994 Y6.7794
G01 X29.6589 Y6.8281
G01 X29.6141 Y6.9196
G01 X29.5989 Y6.9957
G01 X29.5976 Y7.5432
G01 X29.4505 Y7.6217
G01 X29.3140 Y7.7326
G01 X29.2485 Y7.8049
G01 X29.1515 Y7.9516
G01 X29.0853 Y8.1137
G01 X29.0526 Y8.2777
G01 X29.0478 Y8.3751
G01 X29.0660 Y8.5501
G00 Z2.0000
G00 X29.4156 Y7.4385
G01 F60.00
G01 Z-0.0300
G01 F120.00
G01 X29.4225 Y7.4252
G01 X29.4225 Y7.4344
G01 X29.4156 Y7.4385
G00 Z2.0000
G00 X30.4676 Y7.4344
G01 F60.00
G01 Z-0.0300
G01 F120.00
G01 X30.4676 Y7.2415
G01 X30.5205 Y7.1885
G01 X30.5105 Y7.2408
G01 X30.5057 Y7.3622
G01 X30.5183 Y7.4211
G01 X30.5474 Y7.4834
G01 X30.4676 Y7.4344
G00 Z2.0000
G00 X31.0102 Y8.4918
G01 F60.00
G01 Z-0.0300
G01 F120.00
G01 X31.0171 Y8.3570
G01 X31.0112 Y8.2570
G01 X31.0911 Y8.3352
G01 X31.1427 Y8.3718
G01 X31.0742 Y8.4147
G01 X31.0102 Y8.4918
G00 Z2.0000
G00 X31.6494 Y8.2520
G01 F60.00
G01 Z-0.0300
G01 F120.00
G01 X31.6429 Y8.3570
G01 X31.6489 Y8.4837
G01 X31.5690 Y8.4055
G01 X31.5174 Y8.3689
G01 X31.5858 Y8.3260
G01 X31.6494 Y8.2520
G00 Z2.0000
G00 X31.8360 Y8.5501
G01 F60.00
G01 Z-0.0300
G01 F120.00
G01 X31.8880 Y8.7181
G01 X31.9717 Y8.8728
G01 X32.0840 Y9.0081
G01 X32.2205 Y9.1190
G01 X32.3761 Y9.2011
G01 X32.5435 Y9.2510
G01 X32.7198 Y9.2675
G01 X32.8947 Y9.2494
G01 X33.0628 Y9.1974
G01 X33.2174 Y9.1137
G01 X33.3528 Y9.0014
G01 X33.4637 Y8.8648
G01 X33.5457 Y8.7093
G01 X33.5957 Y8.5419
G01 X33.6122 Y8.3656
G01 X33.5957 Y8.1988
G01 X33.5421 Y8.0226
G01 X33.4584 Y7.8679
G01 X33.3461 Y7.7326
G01 X33.2095 Y7.6217
G01 X33.0540 Y7.5396
G01 X32.8866 Y7.4897
G01 X32.7103 Y7.4732
G01 X32.5353 Y7.4913
G01 X32.3673 Y7.5433
G01 X32.2126 Y7.6270
G01 X32.0772 Y7.7393
G01 X31.9664 Y7.8759
G01 X31.8843 Y8.0314
G01 X31.8343 Y8.1988
G01 X31.8178 Y8.3751
G01 X31.8360 Y8.5501
G00 Z2.0000
G00 X33.7807 Y8.4887
G01 F60.00
G01 Z-0.0300
G01 F120.00
G01 X33.7871 Y8.3837
G01 X33.7812 Y8.2570
G01 X33.8611 Y8.3352
G01 X33.9127 Y8.3718
G01 X33.8442 Y8.4147
G01 X33.7807 Y8.4887
G00 Z2.0000
G00 X34.4194 Y8.2520
G01 F60.00
G01 Z-0.0300
G01 F120.00
G01 X34.4129 Y8.3570
G01 X34.4189 Y8.4837
G01 X34.3390 Y8.4055
G01 X34.2874 Y8.3689
G01 X34.3558 Y8.3260
G01 X34.4194 Y8.2520
G00 Z2.0000
G00 X34.6060 Y8.5501
G01 F60.00
G01 Z-0.0300
G01 F120.00
G01 X34.6580 Y8.7181
G01 X34.7417 Y8.8728
G01 X34.8540 Y9.0081
G01 X34.9905 Y9.1190
G01 X35.1461 Y9.2011
G01 X35.3135 Y9.2510
G01 X35.4898 Y9.2675
G01 X35.6647 Y9.2494
G01 X35.8328 Y9.1974
G01 X35.9874 Y9.1137
G01 X36.1228 Y9.0014
G01 X36.2337 Y8.8648
G01 X36.3157 Y8.7093
G01 X36.3657 Y8.5419
G01 X36.3822 Y8.3656
G01 X36.3657 Y8.1988
G01 X36.3121 Y8.0226
G01 X36.2284 Y7.8679
G01 X36.1161 Y7.7326
G01 X35.9795 Y7.6217
G01 X35.8240 Y7.5396
G01 X35.6566 Y7.4897
G01 X35.4803 Y7.4732
G01 X35.3053 Y7.4913
G01 X35.1373 Y7.5433
G01 X34.9826 Y7.6270
G01 X34.8472 Y7.7393
G01 X34.7364 Y7.8759
G01 X34.6543 Y8.0314
G01 X34.6043 Y8.1988
G01 X34.5878 Y8.3751
G01 X34.6060 Y8.5501
G00 Z2.0000
G00 X36.7920 Y10.2877
G01 F60.00
G01 Z-0.0300
G01 F120.00
G01 X36.9480 Y10.2877
G01 X36.9203 Y10.3154
G01 X36.8198 Y10.3154
G01 X36.7920 Y10.2877
G00 Z2.0000
G00 X35.9473 Y11.2883
G01 F60.00
G01 Z-0.0300
G01 F120.00
G01 X35.9473 Y11.1324
G01 X35.9751 Y11.1601
G01 X35.9751 Y11.2606
G01 X35.9473 Y11.2883
G00 Z2.0000
G00 X36.8198 Y12.1053
G01 F60.00
G01 Z-0.0300
G01 F120.00
G01 X36.9203 Y12.1053
G01 X36.9480 Y12.1331
G01 X36.7920 Y12.1331
G01 X36.8198 Y12.1053
G00 Z2.0000
G00 X37.7650 Y11.2606
G01 F60.00
G01 Z-0.0300
G01 F120.00
G01 X37.7650 Y11.1601
G01 X37.7927 Y11.1324
G01 X37.7927 Y11.2883
G01 X37.7650 Y11.2606
G00 Z2.0000
G00 X41.4268 Y9.6554
G01 F60.00
G01 Z-0.0300
G01 F120.00
G01 X41.4570 Y9.3872
G01 X41.5171 Y9.1240
G01 X41.6063 Y8.8692
G01 X41.7234 Y8.6261
G01 X41.8670 Y8.3975
G01 X42.0353 Y8.1865
G01 X42.2261 Y7.9956
G01 X42.4372 Y7.8273
G01 X42.6657 Y7.6837
G01 X42.9089 Y7.5666
G01 X43.1637 Y7.4774
G01 X43.4269 Y7.4174
G01 X43.6951 Y7.3872
G01 X43.9650 Y7.3872
G01 X44.2332 Y7.4174
G01 X44.4964 Y7.4774
G01 X44.7511 Y7.5666
G01 X44.9943 Y7.6837
G01 X45.2229 Y7.8273
G01 X45.4339 Y7.9956
G01 X45.6248 Y8.1865
G01 X45.7931 Y8.3975
G01 X45.9367 Y8.6261
G01 X46.0538 Y8.8692
G01 X46.1429 Y9.1240
G01 X46.2030 Y9.3872
G01 X46.2332 Y9.6554
G01 X46.2332 Y9.9253
G01 X46.2030 Y10.1935
G01 X46.1429 Y10.4567
G01 X46.0538 Y10.7115
G01 X45.9367 Y10.9547
G01 X45.7931 Y11.1832
G01 X45.6248 Y11.3942
G01 X45.4339 Y11.5851
G01 X45.2229 Y11.7534
G01 X44.9943 Y11.8970
G01 X44.7511 Y12.0141
G01 X44.4964 Y12.1033
G01 X44.2332 Y12.1633
G01 X43.9650 Y12.1936
G01 X43.6951 Y12.1936
G01 X43.4268 Y12.1633
G01 X43.1637 Y12.1033
G01 X42.9089 Y12.0141
G01 X42.6657 Y11.8970
G01 X42.4372 Y11.7534
G01 X42.2261 Y11.5851
G01 X42.0353 Y11.3942
G01 X41.8670 Y11.1832
G01 X41.7234 Y10.9547
G01 X41.6063 Y10.7115
G01 X41.5171 Y10.4567
G01 X41.4570 Y10.1935
G01 X41.4268 Y9.9253
G01 X41.4268 Y9.6554
G00 Z2.0000
G00 X41.7722 Y10.1948
G01 F60.00
G01 Z-0.0300
G01 F120.00
G01 X41.8218 Y10.3946
G01 X41.8907 Y10.5885
G01 X41.9782 Y10.7748
G01 X42.0836 Y10.9515
G01 X42.2059 Y11.1171
G01 X42.3470 Y11.2734
G01 X42.4959 Y11.4085
G01 X42.6609 Y11.5314
G01 X42.8372 Y11.6377
G01 X43.0231 Y11.7261
G01 X43.2253 Y11.7985
G01 X43.4244 Y11.8480
G01 X43.6197 Y11.8770
G01 X43.8253 Y11.8875
G01 X44.0308 Y11.8779
G01 X44.2345 Y11.8482
G01 X44.4342 Y11.7986
G01 X44.6282 Y11.7297
G01 X44.8144 Y11.6422
G01 X44.9912 Y11.5368
G01 X45.1568 Y11.4145
G01 X45.3130 Y11.2734
G01 X45.4481 Y11.1245
G01 X45.5711 Y10.9595
G01 X45.6773 Y10.7832
G01 X45.7657 Y10.5973
G01 X45.8381 Y10.3954
G01 X45.8877 Y10.1960
G01 X45.9176 Y9.9912
G01 X45.9272 Y9.7856
G01 X45.9166 Y9.5800
G01 X45.8877 Y9.3847
G01 X45.8383 Y9.1861
G01 X45.7694 Y8.9922
G01 X45.6818 Y8.8060
G01 X45.5764 Y8.6292
G01 X45.4542 Y8.4636
G01 X45.3130 Y8.3073
G01 X45.1642 Y8.1722
G01 X44.9991 Y8.0493
G01 X44.8228 Y7.9431
G01 X44.6370 Y7.8546
G01 X44.4347 Y7.7822
G01 X44.2357 Y7.7327
G01 X44.0403 Y7.7037
G01 X43.8348 Y7.6932
G01 X43.6292 Y7.7028
G01 X43.4256 Y7.7325
G01 X43.2258 Y7.7821
G01 X43.0319 Y7.8510
G01 X42.8456 Y7.9386
G01 X42.6689 Y8.0440
G01 X42.5033 Y8.1662
G01 X42.3470 Y8.3073
G01 X42.2119 Y8.4562
G01 X42.0889 Y8.6213
G01 X41.9827 Y8.7975
G01 X41.8943 Y8.9834
G01 X41.8220 Y9.1854
G01 X41.7724 Y9.3847
G01 X41.7434 Y9.5800
G01 X41.7328 Y9.7856
G01 X41.7425 Y9.9912
G01 X41.7722 Y10.1948
G00 Z2.0000
G00 X33.2191 Y11.3807
G01 F60.00
G01 Z-0.0300
G01 F120.00
G01 X33.2693 Y11.5493
G01 X33.3514 Y11.7048
G01 X33.4622 Y11.8414
G01 X33.5976 Y11.9537
G01 X33.7523 Y12.0374
G01 X33.9285 Y12.0910
G01 X34.0953 Y12.1075
G01 X34.2704 Y12.0912
G01 X34.4390 Y12.0411
G01 X34.5945 Y11.9590
G01 X34.7311 Y11.8481
G01 X34.8434 Y11.7128
G01 X34.9271 Y11.5581
G01 X34.9807 Y11.3819
G01 X34.9972 Y11.2056
G01 X34.9807 Y11.0388
G01 X34.9307 Y10.8714
G01 X34.8487 Y10.7159
G01 X34.7378 Y10.5793
G01 X34.6024 Y10.4670
G01 X34.4478 Y10.3833
G01 X34.2716 Y10.3297
G01 X34.1048 Y10.3132
G01 X33.9297 Y10.3295
G01 X33.7611 Y10.3796
G01 X33.6055 Y10.4617
G01 X33.4690 Y10.5726
G01 X33.3567 Y10.7079
G01 X33.2730 Y10.8626
G01 X33.2193 Y11.0388
G01 X33.2028 Y11.2056
G01 X33.2191 Y11.3807
G00 Z2.0000
G00 X33.0344 Y11.0920
G01 F60.00
G01 Z-0.0300
G01 F120.00
G01 X33.0279 Y11.1970
G01 X33.0339 Y11.3237
G01 X32.9540 Y11.2455
G01 X32.9024 Y11.2089
G01 X32.9708 Y11.1660
G01 X33.0344 Y11.0920
G00 Z2.0000
G00 X32.3957 Y11.3287
G01 F60.00
G01 Z-0.0300
G01 F120.00
G01 X32.4021 Y11.2237
G01 X32.3962 Y11.0970
G01 X32.4761 Y11.1752
G01 X32.5277 Y11.2118
G01 X32.4592 Y11.2547
G01 X32.3957 Y11.3287
G00 Z2.0000
G00 X31.8526 Y12.1463
G01 F60.00
G01 Z-0.0300
G01 F120.00
G01 X31.8595 Y12.1422
G01 X31.8526 Y12.1555
G01 X31.8526 Y12.1463
G00 Z2.0000
G00 X30.4491 Y11.3807
G01 F60.00
G01 Z-0.0300
G01 F120.00
G01 X30.5030 Y11.5581
G01 X30.5410 Y11.6375
G01 X30.6335 Y11.7758
G01 X30.7645 Y11.9069
G01 X30.9029 Y11.9994
G01 X30.9826 Y12.0376
G01 X30.9826 Y14.3800
G01 X30.9991 Y14.4854
G01 X31.0386 Y14.5690
G01 X31.0811 Y14.6222
G01 X31.7944 Y15.3357
G01 X31.8431 Y15.3761
G01 X31.9346 Y15.4210
G01 X32.0400 Y15.4375
G01 X37.3061 Y15.4375
G01 X39.2726 Y17.4039
G01 X39.2726 Y29.2561
G01 X37.6393 Y30.8894
G01 X37.4716 Y30.8393
G01 X37.3048 Y30.8228
G01 X37.1297 Y30.8391
G01 X36.9611 Y30.8893
G01 X36.8055 Y30.9714
G01 X36.6690 Y31.0822
G01 X36.6035 Y31.1545
G01 X36.5065 Y31.3013
G01 X36.4429 Y31.4550
G01 X36.4193 Y31.5485
G01 X36.4028 Y31.7153
G01 X36.4076 Y31.8127
G01 X36.4401 Y31.9759
G01 X36.4730 Y32.0678
G01 X36.5514 Y32.2145
G01 X36.6095 Y32.2929
G01 X36.7272 Y32.4105
G01 X36.8055 Y32.4687
G01 X36.9523 Y32.5471
G01 X37.0437 Y32.5798
G01 X37.2073 Y32.6124
G01 X37.3048 Y32.6172
G01 X37.4704 Y32.6009
G01 X37.5650 Y32.5772
G01 X37.7272 Y32.5090
G01 X37.8655 Y32.4166
G01 X37.9311 Y32.3578
G01 X38.0434 Y32.2224
G01 X38.1271 Y32.0678
G01 X38.1807 Y31.8916
G01 X38.1972 Y31.7248
G01 X38.1809 Y31.5497
G01 X38.1306 Y31.3808
G01 X39.8657 Y29.6457
G01 X39.9286 Y29.5595
G01 X39.9614 Y29.4643
G01 X39.9675 Y29.4000
G01 X39.9675 Y17.2600
G01 X39.9510 Y17.1546
G01 X39.9115 Y17.0710
G01 X39.8657 Y17.0144
G01 X37.6957 Y14.8444
G01 X37.6390 Y14.7986
G01 X37.5554 Y14.7591
G01 X37.4500 Y14.7426
G01 X32.1839 Y14.7426
G01 X31.6775 Y14.2361
G01 X31.6775 Y12.0376
G01 X31.8324 Y11.9537
G01 X31.9678 Y11.8414
G01 X32.0787 Y11.7048
G01 X32.1607 Y11.5493
G01 X32.2107 Y11.3819
G01 X32.2272 Y11.2056
G01 X32.2090 Y11.0306
G01 X32.1872 Y10.9453
G01 X32.1235 Y10.7916
G01 X32.0266 Y10.6449
G01 X31.9611 Y10.5726
G01 X31.8245 Y10.4617
G01 X31.6778 Y10.3833
G01 X31.5016 Y10.3297
G01 X31.3348 Y10.3132
G01 X31.1597 Y10.3295
G01 X31.0650 Y10.3532
G01 X30.9113 Y10.4169
G01 X30.7645 Y10.5138
G01 X30.6395 Y10.6375
G01 X30.5410 Y10.7832
G01 X30.4729 Y10.9453
G01 X30.4491 Y11.0400
G01 X30.4328 Y11.2151
G01 X30.4491 Y11.3807
G00 Z2.0000
G00 X30.0996 Y11.4113
G01 F60.00
G01 Z-0.0300
G01 F120.00
G01 X30.1303 Y11.5513
G01 X30.1695 Y11.6673
G01 X30.2199 Y11.7788
G01 X30.2809 Y11.8849
G01 X30.3521 Y11.9845
G01 X30.4327 Y12.0766
G01 X30.5219 Y12.1604
G01 X30.6323 Y12.2440
G01 X30.6323 Y14.3800
G01 X30.6420 Y14.4945
G01 X30.6775 Y14.6265
G01 X30.7382 Y14.7491
G01 X30.8215 Y14.8575
G01 X31.5467 Y15.5834
G01 X31.6344 Y15.6575
G01 X31.7308 Y15.7152
G01 X31.8166 Y15.7508
G01 X31.9201 Y15.7772
G01 X32.0400 Y15.7877
G01 X37.1610 Y15.7877
G01 X38.9223 Y17.5490
G01 X38.9223 Y29.1110
G01 X38.4944 Y29.5389
G01 X38.5265 Y29.4072
G01 X38.5432 Y29.2804
G01 X38.5471 Y29.1581
G01 X38.5389 Y29.0359
G01 X38.5188 Y28.9152
G01 X38.4870 Y28.7970
G01 X38.4102 Y28.6115
G01 X38.3491 Y28.5055
G01 X38.2779 Y28.4059
G01 X38.1973 Y28.3138
G01 X38.1081 Y28.2300
G01 X38.0111 Y28.1553
G01 X37.9072 Y28.0906
G01 X37.7975 Y28.0363
G01 X37.6830 Y27.9931
G01 X37.5272 Y27.9535
G01 X37.3220 Y27.9330
G01 X37.1559 Y27.9411
G01 X36.9590 Y27.9803
G01 X36.8025 Y28.0363
G01 X36.6255 Y28.1309
G01 X36.4919 Y28.2300
G01 X36.3500 Y28.3719
G01 X36.2664 Y28.4823
G01 X32.2190 Y28.4823
G01 X30.0977 Y26.3610
G01 X30.0960 Y18.7835
G01 X30.0795 Y18.6725
G01 X30.0525 Y18.5835
G01 X30.0045 Y18.4820
G01 X29.9529 Y18.4047
G01 X29.8775 Y18.3215
G01 X29.8253 Y18.2772
G01 X29.6946 Y18.1979
G01 X29.2577 Y17.7610
G01 X29.2577 Y12.2440
G01 X29.3681 Y12.1604
G01 X29.4573 Y12.0766
G01 X29.5379 Y11.9845
G01 X29.6091 Y11.8849
G01 X29.6702 Y11.7788
G01 X29.7205 Y11.6673
G01 X29.7588 Y11.5550
G01 X29.7906 Y11.4103
G01 X29.9592 Y11.4339
G01 X30.0536 Y11.4239
G01 X30.0996 Y11.4113
G00 Z2.0000
G00 X28.0375 Y12.1463
G01 F60.00
G01 Z-0.0300
G01 F120.00
G01 X28.0375 Y12.1559
G01 X28.0282 Y12.1408
G01 X28.0375 Y12.1463
G00 Z2.0000
G00 X27.6791 Y11.3807
G01 F60.00
G01 Z-0.0300
G01 F120.00
G01 X27.7330 Y11.5581
G01 X27.7710 Y11.6375
G01 X27.8635 Y11.7758
G01 X27.9945 Y11.9069
G01 X28.1329 Y11.9994
G01 X28.2126 Y12.0376
G01 X28.2126 Y18.0500
G01 X28.2185 Y18.1131
G01 X28.2410 Y18.1873
G01 X28.2946 Y18.2740
G01 X29.0526 Y19.0339
G01 X29.0526 Y26.6500
G01 X29.0663 Y26.7463
G01 X29.0960 Y26.8180
G01 X29.1544 Y26.8957
G01 X31.6844 Y29.4257
G01 X31.7410 Y29.4715
G01 X31.8015 Y29.5027
G01 X31.8658 Y29.5214
G01 X31.9300 Y29.5275
G01 X36.4728 Y29.5275
G01 X36.5567 Y29.6824
G01 X36.6690 Y29.8178
G01 X36.7345 Y29.8766
G01 X36.8729 Y29.9690
G01 X37.0350 Y30.0372
G01 X37.2073 Y30.0724
G01 X37.3832 Y30.0734
G01 X37.5559 Y30.0400
G01 X37.7272 Y29.9690
G01 X37.8655 Y29.8766
G01 X37.9378 Y29.8111
G01 X37.9966 Y29.7455
G01 X38.0890 Y29.6072
G01 X38.1307 Y29.5190
G01 X38.1790 Y29.3597
G01 X38.1972 Y29.1753
G01 X38.1809 Y29.0097
G01 X38.1600 Y28.9242
G01 X38.1271 Y28.8323
G01 X38.0487 Y28.6855
G01 X37.9905 Y28.6072
G01 X37.8729 Y28.4895
G01 X37.7945 Y28.4314
G01 X37.6478 Y28.3530
G01 X37.4716 Y28.2993
G01 X37.3048 Y28.2828
G01 X37.1297 Y28.2991
G01 X36.9611 Y28.3493
G01 X36.8055 Y28.4314
G01 X36.6690 Y28.5422
G01 X36.5567 Y28.6776
G01 X36.4728 Y28.8326
G01 X32.0739 Y28.8326
G01 X29.7475 Y26.5061
G01 X29.7461 Y18.8007
G01 X29.7191 Y18.6927
G01 X29.6861 Y18.6331
G01 X29.6490 Y18.5878
G01 X29.5890 Y18.5386
G01 X29.4982 Y18.4968
G01 X28.9075 Y17.9061
G01 X28.9075 Y12.0376
G01 X29.0545 Y11.9590
G01 X29.1329 Y11.9009
G01 X29.2505 Y11.7832
G01 X29.3490 Y11.6375
G01 X29.4172 Y11.4754
G01 X29.4409 Y11.3807
G01 X29.4572 Y11.2056
G01 X29.4409 Y11.0400
G01 X29.3907 Y10.8714
G01 X29.3087 Y10.7159
G01 X29.1978 Y10.5793
G01 X29.0624 Y10.4670
G01 X28.9078 Y10.3833
G01 X28.7316 Y10.3297
G01 X28.5648 Y10.3132
G01 X28.3897 Y10.3295
G01 X28.2211 Y10.3796
G01 X28.0655 Y10.4617
G01 X27.9290 Y10.5726
G01 X27.8167 Y10.7079
G01 X27.7330 Y10.8626
G01 X27.6793 Y11.0388
G01 X27.6628 Y11.2056
G01 X27.6791 Y11.3807
G00 Z2.0000
G00 X26.8625 Y10.9229
G01 F60.00
G01 Z-0.0300
G01 F120.00
G01 X26.9174 Y11.0000
G01 X27.0172 Y11.0850
G01 X27.0893 Y11.1160
G01 X27.2007 Y11.1358
G01 X27.2861 Y11.1311
G01 X27.3991 Y11.0885
G01 X27.4506 Y11.0598
G01 X27.5076 Y11.0050
G01 X27.4879 Y11.1970
G01 X27.4918 Y11.3021
G01 X27.5076 Y11.4147
G01 X27.4331 Y11.3501
G01 X27.3311 Y11.3025
G01 X27.2605 Y11.2854
G01 X27.1934 Y11.2867
G01 X27.1096 Y11.2992
G01 X27.0241 Y11.3319
G01 X26.9130 Y11.4241
G01 X26.8625 Y11.4991
G01 X26.8625 Y10.9229
G00 Z2.0000
G00 X27.0970 Y7.4477
G01 F60.00
G01 Z-0.0300
G01 F120.00
G01 X27.2530 Y7.4477
G01 X27.2253 Y7.4754
G01 X27.1248 Y7.4754
G01 X27.0970 Y7.4477
G00 Z2.0000
G00 X27.8623 Y15.6115
G01 F60.00
G01 Z-0.0300
G01 F120.00
G01 X27.8488 Y15.5352
G01 X27.8092 Y15.3953
G01 X27.8623 Y15.3825
G01 X27.8623 Y15.6115
G00 Z2.0000
G00 X27.8097 Y16.2034
G01 F60.00
G01 Z-0.0300
G01 F120.00
G01 X27.8488 Y16.0649
G01 X27.8623 Y15.9885
G01 X27.8623 Y16.2164
G01 X27.8097 Y16.2034
G00 Z2.0000
G00 X27.5141 Y16.4067
G01 F60.00
G01 Z-0.0300
G01 F120.00
G01 X27.6154 Y16.2227
G01 X27.6593 Y16.1007
G01 X27.6957 Y15.9184
G01 X27.7021 Y15.7867
G01 X27.6836 Y15.6007
G01 X27.6521 Y15.4760
G01 X27.5818 Y15.3064
G01 X27.5137 Y15.1928
G01 X27.5886 Y15.2244
G01 X27.6395 Y15.2347
G01 X27.6980 Y15.2345
G01 X27.8259 Y15.2113
G01 X27.8938 Y15.1766
G01 X27.9683 Y15.1139
G01 X28.0049 Y15.0753
G01 X28.0375 Y15.0212
G01 X28.0375 Y16.5831
G01 X28.0087 Y16.5296
G01 X27.9621 Y16.4779
G01 X27.8720 Y16.4110
G01 X27.8251 Y16.3880
G01 X27.7549 Y16.3717
G01 X27.6325 Y16.3667
G01 X27.5732 Y16.3794
G01 X27.5141 Y16.4067
G00 Z2.0000
G00 X27.2026 Y16.7060
G01 F60.00
G01 Z-0.0300
G01 F120.00
G01 X27.2039 Y16.7053
G01 X27.2026 Y16.7078
G01 X27.2026 Y16.7060
G00 Z2.0000
G00 X26.1575 Y16.7618
G01 F60.00
G01 Z-0.0300
G01 F120.00
G01 X26.1575 Y16.7819
G01 X26.1387 Y16.7529
G01 X26.1575 Y16.7618
G00 Z2.0000
G00 X26.1575 Y19.7276
G01 F60.00
G01 Z-0.0300
G01 F120.00
G01 X26.0155 Y19.7276
G01 X26.1070 Y19.6483
G01 X26.1575 Y19.5734
G01 X26.1575 Y19.7276
G00 Z2.0000
G00 X27.2503 Y19.7500
G01 F60.00
G01 Z-0.0300
G01 F120.00
G01 X27.2026 Y19.7380
G01 X27.2026 Y19.6849
G01 X27.2503 Y19.7500
G00 Z2.0000
G00 X25.4776 Y20.8817
G01 F60.00
G01 Z-0.0300
G01 F120.00
G01 X25.4269 Y20.7992
G01 X25.4776 Y20.7240
G01 X25.4776 Y20.8817
G00 Z2.0000
G00 X25.6550 Y21.3888
G01 F60.00
G01 Z-0.0300
G01 F120.00
G01 X25.6692 Y21.4554
G01 X25.6961 Y21.5179
G01 X25.7286 Y21.5666
G01 X25.7761 Y21.6154
G01 X25.8716 Y21.6726
G01 X25.9358 Y21.6913
G01 X26.0000 Y21.6973
G01 X27.1000 Y21.6973
G01 X27.1631 Y21.6915
G01 X27.2595 Y21.6585
G01 X27.3456 Y21.5956
G01 X27.4085 Y21.5095
G01 X27.4413 Y21.4143
G01 X27.4473 Y21.3500
G01 X27.4473 Y20.2500
G01 X27.4336 Y20.1538
G01 X27.4085 Y20.0906
G01 X27.3714 Y20.0335
G01 X27.2889 Y19.9587
G01 X27.2285 Y19.9274
G01 X27.1724 Y19.9104
G01 X27.0275 Y19.9027
G01 X27.0275 Y16.6036
G01 X27.1324 Y16.5434
G01 X27.2611 Y16.4378
G01 X27.3266 Y16.3655
G01 X27.4190 Y16.2272
G01 X27.4607 Y16.1390
G01 X27.5107 Y15.9716
G01 X27.5272 Y15.8048
G01 X27.5224 Y15.7073
G01 X27.4900 Y15.5442
G01 X27.4235 Y15.3813
G01 X27.3734 Y15.2976
G01 X27.2678 Y15.1690
G01 X27.1955 Y15.1035
G01 X27.0572 Y15.0110
G01 X26.9690 Y14.9693
G01 X26.8016 Y14.9193
G01 X26.6253 Y14.9028
G01 X26.4503 Y14.9210
G01 X26.2823 Y14.9730
G01 X26.1276 Y15.0567
G01 X25.9922 Y15.1690
G01 X25.8814 Y15.3055
G01 X25.7993 Y15.4611
G01 X25.7493 Y15.6285
G01 X25.7328 Y15.7953
G01 X25.7491 Y15.9704
G01 X25.7729 Y16.0650
G01 X25.8410 Y16.2272
G01 X25.9335 Y16.3655
G01 X26.0572 Y16.4905
G01 X26.2029 Y16.5890
G01 X26.3326 Y16.6456
G01 X26.3326 Y19.9027
G01 X25.9953 Y19.9028
G01 X25.8947 Y19.9192
G01 X25.8322 Y19.9461
G01 X25.7761 Y19.9847
G01 X25.7140 Y20.0532
G01 X25.6811 Y20.1128
G01 X25.6604 Y20.1776
G01 X25.6527 Y20.2500
G01 X25.6550 Y21.3888
G00 Z2.0000
G00 X23.9598 Y21.6950
G01 F60.00
G01 Z-0.0300
G01 F120.00
G01 X24.0603 Y21.6950
G01 X24.0880 Y21.7227
G01 X23.9320 Y21.7227
G01 X23.9598 Y21.6950
G00 Z2.0000
G00 X23.0873 Y20.8780
G01 F60.00
G01 Z-0.0300
G01 F120.00
G01 X23.0873 Y20.7220
G01 X23.1151 Y20.7498
G01 X23.1151 Y20.8503
G01 X23.0873 Y20.8780
G00 Z2.0000
G00 X23.9320 Y19.8773
G01 F60.00
G01 Z-0.0300
G01 F120.00
G01 X24.0880 Y19.8773
G01 X24.0603 Y19.9051
G01 X23.9598 Y19.9051
G01 X23.9320 Y19.8773
G00 Z2.0000
G00 X19.9460 Y16.3226
G01 F60.00
G01 Z-0.0300
G01 F120.00
G01 X19.9555 Y16.3226
G01 X19.9405 Y16.3318
G01 X19.9460 Y16.3226
G00 Z2.0000
G00 X19.9460 Y15.2775
G01 F60.00
G01 Z-0.0300
G01 F120.00
G01 X19.9419 Y15.2706
G01 X19.9552 Y15.2775
G01 X19.9460 Y15.2775
G00 Z2.0000
G00 X18.9153 Y14.5968
G01 F60.00
G01 Z-0.0300
G01 F120.00
G01 X19.1047 Y14.5968
G01 X19.2918 Y14.6265
G01 X19.4719 Y14.6850
G01 X19.6406 Y14.7710
G01 X19.7939 Y14.8823
G01 X20.0116 Y15.1088
G01 X20.1151 Y15.1447
G01 X20.8469 Y15.1464
G01 X20.8991 Y15.1376
G01 X20.9808 Y15.0935
G01 X24.5471 Y11.5243
G01 X24.5632 Y11.4926
G01 X24.5868 Y11.3981
G01 X24.5914 Y10.3254
G01 X24.6325 Y10.2151
G01 X24.7020 Y10.1223
G01 X24.7948 Y10.0528
G01 X24.9051 Y10.0117
G01 X26.6327 Y10.0072
G01 X26.6750 Y10.0117
G01 X26.7852 Y10.0528
G01 X26.8781 Y10.1223
G01 X26.9475 Y10.2151
G01 X26.9887 Y10.3254
G01 X26.9938 Y10.7518
G01 X27.0206 Y10.8477
G01 X27.0401 Y10.8750
G01 X27.1089 Y10.9358
G01 X27.1432 Y10.9488
G01 X27.2287 Y10.9621
G01 X27.2593 Y10.9572
G01 X27.3309 Y10.9272
G01 X27.3643 Y10.9039
G01 X27.4195 Y10.8234
G01 X27.4450 Y10.7485
G01 X27.5310 Y10.5797
G01 X27.6423 Y10.4265
G01 X27.7762 Y10.2926
G01 X27.9294 Y10.1813
G01 X28.0982 Y10.0953
G01 X28.2783 Y10.0368
G01 X28.4653 Y10.0072
G01 X28.6547 Y10.0072
G01 X28.8418 Y10.0368
G01 X29.0219 Y10.0953
G01 X29.1906 Y10.1813
G01 X29.3439 Y10.2926
G01 X29.4778 Y10.4265
G01 X29.5891 Y10.5797
G01 X29.6751 Y10.7485
G01 X29.7368 Y10.9378
G01 X29.7616 Y10.9863
G01 X29.8508 Y11.0634
G01 X29.9592 Y11.0837
G01 X29.9898 Y11.0787
G01 X30.0630 Y11.0481
G01 X30.1014 Y11.0175
G01 X30.1500 Y10.9450
G01 X30.2150 Y10.7485
G01 X30.3010 Y10.5797
G01 X30.4123 Y10.4265
G01 X30.5462 Y10.2926
G01 X30.6994 Y10.1813
G01 X30.8682 Y10.0953
G01 X31.0483 Y10.0368
G01 X31.2353 Y10.0072
G01 X31.4247 Y10.0072
G01 X31.6118 Y10.0368
G01 X31.7919 Y10.0953
G01 X31.9606 Y10.1813
G01 X32.1139 Y10.2926
G01 X32.2478 Y10.4265
G01 X32.3591 Y10.5797
G01 X32.4451 Y10.7485
G01 X32.5068 Y10.9378
G01 X32.5316 Y10.9863
G01 X32.6208 Y11.0634
G01 X32.7192 Y11.0831
G01 X32.7598 Y11.0787
G01 X32.8330 Y11.0481
G01 X32.8738 Y11.0141
G01 X32.9200 Y10.9450
G01 X32.9850 Y10.7485
G01 X33.0710 Y10.5797
G01 X33.1823 Y10.4265
G01 X33.3162 Y10.2926
G01 X33.4694 Y10.1813
G01 X33.6382 Y10.0953
G01 X33.8183 Y10.0368
G01 X34.0053 Y10.0072
G01 X34.1947 Y10.0072
G01 X34.3818 Y10.0368
G01 X34.5619 Y10.0953
G01 X34.7306 Y10.1813
G01 X34.8839 Y10.2926
G01 X35.0178 Y10.4265
G01 X35.1291 Y10.5797
G01 X35.2151 Y10.7485
G01 X35.2736 Y10.9286
G01 X35.3032 Y11.1157
G01 X35.3032 Y11.3051
G01 X35.2736 Y11.4921
G01 X35.2151 Y11.6722
G01 X35.1291 Y11.8410
G01 X35.0178 Y11.9942
G01 X34.8839 Y12.1281
G01 X34.7306 Y12.2394
G01 X34.5619 Y12.3254
G01 X34.3818 Y12.3839
G01 X34.1947 Y12.4136
G01 X34.0053 Y12.4136
G01 X33.8183 Y12.3839
G01 X33.6382 Y12.3254
G01 X33.4694 Y12.2394
G01 X33.3162 Y12.1281
G01 X33.1823 Y11.9942
G01 X33.0710 Y11.8410
G01 X32.9850 Y11.6722
G01 X32.9063 Y11.4463
G01 X32.8355 Y11.3746
G01 X32.7949 Y11.3523
G01 X32.6907 Y11.3376
G01 X32.5970 Y11.3726
G01 X32.5587 Y11.4032
G01 X32.5101 Y11.4757
G01 X32.4451 Y11.6722
G01 X32.3591 Y11.8410
G01 X32.2478 Y11.9942
G01 X32.0263 Y12.2054
G01 X32.0092 Y12.2342
G01 X31.9854 Y12.3154
G01 X31.9832 Y14.0178
G01 X31.9924 Y14.0788
G01 X32.0430 Y14.1688
G01 X32.2761 Y14.3971
G01 X32.3078 Y14.4132
G01 X32.4023 Y14.4368
G01 X37.5144 Y14.4368
G01 X37.6406 Y14.4619
G01 X37.7594 Y14.5112
G01 X37.8664 Y14.5827
G01 X40.1274 Y16.8436
G01 X40.1989 Y16.9506
G01 X40.2481 Y17.0695
G01 X40.2732 Y17.1957
G01 X40.2732 Y29.4644
G01 X40.2481 Y29.5906
G01 X40.1989 Y29.7094
G01 X40.1274 Y29.8164
G01 X38.5577 Y31.3861
G01 X38.5203 Y31.4378
G01 X38.5057 Y31.4714
G01 X38.4949 Y31.5523
G01 X38.5032 Y31.6253
G01 X38.5032 Y31.8147
G01 X38.4736 Y32.0018
G01 X38.4151 Y32.1819
G01 X38.3291 Y32.3506
G01 X38.2178 Y32.5039
G01 X38.0839 Y32.6378
G01 X37.9306 Y32.7491
G01 X37.7619 Y32.8351
G01 X37.5818 Y32.8936
G01 X37.4492 Y32.9150
G01 X37.3775 Y32.9446
G01 X37.3473 Y32.9651
G01 X37.2991 Y33.0299
G01 X37.2497 Y32.9622
G01 X37.1668 Y32.9205
G01 X37.0183 Y32.8936
G01 X36.8382 Y32.8351
G01 X36.6694 Y32.7491
G01 X36.5162 Y32.6378
G01 X36.3823 Y32.5039
G01 X36.2710 Y32.3506
G01 X36.1850 Y32.1819
G01 X36.1265 Y32.0018
G01 X36.0968 Y31.8147
G01 X36.0968 Y31.6253
G01 X36.1265 Y31.4383
G01 X36.1850 Y31.2582
G01 X36.2710 Y31.0894
G01 X36.3823 Y30.9362
G01 X36.5162 Y30.8023
G01 X36.6694 Y30.6910
G01 X36.7673 Y30.6400
G01 X36.8249 Y30.5903
G01 X36.8471 Y30.5562
G01 X36.8760 Y30.4553
G01 X36.8535 Y30.3548
G01 X36.8303 Y30.3183
G01 X36.7687 Y30.2611
G01 X36.6694 Y30.2091
G01 X36.5162 Y30.0978
G01 X36.3823 Y29.9639
G01 X36.3433 Y29.9124
G01 X36.2915 Y29.8667
G01 X36.1746 Y29.8332
G01 X31.8657 Y29.8332
G01 X31.7395 Y29.8081
G01 X31.6206 Y29.7589
G01 X31.5136 Y29.6874
G01 X28.8927 Y27.0664
G01 X28.8212 Y26.9594
G01 X28.7719 Y26.8405
G01 X28.7468 Y26.7144
G01 X28.7463 Y19.2419
G01 X28.7366 Y19.1887
G01 X28.6871 Y19.1013
G01 X28.0527 Y18.4664
G01 X27.9812 Y18.3594
G01 X27.9319 Y18.2405
G01 X27.9068 Y18.1144
G01 X27.9061 Y16.7411
G01 X27.8650 Y16.6296
G01 X27.7803 Y16.5602
G01 X27.7382 Y16.5460
G01 X27.6489 Y16.5411
G01 X27.6220 Y16.5480
G01 X27.5432 Y16.5908
G01 X27.3729 Y16.7629
G01 X27.3539 Y16.7975
G01 X27.3332 Y16.8891
G01 X27.3336 Y19.5116
G01 X27.3495 Y19.5844
G01 X27.3649 Y19.6149
G01 X27.4233 Y19.6798
G01 X27.5079 Y19.7342
G01 X27.6159 Y19.8421
G01 X27.6961 Y19.9721
G01 X27.7443 Y20.1177
G01 X27.7532 Y20.2050
G01 X27.7532 Y21.3951
G01 X27.7443 Y21.4823
G01 X27.6961 Y21.6280
G01 X27.6159 Y21.7579
G01 X27.5079 Y21.8659
G01 X27.3780 Y21.9461
G01 X27.2323 Y21.9943
G01 X27.1451 Y22.0032
G01 X25.9550 Y22.0032
G01 X25.8677 Y21.9943
G01 X25.7221 Y21.9461
G01 X25.5921 Y21.8659
G01 X25.4842 Y21.7579
G01 X25.4040 Y21.6280
G01 X25.3557 Y21.4823
G01 X25.3468 Y21.3951
G01 X25.3448 Y21.0275
G01 X25.3013 Y20.9215
G01 X25.2237 Y20.8601
G01 X25.1879 Y20.8441
G01 X25.0687 Y20.8422
G01 X24.9842 Y20.8877
G01 X24.9619 Y20.9072
G01 X24.9050 Y20.8503
G01 X24.9050 Y20.7498
G01 X24.9633 Y20.6915
G01 X25.0039 Y20.7263
G01 X25.0763 Y20.7588
G01 X25.1186 Y20.7635
G01 X25.2199 Y20.7442
G01 X25.3066 Y20.6709
G01 X25.3208 Y20.6457
G01 X25.3463 Y20.5543
G01 X25.3468 Y20.2050
G01 X25.3557 Y20.1177
G01 X25.4040 Y19.9721
G01 X25.4842 Y19.8421
G01 X25.5921 Y19.7342
G01 X25.7221 Y19.6540
G01 X25.8985 Y19.5940
G01 X25.9736 Y19.5338
G01 X26.0008 Y19.4948
G01 X26.0263 Y19.4034
G01 X26.0262 Y16.9512
G01 X26.0082 Y16.8736
G01 X25.9523 Y16.7981
G01 X25.8462 Y16.7178
G01 X25.7123 Y16.5839
G01 X25.6010 Y16.4306
G01 X25.5150 Y16.2619
G01 X25.4565 Y16.0818
G01 X25.4268 Y15.8947
G01 X25.4268 Y15.7053
G01 X25.4565 Y15.5183
G01 X25.5150 Y15.3382
G01 X25.6010 Y15.1694
G01 X25.7123 Y15.0162
G01 X25.8462 Y14.8823
G01 X25.9994 Y14.7710
G01 X26.1682 Y14.6850
G01 X26.3483 Y14.6265
G01 X26.5353 Y14.5968
G01 X26.7247 Y14.5968
G01 X26.9118 Y14.6265
G01 X27.0919 Y14.6850
G01 X27.2606 Y14.7710
G01 X27.4139 Y14.8823
G01 X27.5508 Y15.0159
G01 X27.6488 Y15.0591
G01 X27.7561 Y15.0492
G01 X27.7930 Y15.0333
G01 X27.8722 Y14.9598
G01 X27.9029 Y14.8684
G01 X27.9052 Y12.3178
G01 X27.8882 Y12.2476
G01 X27.8355 Y12.1760
G01 X27.7762 Y12.1281
G01 X27.6423 Y11.9942
G01 X27.5310 Y11.8410
G01 X27.4450 Y11.6722
G01 X27.4170 Y11.5927
G01 X27.3645 Y11.5166
G01 X27.2675 Y11.4657
G01 X27.2183 Y11.4601
G01 X27.1201 Y11.4790
G01 X27.0278 Y11.5603
G01 X26.9938 Y11.6689
G01 X26.9887 Y12.0953
G01 X26.9475 Y12.2056
G01 X26.8781 Y12.2984
G01 X26.7852 Y12.3679
G01 X26.6750 Y12.4090
G01 X26.6327 Y12.4136
G01 X25.5934 Y12.4140
G01 X25.5387 Y12.4238
G01 X25.4513 Y12.4733
G01 X21.6167 Y16.3074
G01 X21.5098 Y16.3789
G01 X21.3909 Y16.4281
G01 X21.2647 Y16.4532
G01 X20.1354 Y16.4532
G01 X20.0714 Y16.4636
G01 X20.0394 Y16.4761
G01 X19.9718 Y16.5278
G01 X19.9278 Y16.5839
G01 X19.7939 Y16.7178
G01 X19.6406 Y16.8291
G01 X19.4719 Y16.9151
G01 X19.2918 Y16.9736
G01 X19.1047 Y17.0032
G01 X18.9153 Y17.0032
G01 X18.7283 Y16.9736
G01 X18.5482 Y16.9151
G01 X18.3794 Y16.8291
G01 X18.2262 Y16.7178
G01 X18.0923 Y16.5839
G01 X17.9810 Y16.4306
G01 X17.8950 Y16.2619
G01 X17.8365 Y16.0818
G01 X17.8068 Y15.8947
G01 X17.8068 Y15.7053
G01 X17.8365 Y15.5183
G01 X17.8950 Y15.3382
G01 X17.9810 Y15.1694
G01 X18.0923 Y15.0162
G01 X18.2262 Y14.8823
G01 X18.3794 Y14.7710
G01 X18.5482 Y14.6850
G01 X18.7283 Y14.6265
G01 X18.9153 Y14.5968
G00 Z2.0000
G00 X18.1291 Y15.9704
G01 F60.00
G01 Z-0.0300
G01 F120.00
G01 X18.1529 Y16.0650
G01 X18.2210 Y16.2272
G01 X18.3135 Y16.3655
G01 X18.4372 Y16.4905
G01 X18.5829 Y16.5890
G01 X18.6711 Y16.6307
G01 X18.8385 Y16.6807
G01 X19.0053 Y16.6972
G01 X19.1027 Y16.6924
G01 X19.2659 Y16.6600
G01 X19.3578 Y16.6271
G01 X19.5045 Y16.5487
G01 X19.5829 Y16.4905
G01 X19.7005 Y16.3729
G01 X19.7587 Y16.2945
G01 X19.8372 Y16.1475
G01 X21.2051 Y16.1473
G01 X21.3057 Y16.1310
G01 X21.3893 Y16.0915
G01 X21.4460 Y16.0457
G01 X25.3841 Y12.1077
G01 X26.5900 Y12.1077
G01 X26.6253 Y12.1010
G01 X26.6588 Y12.0792
G01 X26.6807 Y12.0457
G01 X26.6873 Y12.0104
G01 X26.6873 Y10.4104
G01 X26.6708 Y10.3561
G01 X26.6373 Y10.3253
G01 X26.5900 Y10.3131
G01 X24.9900 Y10.3131
G01 X24.9547 Y10.3197
G01 X24.9212 Y10.3416
G01 X24.8994 Y10.3750
G01 X24.8927 Y10.4104
G01 X24.8927 Y11.6163
G01 X21.0564 Y15.4526
G01 X19.8372 Y15.4526
G01 X19.7587 Y15.3055
G01 X19.7005 Y15.2272
G01 X19.5829 Y15.1095
G01 X19.4372 Y15.0110
G01 X19.2750 Y14.9429
G01 X19.1804 Y14.9191
G01 X19.0053 Y14.9028
G01 X18.8397 Y14.9191
G01 X18.6711 Y14.9693
G01 X18.5155 Y15.0514
G01 X18.3790 Y15.1622
G01 X18.2667 Y15.2976
G01 X18.1830 Y15.4523
G01 X18.1293 Y15.6285
G01 X18.1128 Y15.7953
G01 X18.1291 Y15.9704
G00 Z2.0000
G00 X11.7771 Y24.5273
G01 F60.00
G01 Z-0.0300
G01 F120.00
G01 X11.9331 Y24.5273
G01 X11.9054 Y24.5551
G01 X11.8049 Y24.5551
G01 X11.7771 Y24.5273
G00 Z2.0000
G00 X10.9324 Y25.5280
G01 F60.00
G01 Z-0.0300
G01 F120.00
G01 X10.9324 Y25.3720
G01 X10.9602 Y25.3998
G01 X10.9602 Y25.5003
G01 X10.9324 Y25.5280
G00 Z2.0000
G00 X11.8049 Y26.3450
G01 F60.00
G01 Z-0.0300
G01 F120.00
G01 X11.9054 Y26.3450
G01 X11.9331 Y26.3727
G01 X11.7771 Y26.3727
G01 X11.8049 Y26.3450
G00 Z2.0000
G00 X13.2827 Y25.6586
G01 F60.00
G01 Z-0.0300
G01 F120.00
G01 X13.2431 Y25.5863
G01 X13.2009 Y25.5408
G01 X13.1098 Y25.4799
G01 X13.0398 Y25.4491
G01 X13.1023 Y25.4277
G01 X13.1606 Y25.3890
G01 X13.2321 Y25.3254
G01 X13.2827 Y25.2503
G01 X13.2827 Y25.6586
G00 Z2.0000
G00 X13.7403 Y26.5183
G01 F60.00
G01 Z-0.0300
G01 F120.00
G01 X13.8326 Y26.5225
G01 X13.8326 Y26.6407
G01 X13.7937 Y26.5706
G01 X13.7403 Y26.5183
G00 Z2.0000
G00 X15.9613 Y29.2813
G01 F60.00
G01 Z-0.0300
G01 F120.00
G01 X15.9285 Y29.2846
G01 X15.9285 Y29.2486
G01 X15.9613 Y29.2813
G00 Z2.0000
G00 X16.3796 Y29.4519
G01 F60.00
G01 Z-0.0300
G01 F120.00
G01 X15.9819 Y29.4551
G01 X15.7534 Y29.4874
G01 X15.7534 Y28.8257
G01 X16.3796 Y29.4519
G00 Z2.0000
G00 X16.8024 Y29.6270
G01 F60.00
G01 Z-0.0300
G01 F120.00
G01 X15.9905 Y29.6300
G01 X15.7654 Y29.6634
G01 X15.5783 Y29.7230
G01 X15.5783 Y28.4029
G01 X16.8024 Y29.6270
G00 Z2.0000
G00 X17.3497 Y29.9267
G01 F60.00
G01 Z-0.0300
G01 F120.00
G01 X17.2373 Y29.8773
G01 X17.1277 Y29.8422
G01 X17.0249 Y29.8195
G01 X16.9009 Y29.8049
G01 X16.0359 Y29.8031
G01 X15.8848 Y29.8180
G01 X15.6974 Y29.8650
G01 X15.5571 Y29.9230
G01 X15.4031 Y30.0145
G01 X15.4031 Y27.9801
G01 X17.3497 Y29.9267
G00 Z2.0000
G00 X15.3001 Y30.3477
G01 F60.00
G01 Z-0.0300
G01 F120.00
G01 X15.2280 Y30.2681
G01 X15.2280 Y27.5573
G01 X18.1065 Y30.4358
G01 X17.9629 Y30.5661
G01 X17.8714 Y30.6716
G01 X17.8008 Y30.7703
G01 X17.7578 Y30.6217
G01 X17.6899 Y30.4781
G01 X17.5822 Y30.3256
G01 X17.4811 Y30.2237
G01 X17.3219 Y30.1102
G01 X17.1783 Y30.0423
G01 X16.9971 Y29.9924
G01 X16.8556 Y29.9781
G01 X16.0445 Y29.9781
G01 X15.8506 Y30.0032
G01 X15.7217 Y30.0423
G01 X15.5781 Y30.1102
G01 X15.4256 Y30.2178
G01 X15.3001 Y30.3477
G00 Z2.0000
G00 X15.3000 Y30.7007
G01 F60.00
G01 Z-0.0300
G01 F120.00
G01 X15.2396 Y30.5681
G01 X15.1744 Y30.4705
G01 X15.0528 Y30.3448
G01 X15.0528 Y27.1344
G01 X18.2923 Y30.3739
G01 X18.2923 Y30.5164
G01 X18.1819 Y30.6000
G01 X18.0400 Y30.7419
G01 X17.9409 Y30.8755
G01 X17.8463 Y31.0525
G01 X17.7912 Y31.2054
G01 X17.7511 Y31.4059
G01 X17.7430 Y31.5720
G01 X17.7511 Y31.6941
G01 X17.7677 Y31.7972
G01 X17.6476 Y31.8189
G01 X17.6471 Y30.9531
G01 X17.6356 Y30.8362
G01 X17.6180 Y30.7574
G01 X17.5604 Y30.6069
G01 X17.5207 Y30.5366
G01 X17.4508 Y30.4413
G01 X17.3295 Y30.3256
G01 X17.1932 Y30.2397
G01 X17.0426 Y30.1820
G01 X16.8837 Y30.1548
G01 X16.0750 Y30.1524
G01 X15.8931 Y30.1731
G01 X15.7402 Y30.2240
G01 X15.6681 Y30.2604
G01 X15.5705 Y30.3256
G01 X15.4782 Y30.4093
G01 X15.4037 Y30.5001
G01 X15.3397 Y30.6069
G01 X15.3000 Y30.7007
G00 Z2.0000
G00 X13.8326 Y30.3276
G01 F60.00
G01 Z-0.0300
G01 F120.00
G01 X13.7182 Y30.3304
G01 X13.7821 Y30.2733
G01 X13.8326 Y30.1985
G01 X13.8326 Y30.3276
G00 Z2.0000
G00 X13.7249 Y32.8703
G01 F60.00
G01 Z-0.0300
G01 F120.00
G01 X13.8326 Y32.8725
G01 X13.8326 Y33.0103
G01 X13.7869 Y32.9307
G01 X13.7249 Y32.8703
G00 Z2.0000
G00 X15.4982 Y32.5186
G01 F60.00
G01 Z-0.0300
G01 F120.00
G01 X15.3840 Y32.4689
G01 X15.2568 Y32.4656
G01 X15.1746 Y32.4802
G01 X15.1028 Y32.5166
G01 X15.1571 Y32.3644
G01 X15.1721 Y32.2384
G01 X15.1677 Y30.8983
G01 X15.1280 Y30.7397
G01 X15.0705 Y30.6266
G01 X14.9921 Y30.5269
G01 X14.8777 Y30.4324
G01 X14.8777 Y26.7116
G01 X18.4675 Y30.3014
G01 X18.4675 Y30.6140
G01 X18.3202 Y30.7128
G01 X18.2414 Y30.7825
G01 X18.1698 Y30.8596
G01 X18.1060 Y30.9433
G01 X18.0508 Y31.0328
G01 X18.0046 Y31.1274
G01 X17.9680 Y31.2260
G01 X17.9411 Y31.3278
G01 X17.9244 Y31.4316
G01 X17.9179 Y31.5367
G01 X17.9244 Y31.6684
G01 X17.9602 Y31.8485
G01 X18.0345 Y32.0358
G01 X17.9672 Y31.9958
G01 X17.9157 Y31.9788
G01 X17.7867 Y31.9714
G01 X17.7276 Y31.9779
G01 X17.6649 Y32.0002
G01 X17.5501 Y32.0740
G01 X17.5055 Y32.1229
G01 X17.4725 Y32.1819
G01 X17.4677 Y30.8983
G01 X17.4482 Y30.8000
G01 X17.4020 Y30.6818
G01 X17.3337 Y30.5748
G01 X17.2731 Y30.5080
G01 X17.1957 Y30.4444
G01 X17.0850 Y30.3823
G01 X16.9644 Y30.3430
G01 X16.8384 Y30.3279
G01 X15.9983 Y30.3323
G01 X15.8397 Y30.3721
G01 X15.7044 Y30.4444
G01 X15.6080 Y30.5269
G01 X15.5295 Y30.6266
G01 X15.4597 Y30.7744
G01 X15.4323 Y30.8983
G01 X15.4279 Y32.2384
G01 X15.4519 Y32.4001
G01 X15.4982 Y32.5186
G00 Z2.0000
G00 X15.9275 Y32.9122
G01 F60.00
G01 Z-0.0300
G01 F120.00
G01 X15.9036 Y32.8709
G01 X15.8795 Y32.8419
G01 X15.9275 Y32.8550
G01 X15.9275 Y32.9122
G00 Z2.0000
G00 X17.0200 Y32.8419
G01 F60.00
G01 Z-0.0300
G01 F120.00
G01 X16.9966 Y32.8704
G01 X16.9726 Y32.9130
G01 X16.9726 Y32.8550
G01 X17.0200 Y32.8419
G00 Z2.0000
G00 X19.5126 Y30.6045
G01 F60.00
G01 Z-0.0300
G01 F120.00
G01 X19.5170 Y30.6124
G01 X19.5218 Y30.6196
G01 X19.5126 Y30.6140
G01 X19.5126 Y30.6045
G00 Z2.0000
G00 X23.0873 Y28.4980
G01 F60.00
G01 Z-0.0300
G01 F120.00
G01 X23.0873 Y28.3420
G01 X23.1151 Y28.3698
G01 X23.1151 Y28.4703
G01 X23.0873 Y28.4980
G00 Z2.0000
G00 X23.9598 Y29.3150
G01 F60.00
G01 Z-0.0300
G01 F120.00
G01 X24.0603 Y29.3150
G01 X24.0880 Y29.3427
G01 X23.9320 Y29.3427
G01 X23.9598 Y29.3150
G00 Z2.0000
G00 X24.9457 Y28.3291
G01 F60.00
G01 Z-0.0300
G01 F120.00
G01 X24.9793 Y28.3809
G01 X25.0376 Y28.4206
G01 X24.9802 Y28.4573
G01 X24.9466 Y28.5119
G01 X24.9050 Y28.4703
G01 X24.9050 Y28.3698
G01 X24.9457 Y28.3291
G00 Z2.0000
G00 X25.3086 Y28.3687
G01 F60.00
G01 Z-0.0300
G01 F120.00
G01 X25.3525 Y28.2795
G01 X25.3765 Y28.1383
G01 X25.4350 Y27.9582
G01 X25.5210 Y27.7894
G01 X25.6323 Y27.6362
G01 X25.7662 Y27.5023
G01 X25.9194 Y27.3910
G01 X26.0882 Y27.3050
G01 X26.2683 Y27.2465
G01 X26.4553 Y27.2168
G01 X26.6447 Y27.2168
G01 X26.8318 Y27.2465
G01 X27.0119 Y27.3050
G01 X27.1806 Y27.3910
G01 X27.3339 Y27.5023
G01 X27.4678 Y27.6362
G01 X27.5791 Y27.7894
G01 X27.6651 Y27.9582
G01 X27.7236 Y28.1383
G01 X27.7532 Y28.3253
G01 X27.7532 Y28.5147
G01 X27.7236 Y28.7018
G01 X27.6651 Y28.8819
G01 X27.5791 Y29.0506
G01 X27.4678 Y29.2039
G01 X27.2463 Y29.4151
G01 X27.2292 Y29.4439
G01 X27.2072 Y29.5180
G01 X27.2032 Y30.3810
G01 X27.2172 Y30.4584
G01 X27.2828 Y30.5501
G01 X27.3939 Y30.6323
G01 X27.5278 Y30.7662
G01 X27.6391 Y30.9194
G01 X27.7251 Y31.0882
G01 X27.7836 Y31.2683
G01 X27.8132 Y31.4553
G01 X27.8078 Y31.7741
G01 X27.8550 Y31.8683
G01 X28.7325 Y32.7467
G01 X28.8259 Y32.7886
G01 X28.8682 Y32.7934
G01 X28.9587 Y32.7755
G01 X29.0114 Y32.7496
G01 X29.2214 Y32.6814
G01 X29.4396 Y32.6468
G01 X29.6605 Y32.6468
G01 X29.8786 Y32.6814
G01 X30.0887 Y32.7496
G01 X30.2855 Y32.8499
G01 X30.4641 Y32.9797
G01 X30.6203 Y33.1359
G01 X30.7501 Y33.3146
G01 X30.8504 Y33.5114
G01 X30.9187 Y33.7214
G01 X30.9532 Y33.9396
G01 X30.9532 Y34.1605
G01 X30.9187 Y34.3786
G01 X30.8504 Y34.5887
G01 X30.7501 Y34.7855
G01 X30.6203 Y34.9642
G01 X30.4641 Y35.1203
G01 X30.2855 Y35.2501
G01 X30.0887 Y35.3504
G01 X29.8786 Y35.4187
G01 X29.6605 Y35.4532
G01 X29.4396 Y35.4532
G01 X29.2214 Y35.4187
G01 X29.0114 Y35.3504
G01 X28.8146 Y35.2501
G01 X28.6359 Y35.1203
G01 X28.4797 Y34.9641
G01 X28.3499 Y34.7855
G01 X28.2496 Y34.5887
G01 X28.1814 Y34.3786
G01 X28.1468 Y34.1605
G01 X28.1421 Y34.0566
G01 X28.0935 Y33.9596
G01 X26.9439 Y32.8077
G01 X26.8848 Y32.7657
G01 X26.8586 Y32.7557
G01 X26.7681 Y32.7444
G01 X26.7047 Y32.7532
G01 X26.5153 Y32.7532
G01 X26.3283 Y32.7236
G01 X26.1482 Y32.6651
G01 X25.9794 Y32.5791
G01 X25.8262 Y32.4678
G01 X25.6923 Y32.3339
G01 X25.5810 Y32.1806
G01 X25.4950 Y32.0119
G01 X25.4365 Y31.8318
G01 X25.4068 Y31.6447
G01 X25.4068 Y31.4553
G01 X25.4365 Y31.2683
G01 X25.4950 Y31.0882
G01 X25.5810 Y30.9194
G01 X25.6923 Y30.7662
G01 X25.8571 Y30.5961
G01 X25.8929 Y30.4974
G01 X25.8962 Y29.5349
G01 X25.8828 Y29.4681
G01 X25.8689 Y29.4421
G01 X25.8172 Y29.3763
G01 X25.7662 Y29.3378
G01 X25.6323 Y29.2039
G01 X25.5210 Y29.0506
G01 X25.4350 Y28.8819
G01 X25.3765 Y28.7018
G01 X25.3500 Y28.5541
G01 X25.3129 Y28.4764
G01 X25.2402 Y28.4191
G01 X25.3086 Y28.3687
G00 Z2.0000
G00 X25.6691 Y28.5904
G01 F60.00
G01 Z-0.0300
G01 F120.00
G01 X25.7230 Y28.7678
G01 X25.7610 Y28.8472
G01 X25.8535 Y28.9855
G01 X25.9845 Y29.1166
G01 X26.1229 Y29.2090
G01 X26.2026 Y29.2472
G01 X26.2026 Y30.7512
G01 X26.1155 Y30.8014
G01 X26.0372 Y30.8595
G01 X25.9722 Y30.9190
G01 X25.8667 Y31.0476
G01 X25.7793 Y31.2111
G01 X25.7310 Y31.3703
G01 X25.7176 Y31.4573
G01 X25.7128 Y31.5548
G01 X25.7310 Y31.7297
G01 X25.7830 Y31.8978
G01 X25.8667 Y32.0524
G01 X25.9790 Y32.1878
G01 X26.1076 Y32.2934
G01 X26.1913 Y32.3435
G01 X26.3537 Y32.4098
G01 X26.5173 Y32.4424
G01 X26.6148 Y32.4472
G01 X26.7897 Y32.4290
G01 X26.9493 Y32.3806
G01 X28.4648 Y33.8961
G01 X28.4528 Y34.0453
G01 X28.4586 Y34.1623
G01 X28.4987 Y34.3640
G01 X28.5382 Y34.4743
G01 X28.6351 Y34.6556
G01 X28.7049 Y34.7498
G01 X28.8503 Y34.8951
G01 X28.9365 Y34.9596
G01 X29.0370 Y35.0199
G01 X29.2270 Y35.0986
G01 X29.3407 Y35.1271
G01 X29.5453 Y35.1472
G01 X29.6623 Y35.1415
G01 X29.8640 Y35.1013
G01 X29.9743 Y35.0619
G01 X30.0714 Y35.0154
G01 X30.1629 Y34.9601
G01 X30.2498 Y34.8951
G01 X30.3259 Y34.8259
G01 X30.4012 Y34.7424
G01 X30.4650 Y34.6556
G01 X30.5199 Y34.5630
G01 X30.5655 Y34.4655
G01 X30.6011 Y34.3647
G01 X30.6271 Y34.2594
G01 X30.6424 Y34.1528
G01 X30.6424 Y33.9472
G01 X30.6269 Y33.8395
G01 X30.6013 Y33.7361
G01 X30.5655 Y33.6346
G01 X30.5199 Y33.5370
G01 X30.4650 Y33.4444
G01 X30.4012 Y33.3577
G01 X30.3259 Y33.2741
G01 X30.2498 Y33.2049
G01 X30.1636 Y33.1404
G01 X30.0714 Y33.0846
G01 X29.9743 Y33.0382
G01 X29.8644 Y32.9988
G01 X29.7606 Y32.9732
G01 X29.6528 Y32.9577
G01 X29.5453 Y32.9528
G01 X29.4377 Y32.9586
G01 X29.3313 Y32.9749
G01 X29.2270 Y33.0015
G01 X29.1257 Y33.0382
G01 X29.0286 Y33.0846
G01 X28.9371 Y33.1399
G01 X28.8010 Y33.2496
G01 X27.4406 Y31.8893
G01 X27.4907 Y31.7216
G01 X27.5072 Y31.5453
G01 X27.4890 Y31.3703
G01 X27.4371 Y31.2023
G01 X27.3534 Y31.0476
G01 X27.2411 Y30.9122
G01 X27.1045 Y30.8014
G01 X27.0287 Y30.7565
G01 X26.8975 Y30.7009
G01 X26.8975 Y29.2472
G01 X26.9772 Y29.2090
G01 X27.1155 Y29.1166
G01 X27.2466 Y28.9855
G01 X27.3390 Y28.8472
G01 X27.3771 Y28.7678
G01 X27.4098 Y28.6767
G01 X27.4424 Y28.5127
G01 X27.4472 Y28.4153
G01 X27.4290 Y28.2403
G01 X27.3771 Y28.0723
G01 X27.2934 Y27.9176
G01 X27.1811 Y27.7822
G01 X27.0524 Y27.6767
G01 X26.9687 Y27.6265
G01 X26.8064 Y27.5602
G01 X26.6427 Y27.5276
G01 X26.4668 Y27.5267
G01 X26.3703 Y27.5410
G01 X26.2023 Y27.5930
G01 X26.0555 Y27.6714
G01 X25.9190 Y27.7822
G01 X25.8535 Y27.8545
G01 X25.7565 Y28.0013
G01 X25.6903 Y28.1634
G01 X25.6576 Y28.3273
G01 X25.6528 Y28.4248
G01 X25.6691 Y28.5904
G00 Z2.0000
G00 X26.0275 Y29.3655
G01 F60.00
G01 Z-0.0300
G01 F120.00
G01 X26.0231 Y29.3576
G01 X26.0182 Y29.3505
G01 X26.0275 Y29.3560
G01 X26.0275 Y29.3655
G00 Z2.0000
G00 X27.0795 Y29.3519
G01 F60.00
G01 Z-0.0300
G01 F120.00
G01 X27.0726 Y29.3652
G01 X27.0726 Y29.3560
G01 X27.0795 Y29.3519
G00 Z2.0000
G00 X27.0726 Y30.5609
G01 F60.00
G01 Z-0.0300
G01 F120.00
G01 X27.0770 Y30.5688
G01 X27.0943 Y30.5938
G01 X27.0726 Y30.5835
G01 X27.0726 Y30.5609
G00 Z2.0000
G00 X26.0273 Y30.6501
G01 F60.00
G01 Z-0.0300
G01 F120.00
G01 X26.0275 Y30.6497
G01 X26.0275 Y30.6500
G01 X26.0273 Y30.6501
G00 Z2.0000
G00 X27.6414 Y31.8424
G01 F60.00
G01 Z-0.0300
G01 F120.00
G01 X27.6439 Y31.8381
G01 X27.6476 Y31.8486
G01 X27.6414 Y31.8424
G00 Z2.0000
G00 X26.9093 Y32.5883
G01 F60.00
G01 Z-0.0300
G01 F120.00
G01 X26.8969 Y32.5848
G01 X26.8920 Y32.5840
G01 X26.9024 Y32.5814
G01 X26.9093 Y32.5883
G00 Z2.0000
G00 X28.8830 Y32.9677
G01 F60.00
G01 Z-0.0300
G01 F120.00
G01 X28.8130 Y33.0140
G01 X28.7433 Y32.9443
G01 X28.8013 Y32.9632
G01 X28.8830 Y32.9677
G00 Z2.0000
G00 X23.9320 Y27.4973
G01 F60.00
G01 Z-0.0300
G01 F120.00
G01 X24.0880 Y27.4973
G01 X24.0603 Y27.5251
G01 X23.9598 Y27.5251
G01 X23.9320 Y27.4973
G00 Z2.0000
G00 X31.1486 Y25.9258
G01 F60.00
G01 Z-0.0300
G01 F120.00
G01 X31.1486 Y24.7841
G01 X31.2153 Y24.9875
G01 X31.2716 Y25.1234
G01 X31.3829 Y25.3418
G01 X31.5077 Y25.5383
G01 X31.6668 Y25.7407
G01 X31.8366 Y25.9174
G01 X32.1018 Y26.1350
G01 X32.3083 Y26.2672
G01 X32.4380 Y26.3365
G01 X32.5845 Y26.4024
G01 X32.5582 Y26.6285
G01 X32.5534 Y26.8735
G01 X32.5726 Y27.1179
G01 X32.6270 Y27.4042
G01 X31.1486 Y25.9258
G00 Z2.0000
G00 X31.3237 Y25.8532
G01 F60.00
G01 Z-0.0300
G01 F120.00
G01 X31.3237 Y25.5773
G01 X31.4328 Y25.7314
G01 X31.5370 Y25.8583
G01 X31.6595 Y25.9905
G01 X31.7917 Y26.1131
G01 X31.9975 Y26.2757
G01 X32.1341 Y26.3670
G01 X32.3950 Y26.5099
G01 X32.3785 Y26.7179
G01 X32.3798 Y26.9093
G01 X31.3237 Y25.8532
G00 Z2.0000
G00 X32.1265 Y24.3608
G01 F60.00
G01 Z-0.0300
G01 F120.00
G01 X32.1717 Y24.5411
G01 X32.2635 Y24.7628
G01 X32.3569 Y24.9192
G01 X32.4454 Y25.0350
G01 X32.5264 Y25.1236
G01 X32.6151 Y25.2047
G01 X32.7278 Y25.2910
G01 X32.8873 Y25.3866
G01 X33.1090 Y25.4784
G01 X33.2838 Y25.5227
G01 X33.5281 Y25.5471
G01 X33.7137 Y25.5379
G01 X33.9491 Y25.4911
G01 X34.1241 Y25.4285
G01 X34.2515 Y25.3658
G01 X34.3692 Y25.2932
G01 X34.5577 Y25.1388
G01 X34.6825 Y25.0010
G01 X34.7654 Y24.8857
G01 X34.8179 Y24.7977
G01 X36.2664 Y24.7977
G01 X36.3500 Y24.9081
G01 X36.4919 Y25.0501
G01 X36.6255 Y25.1491
G01 X36.7315 Y25.2102
G01 X36.9170 Y25.2870
G01 X37.0729 Y25.3265
G01 X37.1996 Y25.3432
G01 X37.4004 Y25.3432
G01 X37.5218 Y25.3274
G01 X37.6410 Y25.2997
G01 X37.7570 Y25.2605
G01 X37.8685 Y25.2102
G01 X37.9746 Y25.1491
G01 X38.0742 Y25.0779
G01 X38.1663 Y24.9973
G01 X38.2501 Y24.9081
G01 X38.3247 Y24.8111
G01 X38.3895 Y24.7072
G01 X38.4437 Y24.5975
G01 X38.4870 Y24.4830
G01 X38.5188 Y24.3649
G01 X38.5389 Y24.2441
G01 X38.5471 Y24.1220
G01 X38.5432 Y23.9996
G01 X38.5188 Y23.8352
G01 X38.4605 Y23.6431
G01 X38.3895 Y23.4928
G01 X38.2779 Y23.3259
G01 X38.1663 Y23.2027
G01 X38.0111 Y23.0753
G01 X37.8685 Y22.9899
G01 X37.7570 Y22.9395
G01 X37.6433 Y22.9009
G01 X37.4441 Y22.8611
G01 X37.2781 Y22.8530
G01 X37.1559 Y22.8611
G01 X37.0352 Y22.8812
G01 X36.8431 Y22.9395
G01 X36.6928 Y23.0106
G01 X36.5259 Y23.1221
G01 X36.4027 Y23.2338
G01 X36.2664 Y23.4023
G01 X34.8179 Y23.4023
G01 X34.7432 Y23.2808
G01 X34.6825 Y23.1990
G01 X34.5736 Y23.0764
G01 X34.4510 Y22.9675
G01 X34.2515 Y22.8342
G01 X34.0835 Y22.7547
G01 X33.8539 Y22.6851
G01 X33.6700 Y22.6578
G01 X33.4300 Y22.6578
G01 X33.2893 Y22.6765
G01 X33.1510 Y22.7089
G01 X33.0166 Y22.7547
G01 X32.8873 Y22.8135
G01 X32.7308 Y22.9069
G01 X32.6151 Y22.9954
G01 X32.5264 Y23.0764
G01 X32.4175 Y23.1990
G01 X32.3347 Y23.3144
G01 X32.2215 Y23.5260
G01 X32.1717 Y23.6590
G01 X32.1351 Y23.7962
G01 X32.1121 Y23.9363
G01 X32.1030 Y24.0781
G01 X32.1078 Y24.2200
G01 X32.1265 Y24.3608
G00 Z2.0000
G00 X32.2997 Y24.3351
G01 F60.00
G01 Z-0.0300
G01 F120.00
G01 X32.3288 Y24.4565
G01 X32.3696 Y24.5745
G01 X32.4344 Y24.7115
G01 X32.4984 Y24.8161
G01 X32.5751 Y24.9174
G01 X32.6503 Y24.9998
G01 X32.7327 Y25.0749
G01 X32.8544 Y25.1652
G01 X32.9621 Y25.2282
G01 X33.0756 Y25.2804
G01 X33.1922 Y25.3209
G01 X33.3117 Y25.3498
G01 X33.4386 Y25.3673
G01 X33.5634 Y25.3721
G01 X33.7851 Y25.3503
G01 X33.9321 Y25.3135
G01 X34.0492 Y25.2702
G01 X34.2457 Y25.1652
G01 X34.3674 Y25.0749
G01 X34.4498 Y24.9998
G01 X34.5249 Y24.9174
G01 X34.6152 Y24.7957
G01 X34.7091 Y24.6226
G01 X36.3640 Y24.6226
G01 X36.4798 Y24.7905
G01 X36.6096 Y24.9203
G01 X36.6933 Y24.9840
G01 X36.7828 Y25.0392
G01 X36.9021 Y25.0956
G01 X37.1007 Y25.1536
G01 X37.2867 Y25.1721
G01 X37.4184 Y25.1657
G01 X37.5985 Y25.1299
G01 X37.6980 Y25.0956
G01 X37.7936 Y25.0518
G01 X37.9068 Y24.9840
G01 X38.0487 Y24.8676
G01 X38.1373 Y24.7698
G01 X38.2392 Y24.6172
G01 X38.2854 Y24.5227
G01 X38.3221 Y24.4240
G01 X38.3541 Y24.2961
G01 X38.3683 Y24.1918
G01 X38.3721 Y24.0867
G01 X38.3536 Y23.9007
G01 X38.3221 Y23.7760
G01 X38.2518 Y23.6064
G01 X38.1989 Y23.5155
G01 X38.1373 Y23.4302
G01 X38.0487 Y23.3325
G01 X37.9068 Y23.2160
G01 X37.7936 Y23.1482
G01 X37.6980 Y23.1044
G01 X37.5998 Y23.0705
G01 X37.4184 Y23.0344
G01 X37.2867 Y23.0279
G01 X37.1816 Y23.0344
G01 X37.0778 Y23.0511
G01 X36.9021 Y23.1044
G01 X36.7828 Y23.1608
G01 X36.6933 Y23.2160
G01 X36.6096 Y23.2798
G01 X36.4798 Y23.4096
G01 X36.3640 Y23.5775
G01 X34.7091 Y23.5775
G01 X34.6152 Y23.4044
G01 X34.5249 Y23.2827
G01 X34.4498 Y23.2003
G01 X34.3674 Y23.1251
G01 X34.2457 Y23.0349
G01 X34.0492 Y22.9299
G01 X33.9079 Y22.8792
G01 X33.6880 Y22.8353
G01 X33.5367 Y22.8279
G01 X33.4120 Y22.8353
G01 X33.2887 Y22.8550
G01 X33.1680 Y22.8866
G01 X33.0509 Y22.9299
G01 X32.8544 Y23.0349
G01 X32.7533 Y23.1082
G01 X32.6503 Y23.2003
G01 X32.5751 Y23.2827
G01 X32.4997 Y23.3822
G01 X32.4344 Y23.4886
G01 X32.3799 Y23.6009
G01 X32.3294 Y23.7413
G01 X32.3003 Y23.8617
G01 X32.2827 Y23.9886
G01 X32.2827 Y24.2114
G01 X32.2997 Y24.3351
G00 Z2.0000
G00 X32.4730 Y24.3094
G01 F60.00
G01 Z-0.0300
G01 F120.00
G01 X32.4987 Y24.4140
G01 X32.5345 Y24.5155
G01 X32.5846 Y24.6214
G01 X32.6399 Y24.7129
G01 X32.7049 Y24.7998
G01 X32.8503 Y24.9451
G01 X32.9444 Y25.0150
G01 X33.0370 Y25.0699
G01 X33.1346 Y25.1155
G01 X33.2356 Y25.1512
G01 X33.3395 Y25.1769
G01 X33.4472 Y25.1924
G01 X33.5548 Y25.1972
G01 X33.7594 Y25.1771
G01 X33.8731 Y25.1486
G01 X34.0630 Y25.0699
G01 X34.1629 Y25.0101
G01 X34.3225 Y24.8792
G01 X34.4012 Y24.7924
G01 X34.5154 Y24.6214
G01 X34.5899 Y24.4475
G01 X36.4728 Y24.4475
G01 X36.5514 Y24.5945
G01 X36.6622 Y24.7311
G01 X36.7345 Y24.7966
G01 X36.8813 Y24.8935
G01 X37.0437 Y24.9598
G01 X37.2073 Y24.9924
G01 X37.3048 Y24.9972
G01 X37.4797 Y24.9790
G01 X37.6478 Y24.9271
G01 X37.7945 Y24.8487
G01 X37.9311 Y24.7378
G01 X37.9966 Y24.6655
G01 X38.0890 Y24.5272
G01 X38.1572 Y24.3650
G01 X38.1809 Y24.2704
G01 X38.1972 Y24.0953
G01 X38.1809 Y23.9297
G01 X38.1572 Y23.8350
G01 X38.0935 Y23.6813
G01 X37.9966 Y23.5345
G01 X37.9311 Y23.4622
G01 X37.7945 Y23.3514
G01 X37.6478 Y23.2730
G01 X37.4797 Y23.2210
G01 X37.3048 Y23.2028
G01 X37.2073 Y23.2076
G01 X37.0442 Y23.2401
G01 X36.8813 Y23.3065
G01 X36.7345 Y23.4035
G01 X36.6622 Y23.4690
G01 X36.5514 Y23.6055
G01 X36.4728 Y23.7526
G01 X34.5899 Y23.7526
G01 X34.5154 Y23.5786
G01 X34.4012 Y23.4077
G01 X34.3225 Y23.3208
G01 X34.1636 Y23.1904
G01 X34.0630 Y23.1301
G01 X33.9655 Y23.0845
G01 X33.8644 Y23.0488
G01 X33.6623 Y23.0086
G01 X33.5453 Y23.0028
G01 X33.4377 Y23.0086
G01 X33.3313 Y23.0249
G01 X33.2270 Y23.0515
G01 X33.1257 Y23.0882
G01 X32.9444 Y23.1851
G01 X32.8577 Y23.2489
G01 X32.7741 Y23.3241
G01 X32.7049 Y23.4003
G01 X32.6404 Y23.4865
G01 X32.5846 Y23.5786
G01 X32.5382 Y23.6757
G01 X32.4989 Y23.7853
G01 X32.4732 Y23.8895
G01 X32.4577 Y23.9972
G01 X32.4577 Y24.2028
G01 X32.4730 Y24.3094
G00 Z2.0000
G00 X34.9173 Y24.9729
G01 F60.00
G01 Z-0.0300
G01 F120.00
G01 X36.1773 Y24.9729
G01 X36.2729 Y25.0839
G01 X36.3743 Y25.1798
G01 X36.5354 Y25.2993
G01 X36.6599 Y25.3700
G01 X36.5354 Y25.4407
G01 X36.4216 Y25.5214
G01 X36.3161 Y25.6129
G01 X36.2373 Y25.6954
G01 X36.1026 Y25.5656
G01 X35.9257 Y25.4344
G01 X35.6990 Y25.3132
G01 X35.5501 Y25.2568
G01 X35.3440 Y25.2044
G01 X35.1786 Y25.1829
G01 X34.9215 Y25.1829
G01 X34.7330 Y25.2093
G01 X34.8232 Y25.1054
G01 X34.9173 Y24.9729
G00 Z2.0000
G00 X36.3317 Y25.3700
G01 F60.00
G01 Z-0.0300
G01 F120.00
G01 X36.2355 Y25.4497
G01 X36.1597 Y25.3862
G01 X36.0158 Y25.2842
G01 X35.8626 Y25.1968
G01 X35.7572 Y25.1480
G01 X36.0947 Y25.1480
G01 X36.1985 Y25.2569
G01 X36.3317 Y25.3700
G00 Z2.0000
G00 X38.5720 Y25.6744
G01 F60.00
G01 Z-0.0300
G01 F120.00
G01 X38.4569 Y25.5385
G01 X38.2683 Y25.3700
G01 X38.4569 Y25.2015
G01 X38.5720 Y25.0656
G01 X38.5720 Y25.6744
G00 Z2.0000
G00 X38.5720 Y28.2144
G01 F60.00
G01 Z-0.0300
G01 F120.00
G01 X38.4569 Y28.0785
G01 X38.2683 Y27.9100
G01 X38.4569 Y27.7415
G01 X38.5720 Y27.6056
G01 X38.5720 Y28.2144
G00 Z2.0000
G00 X38.6887 Y28.8726
G01 F60.00
G01 Z-0.0300
G01 F120.00
G01 X38.6519 Y28.7380
G01 X38.5685 Y28.5367
G01 X38.4993 Y28.4154
G01 X38.4186 Y28.3016
G01 X38.2839 Y28.1529
G01 X38.1785 Y28.0614
G01 X38.0646 Y27.9807
G01 X37.9402 Y27.9100
G01 X38.1154 Y27.8054
G01 X38.2839 Y27.6671
G01 X38.4186 Y27.5185
G01 X38.4993 Y27.4046
G01 X38.5685 Y27.2834
G01 X38.6254 Y27.1560
G01 X38.6683 Y27.0286
G01 X38.7122 Y26.8098
G01 X38.7220 Y26.6095
G01 X38.7122 Y26.4702
G01 X38.6887 Y26.3326
G01 X38.6519 Y26.1980
G01 X38.5685 Y25.9967
G01 X38.4993 Y25.8754
G01 X38.4186 Y25.7616
G01 X38.2839 Y25.6129
G01 X38.1785 Y25.5214
G01 X38.0646 Y25.4407
G01 X37.9402 Y25.3700
G01 X38.1154 Y25.2654
G01 X38.2839 Y25.1271
G01 X38.4186 Y24.9785
G01 X38.5397 Y24.7973
G01 X38.6254 Y24.6160
G01 X38.6683 Y24.4886
G01 X38.6995 Y24.3550
G01 X38.7220 Y24.1306
G01 X38.7122 Y23.9302
G01 X38.6887 Y23.7926
G01 X38.6254 Y23.5841
G01 X38.5685 Y23.4567
G01 X38.4654 Y23.2846
G01 X38.3271 Y23.1161
G01 X38.2257 Y23.0202
G01 X38.0646 Y22.9007
G01 X37.9402 Y22.8300
G01 X38.1154 Y22.7254
G01 X38.2839 Y22.5871
G01 X38.4186 Y22.4385
G01 X38.5397 Y22.2573
G01 X38.6254 Y22.0760
G01 X38.6887 Y21.8674
G01 X38.7181 Y21.6690
G01 X38.7181 Y21.4511
G01 X38.6995 Y21.3050
G01 X38.6519 Y21.1180
G01 X38.5685 Y20.9167
G01 X38.4654 Y20.7446
G01 X38.3271 Y20.5761
G01 X38.2257 Y20.4802
G01 X38.0646 Y20.3607
G01 X37.9402 Y20.2900
G01 X38.1154 Y20.1854
G01 X38.2839 Y20.0471
G01 X38.4186 Y19.8985
G01 X38.5397 Y19.7173
G01 X38.6254 Y19.5360
G01 X38.6887 Y19.3274
G01 X38.7181 Y19.1290
G01 X38.7181 Y18.9111
G01 X38.6887 Y18.7126
G01 X38.6254 Y18.5041
G01 X38.5397 Y18.3228
G01 X38.4186 Y18.1416
G01 X38.2839 Y17.9929
G01 X38.1154 Y17.8547
G01 X37.9434 Y17.7516
G01 X37.7420 Y17.6682
G01 X37.6074 Y17.6313
G01 X37.4698 Y17.6079
G01 X37.3306 Y17.5981
G01 X37.1911 Y17.6019
G01 X37.0526 Y17.6194
G01 X36.9165 Y17.6504
G01 X36.7276 Y17.7180
G01 X36.6028 Y17.7804
G01 X36.4846 Y17.8547
G01 X36.3743 Y17.9402
G01 X36.2729 Y18.0361
G01 X36.1814 Y18.1416
G01 X36.1007 Y18.2554
G01 X36.0316 Y18.3767
G01 X35.9482 Y18.5780
G01 X35.9113 Y18.7126
G01 X35.8879 Y18.8502
G01 X35.8781 Y18.9895
G01 X35.8879 Y19.1898
G01 X35.9304 Y19.4036
G01 X35.9746 Y19.5360
G01 X36.0316 Y19.6634
G01 X36.1007 Y19.7846
G01 X36.1814 Y19.8985
G01 X36.3161 Y20.0471
G01 X36.4846 Y20.1854
G01 X36.6599 Y20.2900
G01 X36.4846 Y20.3947
G01 X36.3161 Y20.5329
G01 X36.1814 Y20.6816
G01 X36.1007 Y20.7954
G01 X36.0316 Y20.9167
G01 X35.9746 Y21.0441
G01 X35.9317 Y21.1714
G01 X35.8879 Y21.3902
G01 X35.8781 Y21.5906
G01 X35.8994 Y21.8075
G01 X35.9304 Y21.9436
G01 X35.9980 Y22.1324
G01 X36.0604 Y22.2573
G01 X36.1814 Y22.4385
G01 X36.3161 Y22.5871
G01 X36.4216 Y22.6786
G01 X36.5354 Y22.7593
G01 X36.6599 Y22.8300
G01 X36.5354 Y22.9007
G01 X36.3743 Y23.0202
G01 X36.2729 Y23.1161
G01 X36.1773 Y23.2272
G01 X34.9173 Y23.2272
G01 X34.7844 Y23.0474
G01 X34.6975 Y22.9526
G01 X34.6026 Y22.8656
G01 X34.4257 Y22.7344
G01 X34.1990 Y22.6132
G01 X33.9948 Y22.5398
G01 X33.8440 Y22.5044
G01 X33.7394 Y22.4889
G01 X33.5195 Y22.4781
G01 X33.2636 Y22.5033
G01 X33.0500 Y22.5568
G01 X32.9011 Y22.6132
G01 X32.6743 Y22.7344
G01 X32.4974 Y22.8656
G01 X32.4026 Y22.9526
G01 X32.3156 Y23.0474
G01 X32.1844 Y23.2243
G01 X32.0632 Y23.4511
G01 X32.0068 Y23.6000
G01 X31.9544 Y23.8060
G01 X31.9329 Y23.9715
G01 X31.9329 Y24.2286
G01 X31.9533 Y24.3865
G01 X32.0068 Y24.6001
G01 X32.0632 Y24.7490
G01 X32.1844 Y24.9757
G01 X32.3156 Y25.1526
G01 X32.4026 Y25.2475
G01 X32.4974 Y25.3344
G01 X32.6743 Y25.4656
G01 X32.9011 Y25.5868
G01 X33.0500 Y25.6433
G01 X33.2560 Y25.6956
G01 X33.4215 Y25.7172
G01 X33.6786 Y25.7172
G01 X33.8670 Y25.6907
G01 X33.7184 Y25.8735
G01 X33.6340 Y26.0085
G01 X33.5632 Y26.1511
G01 X33.4903 Y26.3534
G01 X33.4533 Y26.5136
G01 X33.4281 Y26.7695
G01 X33.4329 Y26.9286
G01 X33.4652 Y27.1464
G01 X33.5398 Y27.3925
G01 X33.6052 Y27.5377
G01 X33.7153 Y27.7224
G01 X33.8156 Y27.8526
G01 X33.9026 Y27.9475
G01 X33.9974 Y28.0344
G01 X34.1235 Y28.1317
G01 X34.2585 Y28.2161
G01 X34.4503 Y28.3072
G01 X32.2916 Y28.3072
G01 X30.2729 Y26.2885
G01 X30.2709 Y18.7750
G01 X30.2494 Y18.6299
G01 X30.2174 Y18.5245
G01 X30.1547 Y18.3920
G01 X30.0935 Y18.3004
G01 X29.9769 Y18.1753
G01 X29.9099 Y18.1219
G01 X29.7986 Y18.0542
G01 X29.4329 Y17.6885
G01 X29.4329 Y12.3331
G01 X29.5871 Y12.1942
G01 X29.7254 Y12.0258
G01 X29.8285 Y11.8537
G01 X29.8854 Y11.7263
G01 X29.9258 Y11.6074
G01 X29.9649 Y11.6088
G01 X30.0046 Y11.7263
G01 X30.0616 Y11.8537
G01 X30.1647 Y12.0258
G01 X30.3029 Y12.1942
G01 X30.4572 Y12.3331
G01 X30.4572 Y14.3800
G01 X30.4687 Y14.5202
G01 X30.5126 Y14.6855
G01 X30.5879 Y14.8391
G01 X30.6918 Y14.9751
G01 X31.4228 Y15.7072
G01 X31.5301 Y15.7982
G01 X31.6559 Y15.8735
G01 X31.7576 Y15.9157
G01 X31.8923 Y15.9502
G01 X32.0095 Y15.9621
G01 X37.0885 Y15.9629
G01 X38.7472 Y17.6216
G01 X38.7472 Y29.0385
G01 X38.7178 Y29.0678
G01 X38.6887 Y28.8726
G00 Z2.0000
G00 X37.2248 Y30.4244
G01 F60.00
G01 Z-0.0300
G01 F120.00
G01 X37.4441 Y30.4189
G01 X37.6591 Y30.3743
G01 X37.5377 Y30.4957
G01 X37.4004 Y30.4768
G01 X37.2253 Y30.4756
G01 X37.2248 Y30.4244
G00 Z2.0000
G00 X36.9538 Y30.1941
G01 F60.00
G01 Z-0.0300
G01 F120.00
G01 X37.1040 Y30.2341
G01 X37.2082 Y30.2483
G01 X37.3134 Y30.2521
G01 X37.4184 Y30.2457
G01 X37.5223 Y30.2289
G01 X37.6240 Y30.2021
G01 X37.7227 Y30.1654
G01 X37.8172 Y30.1192
G01 X37.9068 Y30.0640
G01 X37.9905 Y30.0003
G01 X38.0676 Y29.9287
G01 X38.1373 Y29.8498
G01 X38.1989 Y29.7645
G01 X38.2854 Y29.6027
G01 X38.3221 Y29.5040
G01 X38.3489 Y29.4023
G01 X38.3657 Y29.2984
G01 X38.3721 Y29.1934
G01 X38.3683 Y29.0882
G01 X38.3541 Y28.9840
G01 X38.3221 Y28.8560
G01 X38.2854 Y28.7574
G01 X38.2392 Y28.6628
G01 X38.1840 Y28.5733
G01 X38.1203 Y28.4896
G01 X38.0487 Y28.4125
G01 X37.9698 Y28.3428
G01 X37.8845 Y28.2812
G01 X37.7936 Y28.2282
G01 X37.6980 Y28.1844
G01 X37.5998 Y28.1505
G01 X37.4994 Y28.1264
G01 X37.3918 Y28.1118
G01 X37.2082 Y28.1118
G01 X37.1040 Y28.1259
G01 X37.0016 Y28.1502
G01 X36.9021 Y28.1844
G01 X36.8064 Y28.2282
G01 X36.7155 Y28.2812
G01 X36.6302 Y28.3428
G01 X36.5514 Y28.4125
G01 X36.4798 Y28.4896
G01 X36.3640 Y28.6575
G01 X32.1465 Y28.6575
G01 X29.9226 Y26.4336
G01 X29.9211 Y18.7921
G01 X29.9096 Y18.7150
G01 X29.8876 Y18.6425
G01 X29.8417 Y18.5510
G01 X29.7952 Y18.4884
G01 X29.7013 Y18.4032
G01 X29.5942 Y18.3452
G01 X29.0826 Y17.8336
G01 X29.0826 Y12.1463
G01 X29.2298 Y12.0476
G01 X29.3276 Y11.9590
G01 X29.4440 Y11.8171
G01 X29.5118 Y11.7040
G01 X29.5821 Y11.5344
G01 X29.6136 Y11.4097
G01 X29.6321 Y11.2237
G01 X29.6262 Y11.0970
G01 X29.7268 Y11.1924
G01 X29.7797 Y11.2234
G01 X29.8439 Y11.2429
G01 X29.9592 Y11.2588
G01 X30.0448 Y11.2450
G01 X30.1601 Y11.1949
G01 X30.2230 Y11.1447
G01 X30.2648 Y11.0889
G01 X30.2579 Y11.2237
G01 X30.2759 Y11.4064
G01 X30.3080 Y11.5344
G01 X30.3782 Y11.7040
G01 X30.4460 Y11.8171
G01 X30.5625 Y11.9590
G01 X30.6602 Y12.0476
G01 X30.8075 Y12.1463
G01 X30.8075 Y14.3800
G01 X30.8264 Y14.5188
G01 X30.8758 Y14.6380
G01 X30.9513 Y14.7398
G01 X31.6705 Y15.4595
G01 X31.7388 Y15.5168
G01 X31.8056 Y15.5569
G01 X31.8756 Y15.5859
G01 X31.9479 Y15.6043
G01 X32.0400 Y15.6126
G01 X37.2336 Y15.6126
G01 X39.0975 Y17.4765
G01 X39.0975 Y29.1836
G01 X37.5924 Y30.6887
G01 X37.4184 Y30.6544
G01 X37.2867 Y30.6479
G01 X37.1040 Y30.6659
G01 X36.9578 Y30.7045
G01 X37.0107 Y30.6186
G01 X37.0446 Y30.5144
G01 X37.0511 Y30.4553
G01 X37.0446 Y30.3962
G01 X37.0185 Y30.2958
G01 X36.9952 Y30.2468
G01 X36.9538 Y30.1941
G00 Z2.0000
G00 X36.3640 Y29.7026
G01 F60.00
G01 Z-0.0300
G01 F120.00
G01 X36.3682 Y29.7095
G01 X36.3549 Y29.7026
G01 X36.3640 Y29.7026
G00 Z2.0000
G00 X36.6567 Y27.9116
G01 F60.00
G01 Z-0.0300
G01 F120.00
G01 X36.5354 Y27.9807
G01 X36.3743 Y28.1002
G01 X36.2729 Y28.1961
G01 X36.1773 Y28.3072
G01 X35.6498 Y28.3072
G01 X35.8416 Y28.2161
G01 X35.9724 Y28.1347
G01 X36.0554 Y28.0732
G01 X36.2185 Y27.9253
G01 X36.3820 Y27.7261
G01 X36.4846 Y27.8054
G01 X36.6567 Y27.9116
G00 Z2.0000
G00 X33.9730 Y27.0094
G01 F60.00
G01 Z-0.0300
G01 F120.00
G01 X33.9987 Y27.1140
G01 X34.0345 Y27.2155
G01 X34.0801 Y27.3130
G01 X34.1351 Y27.4056
G01 X34.1989 Y27.4924
G01 X34.2741 Y27.5759
G01 X34.4365 Y27.7096
G01 X34.5286 Y27.7654
G01 X34.6257 Y27.8119
G01 X34.7270 Y27.8486
G01 X34.8313 Y27.8752
G01 X34.9472 Y27.8924
G01 X35.0548 Y27.8972
G01 X35.1623 Y27.8915
G01 X35.3640 Y27.8513
G01 X35.4743 Y27.8119
G01 X35.5714 Y27.7654
G01 X35.6629 Y27.7101
G01 X35.8225 Y27.5792
G01 X35.8951 Y27.4998
G01 X35.9596 Y27.4136
G01 X36.0199 Y27.3130
G01 X36.0986 Y27.1231
G01 X36.1303 Y26.9875
G01 X36.4728 Y26.9875
G01 X36.5567 Y27.1424
G01 X36.6690 Y27.2778
G01 X36.7345 Y27.3366
G01 X36.8729 Y27.4290
G01 X37.0350 Y27.4972
G01 X37.1297 Y27.5209
G01 X37.3048 Y27.5372
G01 X37.4797 Y27.5190
G01 X37.6478 Y27.4671
G01 X37.7945 Y27.3887
G01 X37.9311 Y27.2778
G01 X37.9966 Y27.2055
G01 X38.0890 Y27.0672
G01 X38.1307 Y26.9790
G01 X38.1807 Y26.8116
G01 X38.1972 Y26.6448
G01 X38.1924 Y26.5473
G01 X38.1600 Y26.3842
G01 X38.1271 Y26.2923
G01 X38.0487 Y26.1455
G01 X37.9905 Y26.0672
G01 X37.8729 Y25.9495
G01 X37.7945 Y25.8914
G01 X37.6478 Y25.8130
G01 X37.5564 Y25.7802
G01 X37.3927 Y25.7476
G01 X37.2953 Y25.7428
G01 X37.1297 Y25.7591
G01 X37.0350 Y25.7829
G01 X36.8729 Y25.8510
G01 X36.7345 Y25.9435
G01 X36.6690 Y26.0022
G01 X36.5567 Y26.1376
G01 X36.4728 Y26.2926
G01 X36.0225 Y26.2926
G01 X35.9601 Y26.1871
G01 X35.8951 Y26.1003
G01 X35.8259 Y26.0241
G01 X35.7424 Y25.9489
G01 X35.5714 Y25.8346
G01 X35.4655 Y25.7845
G01 X35.3644 Y25.7488
G01 X35.2606 Y25.7232
G01 X35.0548 Y25.7028
G01 X34.9377 Y25.7086
G01 X34.7361 Y25.7487
G01 X34.6346 Y25.7845
G01 X34.5370 Y25.8301
G01 X34.4444 Y25.8851
G01 X34.3577 Y25.9489
G01 X34.2741 Y26.0241
G01 X34.1404 Y26.1865
G01 X34.0846 Y26.2786
G01 X34.0382 Y26.3757
G01 X33.9989 Y26.4853
G01 X33.9732 Y26.5895
G01 X33.9528 Y26.7953
G01 X33.9577 Y26.9028
G01 X33.9730 Y27.0094
G00 Z2.0000
G00 X33.7997 Y27.0351
G01 F60.00
G01 Z-0.0300
G01 F120.00
G01 X33.8288 Y27.1565
G01 X33.8696 Y27.2745
G01 X33.9218 Y27.3879
G01 X33.9849 Y27.4957
G01 X34.0582 Y27.5967
G01 X34.1503 Y27.6998
G01 X34.2327 Y27.7749
G01 X34.3322 Y27.8503
G01 X34.4386 Y27.9156
G01 X34.5509 Y27.9702
G01 X34.6680 Y28.0135
G01 X34.7887 Y28.0451
G01 X34.9386 Y28.0673
G01 X35.0634 Y28.0721
G01 X35.1880 Y28.0647
G01 X35.4065 Y28.0212
G01 X35.5492 Y27.9702
G01 X35.7457 Y27.8652
G01 X35.8674 Y27.7749
G01 X35.9498 Y27.6998
G01 X36.0249 Y27.6174
G01 X36.1152 Y27.4957
G01 X36.2202 Y27.2992
G01 X36.2695 Y27.1626
G01 X36.3640 Y27.1626
G01 X36.4628 Y27.3098
G01 X36.5325 Y27.3887
G01 X36.6096 Y27.4603
G01 X36.6933 Y27.5240
G01 X36.8064 Y27.5918
G01 X36.9021 Y27.6356
G01 X37.0002 Y27.6695
G01 X37.1816 Y27.7057
G01 X37.2867 Y27.7121
G01 X37.3918 Y27.7083
G01 X37.4961 Y27.6941
G01 X37.5985 Y27.6699
G01 X37.6980 Y27.6356
G01 X37.7936 Y27.5918
G01 X37.9068 Y27.5240
G01 X38.0487 Y27.4076
G01 X38.1373 Y27.3098
G01 X38.2392 Y27.1572
G01 X38.2956 Y27.0380
G01 X38.3293 Y26.9407
G01 X38.3536 Y26.8394
G01 X38.3721 Y26.6534
G01 X38.3657 Y26.5216
G01 X38.3299 Y26.3416
G01 X38.2854 Y26.2174
G01 X38.1989 Y26.0555
G01 X38.1203 Y25.9496
G01 X37.9905 Y25.8198
G01 X37.8845 Y25.7412
G01 X37.7227 Y25.6546
G01 X37.5998 Y25.6105
G01 X37.4184 Y25.5744
G01 X37.2867 Y25.5679
G01 X37.1040 Y25.5859
G01 X36.9760 Y25.6180
G01 X36.8064 Y25.6882
G01 X36.7155 Y25.7412
G01 X36.6302 Y25.8028
G01 X36.5514 Y25.8725
G01 X36.4798 Y25.9496
G01 X36.3640 Y26.1175
G01 X36.1230 Y26.1175
G01 X36.0419 Y26.0033
G01 X35.9401 Y25.8911
G01 X35.7679 Y25.7497
G01 X35.6379 Y25.6718
G01 X35.4321 Y25.5866
G01 X35.2884 Y25.5503
G01 X35.0634 Y25.5279
G01 X34.9120 Y25.5353
G01 X34.6935 Y25.5788
G01 X34.5756 Y25.6196
G01 X34.4621 Y25.6718
G01 X34.3544 Y25.7349
G01 X34.2533 Y25.8082
G01 X34.1503 Y25.9003
G01 X34.0751 Y25.9827
G01 X33.9997 Y26.0822
G01 X33.9344 Y26.1886
G01 X33.8799 Y26.3009
G01 X33.8366 Y26.4180
G01 X33.8050 Y26.5387
G01 X33.7853 Y26.6620
G01 X33.7779 Y26.7867
G01 X33.7827 Y26.9114
G01 X33.7997 Y27.0351
G00 Z2.0000
G00 X33.6265 Y27.0608
G01 F60.00
G01 Z-0.0300
G01 F120.00
G01 X33.6589 Y27.1991
G01 X33.7047 Y27.3335
G01 X33.7635 Y27.4628
G01 X33.8347 Y27.5857
G01 X33.9175 Y27.7010
G01 X34.0264 Y27.8236
G01 X34.1151 Y27.9047
G01 X34.2278 Y27.9910
G01 X34.3485 Y28.0658
G01 X34.4760 Y28.1285
G01 X34.6090 Y28.1784
G01 X34.7462 Y28.2150
G01 X34.9300 Y28.2423
G01 X35.0720 Y28.2471
G01 X35.2137 Y28.2379
G01 X35.4491 Y28.1911
G01 X35.5835 Y28.1453
G01 X35.7128 Y28.0866
G01 X35.8692 Y27.9932
G01 X35.9850 Y27.9047
G01 X36.0736 Y27.8236
G01 X36.1547 Y27.7350
G01 X36.2654 Y27.5857
G01 X36.3462 Y27.4424
G01 X36.4919 Y27.5901
G01 X36.5889 Y27.6647
G01 X36.6928 Y27.7295
G01 X36.8431 Y27.8005
G01 X36.9568 Y27.8392
G01 X37.0729 Y27.8665
G01 X37.2781 Y27.8871
G01 X37.4441 Y27.8789
G01 X37.6410 Y27.8397
G01 X37.7570 Y27.8005
G01 X37.8685 Y27.7502
G01 X38.0111 Y27.6647
G01 X38.1663 Y27.5373
G01 X38.2779 Y27.4142
G01 X38.3895 Y27.2472
G01 X38.4605 Y27.0970
G01 X38.4988 Y26.9847
G01 X38.5265 Y26.8672
G01 X38.5471 Y26.6620
G01 X38.5389 Y26.4959
G01 X38.4997 Y26.2990
G01 X38.4437 Y26.1425
G01 X38.3895 Y26.0328
G01 X38.2779 Y25.8659
G01 X38.1663 Y25.7427
G01 X38.0111 Y25.6153
G01 X37.8685 Y25.5299
G01 X37.6830 Y25.4531
G01 X37.5272 Y25.4135
G01 X37.3220 Y25.3930
G01 X37.1996 Y25.3968
G01 X37.0783 Y25.4127
G01 X36.9170 Y25.4531
G01 X36.7315 Y25.5299
G01 X36.5889 Y25.6153
G01 X36.4919 Y25.6900
G01 X36.4027 Y25.7738
G01 X36.2664 Y25.9423
G01 X36.2147 Y25.9423
G01 X36.0736 Y25.7764
G01 X35.9510 Y25.6675
G01 X35.8357 Y25.5847
G01 X35.6241 Y25.4715
G01 X35.4513 Y25.4095
G01 X35.3162 Y25.3773
G01 X35.2137 Y25.3621
G01 X35.0720 Y25.3530
G01 X34.8863 Y25.3621
G01 X34.6510 Y25.4089
G01 X34.5166 Y25.4547
G01 X34.3873 Y25.5135
G01 X34.2644 Y25.5847
G01 X34.1490 Y25.6675
G01 X34.0264 Y25.7764
G01 X33.9454 Y25.8651
G01 X33.8591 Y25.9778
G01 X33.7842 Y26.0985
G01 X33.7215 Y26.2260
G01 X33.6717 Y26.3590
G01 X33.6351 Y26.4962
G01 X33.6121 Y26.6363
G01 X33.6030 Y26.7781
G01 X33.6078 Y26.9200
G01 X33.6265 Y27.0608
G00 Z2.0000
G00 X36.0812 Y21.8249
G01 F60.00
G01 Z-0.0300
G01 F120.00
G01 X36.1131 Y21.9430
G01 X36.1563 Y22.0575
G01 X36.2106 Y22.1672
G01 X36.2753 Y22.2711
G01 X36.3500 Y22.3681
G01 X36.4338 Y22.4573
G01 X36.5259 Y22.5379
G01 X36.6255 Y22.6091
G01 X36.7315 Y22.6702
G01 X36.8431 Y22.7205
G01 X36.9568 Y22.7592
G01 X37.0729 Y22.7865
G01 X37.1996 Y22.8032
G01 X37.3220 Y22.8071
G01 X37.4441 Y22.7989
G01 X37.5649 Y22.7788
G01 X37.6830 Y22.7470
G01 X37.7975 Y22.7037
G01 X37.9072 Y22.6495
G01 X38.0111 Y22.5847
G01 X38.1081 Y22.5101
G01 X38.1973 Y22.4263
G01 X38.2779 Y22.3342
G01 X38.3491 Y22.2346
G01 X38.4102 Y22.1285
G01 X38.4605 Y22.0170
G01 X38.4988 Y21.9047
G01 X38.5265 Y21.7872
G01 X38.5432 Y21.6604
G01 X38.5471 Y21.5381
G01 X38.5389 Y21.4159
G01 X38.5188 Y21.2952
G01 X38.4870 Y21.1770
G01 X38.4437 Y21.0625
G01 X38.3895 Y20.9528
G01 X38.3247 Y20.8489
G01 X38.2501 Y20.7519
G01 X38.1663 Y20.6627
G01 X38.0742 Y20.5821
G01 X37.9746 Y20.5109
G01 X37.8685 Y20.4499
G01 X37.7570 Y20.3995
G01 X37.6433 Y20.3609
G01 X37.5272 Y20.3335
G01 X37.4004 Y20.3168
G01 X37.2781 Y20.3130
G01 X37.1559 Y20.3211
G01 X37.0352 Y20.3412
G01 X36.9170 Y20.3731
G01 X36.8025 Y20.4163
G01 X36.6928 Y20.4706
G01 X36.5889 Y20.5353
G01 X36.4919 Y20.6100
G01 X36.4027 Y20.6938
G01 X36.3221 Y20.7859
G01 X36.2509 Y20.8855
G01 X36.1899 Y20.9915
G01 X36.1395 Y21.1031
G01 X36.1012 Y21.2154
G01 X36.0735 Y21.3329
G01 X36.0568 Y21.4596
G01 X36.0530 Y21.5820
G01 X36.0611 Y21.7041
G01 X36.0812 Y21.8249
G00 Z2.0000
G00 X36.2511 Y21.7823
G01 F60.00
G01 Z-0.0300
G01 F120.00
G01 X36.2780 Y21.8840
G01 X36.3146 Y21.9827
G01 X36.3608 Y22.0772
G01 X36.4160 Y22.1668
G01 X36.4798 Y22.2505
G01 X36.5514 Y22.3276
G01 X36.6302 Y22.3973
G01 X36.7155 Y22.4589
G01 X36.8064 Y22.5118
G01 X36.9021 Y22.5556
G01 X37.1007 Y22.6136
G01 X37.2082 Y22.6283
G01 X37.3134 Y22.6321
G01 X37.4184 Y22.6257
G01 X37.5223 Y22.6089
G01 X37.6240 Y22.5821
G01 X37.7227 Y22.5454
G01 X37.8172 Y22.4992
G01 X37.9068 Y22.4440
G01 X37.9905 Y22.3803
G01 X38.0676 Y22.3087
G01 X38.1373 Y22.2298
G01 X38.1989 Y22.1445
G01 X38.2518 Y22.0536
G01 X38.2956 Y21.9580
G01 X38.3293 Y21.8607
G01 X38.3536 Y21.7594
G01 X38.3683 Y21.6518
G01 X38.3721 Y21.5467
G01 X38.3657 Y21.4416
G01 X38.3489 Y21.3378
G01 X38.3221 Y21.2360
G01 X38.2854 Y21.1374
G01 X38.2392 Y21.0428
G01 X38.1840 Y20.9533
G01 X38.1203 Y20.8696
G01 X38.0487 Y20.7925
G01 X37.9698 Y20.7228
G01 X37.8845 Y20.6612
G01 X37.7936 Y20.6082
G01 X37.6980 Y20.5644
G01 X37.4994 Y20.5064
G01 X37.3918 Y20.4918
G01 X37.2867 Y20.4879
G01 X37.1816 Y20.4944
G01 X37.0778 Y20.5111
G01 X36.9760 Y20.5380
G01 X36.8774 Y20.5746
G01 X36.7828 Y20.6208
G01 X36.6933 Y20.6760
G01 X36.6096 Y20.7398
G01 X36.5325 Y20.8114
G01 X36.4628 Y20.8902
G01 X36.4012 Y20.9755
G01 X36.3482 Y21.0664
G01 X36.3044 Y21.1621
G01 X36.2708 Y21.2594
G01 X36.2464 Y21.3607
G01 X36.2318 Y21.4682
G01 X36.2279 Y21.5734
G01 X36.2344 Y21.6784
G01 X36.2511 Y21.7823
G00 Z2.0000
G00 X36.4210 Y21.7397
G01 F60.00
G01 Z-0.0300
G01 F120.00
G01 X36.4730 Y21.9078
G01 X36.5567 Y22.0624
G01 X36.6690 Y22.1978
G01 X36.8055 Y22.3087
G01 X36.9611 Y22.3907
G01 X37.1285 Y22.4407
G01 X37.3048 Y22.4572
G01 X37.4797 Y22.4390
G01 X37.6478 Y22.3871
G01 X37.8024 Y22.3034
G01 X37.9378 Y22.1911
G01 X38.0487 Y22.0545
G01 X38.1307 Y21.8990
G01 X38.1807 Y21.7316
G01 X38.1972 Y21.5553
G01 X38.1807 Y21.3885
G01 X38.1271 Y21.2123
G01 X38.0434 Y21.0576
G01 X37.9311 Y20.9222
G01 X37.7945 Y20.8114
G01 X37.6390 Y20.7293
G01 X37.4716 Y20.6793
G01 X37.2953 Y20.6628
G01 X37.1203 Y20.6810
G01 X36.9523 Y20.7330
G01 X36.7976 Y20.8167
G01 X36.6622 Y20.9290
G01 X36.5514 Y21.0655
G01 X36.4693 Y21.2211
G01 X36.4193 Y21.3885
G01 X36.4028 Y21.5648
G01 X36.4210 Y21.7397
G00 Z2.0000
G00 X38.2683 Y22.8300
G01 F60.00
G01 Z-0.0300
G01 F120.00
G01 X38.4569 Y22.6615
G01 X38.5720 Y22.5256
G01 X38.5720 Y23.1344
G01 X38.4569 Y22.9985
G01 X38.2683 Y22.8300
G00 Z2.0000
G00 X38.4015 Y20.1769
G01 F60.00
G01 Z-0.0300
G01 F120.00
G01 X38.5096 Y20.0633
G01 X38.5720 Y19.9856
G01 X38.5720 Y20.5944
G01 X38.4569 Y20.4585
G01 X38.2683 Y20.2900
G01 X38.4015 Y20.1769
G00 Z2.0000
G00 X36.4210 Y19.1997
G01 F60.00
G01 Z-0.0300
G01 F120.00
G01 X36.4730 Y19.3678
G01 X36.5567 Y19.5224
G01 X36.6690 Y19.6578
G01 X36.8055 Y19.7687
G01 X36.9611 Y19.8507
G01 X37.1285 Y19.9007
G01 X37.3048 Y19.9172
G01 X37.4797 Y19.8990
G01 X37.6478 Y19.8471
G01 X37.8024 Y19.7634
G01 X37.9378 Y19.6511
G01 X38.0487 Y19.5145
G01 X38.1307 Y19.3590
G01 X38.1807 Y19.1916
G01 X38.1972 Y19.0153
G01 X38.1807 Y18.8485
G01 X38.1271 Y18.6723
G01 X38.0434 Y18.5176
G01 X37.9311 Y18.3822
G01 X37.7945 Y18.2714
G01 X37.6390 Y18.1893
G01 X37.4716 Y18.1393
G01 X37.2953 Y18.1228
G01 X37.1203 Y18.1410
G01 X36.9523 Y18.1930
G01 X36.7976 Y18.2767
G01 X36.6622 Y18.3890
G01 X36.5514 Y18.5255
G01 X36.4693 Y18.6811
G01 X36.4193 Y18.8485
G01 X36.4028 Y19.0248
G01 X36.4210 Y19.1997
G00 Z2.0000
G00 X36.2511 Y19.2423
G01 F60.00
G01 Z-0.0300
G01 F120.00
G01 X36.2780 Y19.3440
G01 X36.3146 Y19.4427
G01 X36.3608 Y19.5372
G01 X36.4160 Y19.6268
G01 X36.4798 Y19.7105
G01 X36.5514 Y19.7876
G01 X36.6302 Y19.8573
G01 X36.7155 Y19.9189
G01 X36.8064 Y19.9718
G01 X36.9021 Y20.0156
G01 X37.1007 Y20.0736
G01 X37.2082 Y20.0883
G01 X37.3134 Y20.0921
G01 X37.4184 Y20.0857
G01 X37.5223 Y20.0689
G01 X37.6240 Y20.0421
G01 X37.7227 Y20.0054
G01 X37.8172 Y19.9592
G01 X37.9068 Y19.9040
G01 X37.9905 Y19.8403
G01 X38.0676 Y19.7687
G01 X38.1373 Y19.6898
G01 X38.1989 Y19.6045
G01 X38.2518 Y19.5136
G01 X38.2956 Y19.4180
G01 X38.3293 Y19.3207
G01 X38.3536 Y19.2194
G01 X38.3683 Y19.1118
G01 X38.3721 Y19.0067
G01 X38.3657 Y18.9016
G01 X38.3489 Y18.7978
G01 X38.3221 Y18.6960
G01 X38.2854 Y18.5974
G01 X38.2392 Y18.5028
G01 X38.1840 Y18.4133
G01 X38.1203 Y18.3296
G01 X38.0487 Y18.2525
G01 X37.9698 Y18.1828
G01 X37.8845 Y18.1212
G01 X37.7936 Y18.0682
G01 X37.6980 Y18.0244
G01 X37.4994 Y17.9664
G01 X37.3918 Y17.9518
G01 X37.2867 Y17.9479
G01 X37.1816 Y17.9544
G01 X37.0778 Y17.9711
G01 X36.9760 Y17.9980
G01 X36.8774 Y18.0346
G01 X36.7828 Y18.0808
G01 X36.6933 Y18.1360
G01 X36.6096 Y18.1998
G01 X36.5325 Y18.2714
G01 X36.4628 Y18.3502
G01 X36.4012 Y18.4355
G01 X36.3482 Y18.5264
G01 X36.3044 Y18.6221
G01 X36.2708 Y18.7194
G01 X36.2464 Y18.8207
G01 X36.2318 Y18.9282
G01 X36.2279 Y19.0334
G01 X36.2344 Y19.1384
G01 X36.2511 Y19.2423
G00 Z2.0000
G00 X36.0812 Y19.2849
G01 F60.00
G01 Z-0.0300
G01 F120.00
G01 X36.1131 Y19.4030
G01 X36.1563 Y19.5175
G01 X36.2106 Y19.6272
G01 X36.2753 Y19.7311
G01 X36.3500 Y19.8281
G01 X36.4338 Y19.9173
G01 X36.5259 Y19.9979
G01 X36.6255 Y20.0691
G01 X36.7315 Y20.1302
G01 X36.8431 Y20.1805
G01 X36.9568 Y20.2192
G01 X37.0729 Y20.2465
G01 X37.1996 Y20.2632
G01 X37.3220 Y20.2671
G01 X37.4441 Y20.2589
G01 X37.5649 Y20.2388
G01 X37.6830 Y20.2070
G01 X37.7975 Y20.1637
G01 X37.9072 Y20.1095
G01 X38.0111 Y20.0447
G01 X38.1081 Y19.9701
G01 X38.1973 Y19.8863
G01 X38.2779 Y19.7942
G01 X38.3491 Y19.6946
G01 X38.4102 Y19.5885
G01 X38.4605 Y19.4770
G01 X38.4988 Y19.3647
G01 X38.5265 Y19.2472
G01 X38.5432 Y19.1204
G01 X38.5471 Y18.9981
G01 X38.5389 Y18.8759
G01 X38.5188 Y18.7552
G01 X38.4870 Y18.6370
G01 X38.4437 Y18.5225
G01 X38.3895 Y18.4128
G01 X38.3247 Y18.3089
G01 X38.2501 Y18.2119
G01 X38.1663 Y18.1227
G01 X38.0742 Y18.0421
G01 X37.9746 Y17.9709
G01 X37.8685 Y17.9099
G01 X37.7570 Y17.8595
G01 X37.6433 Y17.8209
G01 X37.5272 Y17.7935
G01 X37.4004 Y17.7768
G01 X37.2781 Y17.7730
G01 X37.1559 Y17.7811
G01 X37.0352 Y17.8012
G01 X36.9170 Y17.8331
G01 X36.8025 Y17.8763
G01 X36.6928 Y17.9306
G01 X36.5889 Y17.9953
G01 X36.4919 Y18.0700
G01 X36.4027 Y18.1538
G01 X36.3221 Y18.2459
G01 X36.2509 Y18.3455
G01 X36.1899 Y18.4515
G01 X36.1395 Y18.5631
G01 X36.1012 Y18.6754
G01 X36.0735 Y18.7929
G01 X36.0568 Y18.9196
G01 X36.0530 Y19.0420
G01 X36.0611 Y19.1641
G01 X36.0812 Y19.2849
G00 Z2.0000
G00 X35.7414 Y19.3700
G01 F60.00
G01 Z-0.0300
G01 F120.00
G01 X35.7833 Y19.5210
G01 X35.8397 Y19.6673
G01 X35.9505 Y19.8747
G01 X36.0408 Y20.0028
G01 X36.1432 Y20.1215
G01 X36.3317 Y20.2900
G01 X36.1985 Y20.4032
G01 X36.0408 Y20.5772
G01 X35.9101 Y20.7727
G01 X35.8097 Y20.9851
G01 X35.7414 Y21.2101
G01 X35.7147 Y21.3645
G01 X35.7031 Y21.5992
G01 X35.7262 Y21.8332
G01 X35.7605 Y21.9861
G01 X35.8097 Y22.1350
G01 X35.8732 Y22.2783
G01 X35.9505 Y22.4147
G01 X36.0408 Y22.5428
G01 X36.1432 Y22.6615
G01 X36.3317 Y22.8300
G01 X36.1985 Y22.9432
G01 X36.0947 Y23.0520
G01 X35.0096 Y23.0520
G01 X34.9142 Y22.9298
G01 X34.8213 Y22.8288
G01 X34.6597 Y22.6862
G01 X34.5158 Y22.5842
G01 X34.2738 Y22.4549
G01 X34.0382 Y22.3702
G01 X33.8719 Y22.3315
G01 X33.7651 Y22.3156
G01 X33.5892 Y22.3031
G01 X33.3349 Y22.3156
G01 X33.0659 Y22.3691
G01 X32.8262 Y22.4549
G01 X32.5843 Y22.5842
G01 X32.4403 Y22.6862
G01 X32.2517 Y22.8571
G01 X32.0777 Y23.0692
G01 X31.9468 Y23.2875
G01 X31.8749 Y23.4486
G01 X31.8191 Y23.6159
G01 X31.7815 Y23.7782
G01 X31.7656 Y23.8849
G01 X31.7531 Y24.0609
G01 X31.7656 Y24.3151
G01 X31.8191 Y24.5842
G01 X31.8749 Y24.7515
G01 X31.9468 Y24.9126
G01 X32.0738 Y25.1256
G01 X32.1858 Y25.2702
G01 X32.3071 Y25.3983
G01 X32.5192 Y25.5723
G01 X32.6684 Y25.6663
G01 X32.8262 Y25.7452
G01 X33.0619 Y25.8299
G01 X33.2379 Y25.8700
G01 X33.4971 Y25.8962
G01 X33.4468 Y25.9875
G01 X33.3749 Y26.1486
G01 X33.3208 Y26.3094
G01 X33.2815 Y26.4782
G01 X33.2656 Y26.5849
G01 X33.2531 Y26.7609
G01 X33.2579 Y26.9372
G01 X33.2800 Y27.1122
G01 X33.3191 Y27.2842
G01 X33.3749 Y27.4515
G01 X33.4838 Y27.6816
G01 X33.5738 Y27.8256
G01 X33.6362 Y27.9097
G01 X33.7517 Y28.0429
G01 X33.8443 Y28.1320
G01 X32.3641 Y28.1320
G01 X30.4480 Y26.2159
G01 X30.4458 Y18.7664
G01 X30.4193 Y18.5874
G01 X30.3823 Y18.4655
G01 X30.3419 Y18.3710
G01 X30.2488 Y18.2158
G01 X30.1845 Y18.1355
G01 X30.1127 Y18.0620
G01 X30.0143 Y17.9812
G01 X29.9046 Y17.9125
G01 X29.6080 Y17.6159
G01 X29.6080 Y12.4157
G01 X29.7696 Y12.2537
G01 X29.8660 Y12.1301
G01 X29.9450 Y12.0058
G01 X30.0240 Y12.1301
G01 X30.1204 Y12.2537
G01 X30.2820 Y12.4157
G01 X30.2830 Y14.4192
G01 X30.2919 Y14.5216
G01 X30.3108 Y14.6227
G01 X30.3477 Y14.7445
G01 X30.3882 Y14.8391
G01 X30.4377 Y14.9292
G01 X30.4958 Y15.0140
G01 X30.5620 Y15.0927
G01 X31.2990 Y15.8311
G01 X31.4061 Y15.9242
G01 X31.4909 Y15.9823
G01 X31.6032 Y16.0424
G01 X31.7695 Y16.1023
G01 X31.8742 Y16.1246
G01 X32.0009 Y16.1370
G01 X37.0159 Y16.1380
G01 X38.5720 Y17.6941
G01 X38.5720 Y18.0544
G01 X38.5096 Y17.9767
G01 X38.4015 Y17.8632
G01 X38.2828 Y17.7608
G01 X38.1547 Y17.6705
G01 X37.9473 Y17.5597
G01 X37.8010 Y17.5033
G01 X37.6500 Y17.4614
G01 X37.4955 Y17.4347
G01 X37.3392 Y17.4231
G01 X37.1825 Y17.4270
G01 X37.0269 Y17.4462
G01 X36.7990 Y17.5033
G01 X36.6527 Y17.5597
G01 X36.5127 Y17.6301
G01 X36.3803 Y17.7140
G01 X36.2567 Y17.8104
G01 X36.0904 Y17.9767
G01 X35.9505 Y18.1654
G01 X35.8397 Y18.3727
G01 X35.7833 Y18.5190
G01 X35.7414 Y18.6701
G01 X35.7070 Y18.9025
G01 X35.7070 Y19.1376
G01 X35.7414 Y19.3700
G00 Z2.0000
G00 X35.5716 Y19.4125
G01 F60.00
G01 Z-0.0300
G01 F120.00
G01 X35.6448 Y19.6540
G01 X35.7599 Y19.8974
G01 X35.9001 Y20.1072
G01 X36.0643 Y20.2900
G01 X35.9001 Y20.4729
G01 X35.8003 Y20.6153
G01 X35.7149 Y20.7669
G01 X35.6184 Y21.0000
G01 X35.5716 Y21.1675
G01 X35.5414 Y21.3388
G01 X35.5282 Y21.5123
G01 X35.5414 Y21.7812
G01 X35.5906 Y22.0287
G01 X35.6448 Y22.1940
G01 X35.7149 Y22.3532
G01 X35.8533 Y22.5841
G01 X35.9607 Y22.7210
G01 X36.0643 Y22.8300
G01 X36.0174 Y22.8769
G01 X35.0971 Y22.8769
G01 X34.9106 Y22.6720
G01 X34.6852 Y22.4870
G01 X34.4374 Y22.3385
G01 X34.2605 Y22.2600
G01 X34.0767 Y22.1992
G01 X33.8997 Y22.1586
G01 X33.7908 Y22.1424
G01 X33.5978 Y22.1282
G01 X33.3092 Y22.1424
G01 X33.0233 Y22.1992
G01 X32.7513 Y22.2966
G01 X32.4942 Y22.4340
G01 X32.3360 Y22.5455
G01 X32.1220 Y22.7395
G01 X31.9370 Y22.9648
G01 X31.7885 Y23.2126
G01 X31.7100 Y23.3895
G01 X31.6492 Y23.5733
G01 X31.6086 Y23.7504
G01 X31.5924 Y23.8592
G01 X31.5782 Y24.0523
G01 X31.5830 Y24.2458
G01 X31.6068 Y24.4379
G01 X31.6770 Y24.7181
G01 X31.7466 Y24.8987
G01 X31.8335 Y25.0716
G01 X31.9323 Y25.2287
G01 X31.9955 Y25.3140
G01 X32.1220 Y25.4606
G01 X32.2622 Y25.5940
G01 X32.4148 Y25.7130
G01 X32.6626 Y25.8615
G01 X32.8395 Y25.9400
G01 X33.0184 Y25.9996
G01 X33.2282 Y26.0457
G01 X33.1513 Y26.2654
G01 X33.1086 Y26.4504
G01 X33.0924 Y26.5592
G01 X33.0782 Y26.7523
G01 X33.0924 Y27.0408
G01 X33.1492 Y27.3267
G01 X33.2100 Y27.5105
G01 X33.3335 Y27.7716
G01 X33.4531 Y27.9569
G01 X32.4367 Y27.9569
G01 X30.6232 Y26.1434
G01 X30.6208 Y18.7578
G01 X30.5892 Y18.5448
G01 X30.5472 Y18.4065
G01 X30.5002 Y18.2961
G01 X30.3895 Y18.1114
G01 X30.3143 Y18.0179
G01 X30.2303 Y17.9322
G01 X30.1186 Y17.8405
G01 X30.0106 Y17.7708
G01 X29.7832 Y17.5434
G01 X29.7832 Y12.4930
G01 X29.9453 Y12.3153
G01 X30.1069 Y12.4930
G01 X30.1081 Y14.4278
G01 X30.1186 Y14.5473
G01 X30.1409 Y14.6652
G01 X30.1828 Y14.8035
G01 X30.2299 Y14.9139
G01 X30.2875 Y15.0192
G01 X30.3552 Y15.1183
G01 X30.4322 Y15.2103
G01 X31.1751 Y15.9549
G01 X31.3017 Y16.0649
G01 X31.4008 Y16.1326
G01 X31.5283 Y16.2007
G01 X31.7261 Y16.2720
G01 X31.8485 Y16.2978
G01 X31.9923 Y16.3120
G01 X36.9434 Y16.3132
G01 X38.0400 Y17.4098
G01 X37.8600 Y17.3384
G01 X37.5989 Y17.2729
G01 X37.3478 Y17.2482
G01 X37.0788 Y17.2614
G01 X36.8314 Y17.3106
G01 X36.5779 Y17.4013
G01 X36.4227 Y17.4799
G01 X36.2129 Y17.6201
G01 X36.0134 Y17.8009
G01 X35.8533 Y17.9960
G01 X35.7149 Y18.2269
G01 X35.6184 Y18.4600
G01 X35.5548 Y18.7094
G01 X35.5282 Y18.9723
G01 X35.5320 Y19.1462
G01 X35.5716 Y19.4125
G00 Z2.0000
G00 X35.4017 Y19.4551
G01 F60.00
G01 Z-0.0300
G01 F120.00
G01 X35.4534 Y19.6390
G01 X35.5566 Y19.8880
G01 X35.6097 Y19.9874
G01 X35.7127 Y20.1484
G01 X35.8251 Y20.2885
G01 X35.7127 Y20.4316
G01 X35.6097 Y20.5926
G01 X35.5566 Y20.6920
G01 X35.4799 Y20.8671
G01 X35.4231 Y21.0395
G01 X35.3818 Y21.2216
G01 X35.3533 Y21.5037
G01 X35.3571 Y21.6948
G01 X35.3797 Y21.8846
G01 X35.4017 Y21.9951
G01 X35.4534 Y22.1790
G01 X35.5566 Y22.4280
G01 X35.6501 Y22.5947
G01 X35.7225 Y22.7018
G01 X35.1796 Y22.7018
G01 X35.0690 Y22.5811
G01 X34.9555 Y22.4763
G01 X34.7895 Y22.3464
G01 X34.6959 Y22.2838
G01 X34.4236 Y22.1382
G01 X34.3195 Y22.0951
G01 X34.1251 Y22.0308
G01 X33.9275 Y21.9857
G01 X33.7044 Y21.9581
G01 X33.3957 Y21.9581
G01 X33.1865 Y21.9835
G01 X32.9808 Y22.0294
G01 X32.8729 Y22.0621
G01 X32.6764 Y22.1382
G01 X32.4042 Y22.2838
G01 X32.2317 Y22.4048
G01 X32.1446 Y22.4763
G01 X32.0311 Y22.5811
G01 X31.9263 Y22.6946
G01 X31.7964 Y22.8605
G01 X31.7338 Y22.9542
G01 X31.5882 Y23.2264
G01 X31.5121 Y23.4229
G01 X31.4555 Y23.6260
G01 X31.4191 Y23.8335
G01 X31.4033 Y24.0437
G01 X31.4081 Y24.2544
G01 X31.4335 Y24.4636
G01 X31.4794 Y24.6693
G01 X31.5121 Y24.7771
G01 X31.5882 Y24.9736
G01 X31.6833 Y25.1617
G01 X31.7908 Y25.3319
G01 X31.9263 Y25.5055
G01 X32.0719 Y25.6578
G01 X32.2317 Y25.7952
G01 X32.4042 Y25.9163
G01 X32.5877 Y26.0199
G01 X32.7805 Y26.1049
G01 X32.9962 Y26.1746
G01 X32.9555 Y26.3260
G01 X32.9191 Y26.5335
G01 X32.9033 Y26.7437
G01 X32.9081 Y26.9544
G01 X32.9335 Y27.1636
G01 X32.9794 Y27.3693
G01 X33.0451 Y27.5695
G01 X33.1406 Y27.7818
G01 X32.5092 Y27.7818
G01 X30.7983 Y26.0708
G01 X30.7957 Y18.7492
G01 X30.7847 Y18.6370
G01 X30.7591 Y18.5023
G01 X30.7204 Y18.3706
G01 X30.6690 Y18.2434
G01 X30.5928 Y18.1008
G01 X30.5156 Y17.9874
G01 X30.4441 Y17.9003
G01 X30.3479 Y17.8024
G01 X30.2426 Y17.7145
G01 X30.1179 Y17.6305
G01 X29.9583 Y17.4708
G01 X29.9583 Y14.6440
G01 X30.0096 Y14.8394
G01 X30.0715 Y14.9888
G01 X30.1373 Y15.1092
G01 X30.1999 Y15.2029
G01 X30.3413 Y15.3687
G01 X31.0513 Y16.0787
G01 X31.1974 Y16.2056
G01 X31.3108 Y16.2828
G01 X31.4312 Y16.3485
G01 X31.5575 Y16.4021
G01 X31.6827 Y16.4416
G01 X31.8470 Y16.4747
G01 X32.0400 Y16.4883
G01 X36.8708 Y16.4883
G01 X37.4639 Y17.0814
G01 X37.2437 Y17.0733
G01 X37.0531 Y17.0882
G01 X36.8650 Y17.1217
G01 X36.6071 Y17.1999
G01 X36.4320 Y17.2766
G01 X36.3326 Y17.3297
G01 X36.1716 Y17.4327
G01 X35.9633 Y17.6036
G01 X35.8309 Y17.7415
G01 X35.7594 Y17.8286
G01 X35.6501 Y17.9853
G01 X35.5566 Y18.1520
G01 X35.4534 Y18.4010
G01 X35.4017 Y18.5850
G01 X35.3682 Y18.7731
G01 X35.3533 Y18.9637
G01 X35.3571 Y19.1548
G01 X35.3797 Y19.3446
G01 X35.4017 Y19.4551
G00 Z2.0000
G00 X35.2318 Y19.4976
G01 F60.00
G01 Z-0.0300
G01 F120.00
G01 X35.2885 Y19.6981
G01 X35.3647 Y19.8919
G01 X35.4595 Y20.0774
G01 X35.5996 Y20.2900
G01 X35.4595 Y20.5026
G01 X35.3983 Y20.6171
G01 X35.3150 Y20.8081
G01 X35.2318 Y21.0824
G01 X35.2064 Y21.2098
G01 X35.1822 Y21.4167
G01 X35.1822 Y21.7034
G01 X35.2064 Y21.9103
G01 X35.2318 Y22.0376
G01 X35.3150 Y22.3120
G01 X35.4110 Y22.5266
G01 X35.2579 Y22.5266
G01 X35.0731 Y22.3465
G01 X34.8939 Y22.2057
G01 X34.7859 Y22.1335
G01 X34.4985 Y21.9799
G01 X34.3785 Y21.9302
G01 X34.1685 Y21.8611
G01 X33.9393 Y21.8103
G01 X33.6150 Y21.7783
G01 X33.3871 Y21.7832
G01 X33.2578 Y21.7959
G01 X33.0334 Y21.8356
G01 X32.7215 Y21.9302
G01 X32.5129 Y22.0219
G01 X32.3983 Y22.0831
G01 X32.2150 Y22.1992
G01 X32.1274 Y22.2641
G01 X31.9543 Y22.4124
G01 X31.7965 Y22.5770
G01 X31.6557 Y22.7562
G01 X31.5835 Y22.8642
G01 X31.4299 Y23.1516
G01 X31.3472 Y23.3639
G01 X31.2856 Y23.5834
G01 X31.2459 Y23.8078
G01 X31.2283 Y24.0351
G01 X31.2332 Y24.2630
G01 X31.2603 Y24.4893
G01 X31.3095 Y24.7118
G01 X31.3802 Y24.9285
G01 X31.4719 Y25.1372
G01 X31.5835 Y25.3359
G01 X31.7141 Y25.5227
G01 X31.8624 Y25.6958
G01 X32.0270 Y25.8535
G01 X32.2062 Y25.9944
G01 X32.3983 Y26.1170
G01 X32.6016 Y26.2201
G01 X32.7838 Y26.2921
G01 X32.7459 Y26.5078
G01 X32.7332 Y26.6371
G01 X32.7332 Y26.9630
G01 X32.7459 Y27.0922
G01 X32.7856 Y27.3166
G01 X32.8724 Y27.6066
G01 X32.5818 Y27.6066
G01 X30.9734 Y25.9983
G01 X30.9706 Y18.7406
G01 X30.9579 Y18.6113
G01 X30.9290 Y18.4597
G01 X30.8853 Y18.3116
G01 X30.8273 Y18.1685
G01 X30.7430 Y18.0108
G01 X30.6562 Y17.8831
G01 X30.5387 Y17.7453
G01 X30.4474 Y17.6562
G01 X30.3470 Y17.5738
G01 X30.2309 Y17.4958
G01 X30.1334 Y17.3983
G01 X30.1334 Y15.3968
G01 X30.2175 Y15.4926
G01 X30.9275 Y16.2026
G01 X31.0931 Y16.3462
G01 X31.2418 Y16.4456
G01 X31.3785 Y16.5173
G01 X31.5216 Y16.5753
G01 X31.6392 Y16.6113
G01 X31.7810 Y16.6418
G01 X32.0400 Y16.6634
G01 X36.7983 Y16.6634
G01 X37.0478 Y16.9129
G01 X36.8224 Y16.9518
G01 X36.6220 Y17.0085
G01 X36.3571 Y17.1183
G01 X36.1753 Y17.2198
G01 X36.0042 Y17.3387
G01 X35.9038 Y17.4211
G01 X35.7539 Y17.5657
G01 X35.6187 Y17.7242
G01 X35.4595 Y17.9626
G01 X35.3647 Y18.1481
G01 X35.2885 Y18.3420
G01 X35.2318 Y18.5424
G01 X35.2064 Y18.6698
G01 X35.1822 Y18.8767
G01 X35.1783 Y19.0850
G01 X35.1949 Y19.2926
G01 X35.2318 Y19.4976
G00 Z2.0000
G00 X35.0619 Y19.5402
G01 F60.00
G01 Z-0.0300
G01 F120.00
G01 X35.1236 Y19.7571
G01 X35.2064 Y19.9668
G01 X35.3093 Y20.1675
G01 X35.3865 Y20.2900
G01 X35.3093 Y20.4126
G01 X35.2399 Y20.5423
G01 X35.1501 Y20.7491
G01 X35.0841 Y20.9515
G01 X35.0360 Y21.1659
G01 X35.0073 Y21.4081
G01 X35.0034 Y21.6335
G01 X35.0217 Y21.8583
G01 X35.0717 Y22.1196
G01 X34.7918 Y21.9329
G01 X34.5734 Y21.8216
G01 X34.3451 Y21.7323
G01 X34.2119 Y21.6915
G01 X33.9831 Y21.6398
G01 X33.7216 Y21.6082
G01 X33.3785 Y21.6082
G01 X33.1351 Y21.6370
G01 X32.8957 Y21.6896
G01 X32.7549 Y21.7323
G01 X32.5267 Y21.8216
G01 X32.2241 Y21.9833
G01 X32.0230 Y22.1235
G01 X31.7834 Y22.3334
G01 X31.5735 Y22.5730
G01 X31.3829 Y22.8583
G01 X31.2716 Y23.0767
G01 X31.2153 Y23.2125
G01 X31.1486 Y23.4143
G01 X31.1486 Y18.8300
G01 X31.1311 Y18.5856
G01 X31.0929 Y18.3933
G01 X31.0419 Y18.2295
G01 X30.9752 Y18.0715
G01 X30.8932 Y17.9207
G01 X30.7969 Y17.7787
G01 X30.6638 Y17.6228
G01 X30.5650 Y17.5264
G01 X30.4513 Y17.4331
G01 X30.3431 Y17.3603
G01 X30.3086 Y17.3258
G01 X30.3086 Y15.8314
G01 X30.8036 Y16.3264
G01 X31.0085 Y16.5015
G01 X31.1518 Y16.5959
G01 X31.3036 Y16.6757
G01 X31.4626 Y16.7402
G01 X31.5958 Y16.7810
G01 X31.7532 Y16.8147
G01 X31.9420 Y16.8356
G01 X32.0400 Y16.8386
G01 X36.5797 Y16.8386
G01 X36.4891 Y16.8701
G01 X36.2823 Y16.9599
G01 X36.0852 Y17.0696
G01 X35.8999 Y17.1981
G01 X35.7281 Y17.3441
G01 X35.5714 Y17.5062
G01 X35.4313 Y17.6830
G01 X35.3093 Y17.8726
G01 X35.2064 Y18.0732
G01 X35.1236 Y18.2830
G01 X35.0619 Y18.4999
G01 X35.0332 Y18.6441
G01 X35.0073 Y18.8681
G01 X35.0034 Y19.0935
G01 X35.0217 Y19.3183
G01 X35.0619 Y19.5402
G00 Z2.0000
G00 X34.8920 Y19.5827
G01 F60.00
G01 Z-0.0300
G01 F120.00
G01 X34.9852 Y19.8900
G01 X35.0816 Y20.1127
G01 X35.1785 Y20.2900
G01 X35.0816 Y20.4674
G01 X34.9852 Y20.6901
G01 X34.8920 Y20.9973
G01 X34.8600 Y21.1584
G01 X34.8323 Y21.3995
G01 X34.8285 Y21.6421
G01 X34.8361 Y21.7584
G01 X34.6482 Y21.6633
G01 X34.4041 Y21.5674
G01 X34.1518 Y21.4958
G01 X33.8936 Y21.4494
G01 X33.6321 Y21.4285
G01 X33.3699 Y21.4333
G01 X33.2064 Y21.4494
G01 X32.9483 Y21.4958
G01 X32.6959 Y21.5674
G01 X32.4518 Y21.6633
G01 X32.2182 Y21.7826
G01 X32.0086 Y21.9162
G01 X31.7917 Y22.0870
G01 X31.6595 Y22.2095
G01 X31.5370 Y22.3417
G01 X31.4328 Y22.4687
G01 X31.3237 Y22.6233
G01 X31.3237 Y18.8300
G01 X31.3044 Y18.5599
G01 X31.2628 Y18.3508
G01 X31.2068 Y18.1705
G01 X31.1335 Y17.9966
G01 X31.0435 Y17.8307
G01 X30.9376 Y17.6744
G01 X30.8169 Y17.5293
G01 X30.6826 Y17.3966
G01 X30.5556 Y17.2925
G01 X30.4837 Y17.2435
G01 X30.4837 Y16.2542
G01 X30.7575 Y16.5234
G01 X30.9041 Y16.6422
G01 X31.0617 Y16.7461
G01 X31.2288 Y16.8340
G01 X31.4036 Y16.9051
G01 X31.5846 Y16.9587
G01 X31.7699 Y16.9944
G01 X32.0400 Y17.0137
G01 X35.8545 Y17.0137
G01 X35.6104 Y17.2143
G01 X35.4416 Y17.3886
G01 X35.3374 Y17.5156
G01 X35.1590 Y17.7825
G01 X35.0816 Y17.9274
G01 X34.9852 Y18.1501
G01 X34.8920 Y18.4573
G01 X34.8600 Y18.6184
G01 X34.8323 Y18.8595
G01 X34.8323 Y19.1806
G01 X34.8600 Y19.4217
G01 X34.8920 Y19.5827
G00 Z2.0000
G00 X34.7221 Y19.6253
G01 F60.00
G01 Z-0.0300
G01 F120.00
G01 X34.8203 Y19.9490
G01 X34.8897 Y20.1166
G01 X34.9783 Y20.2896
G01 X34.8897 Y20.4635
G01 X34.8203 Y20.6311
G01 X34.7450 Y20.8635
G01 X34.6867 Y21.1327
G01 X34.6536 Y21.4762
G01 X34.4631 Y21.4025
G01 X34.1943 Y21.3259
G01 X33.9193 Y21.2761
G01 X33.7388 Y21.2584
G01 X33.3613 Y21.2584
G01 X33.1807 Y21.2761
G01 X32.9057 Y21.3259
G01 X32.5445 Y21.4355
G01 X32.3769 Y21.5049
G01 X32.1282 Y21.6324
G01 X31.9055 Y21.7746
G01 X31.8144 Y21.8421
G01 X31.6741 Y21.9572
G01 X31.4988 Y22.1244
G01 X31.4988 Y18.8300
G01 X31.4954 Y18.7148
G01 X31.4740 Y18.5100
G01 X31.4327 Y18.3082
G01 X31.3717 Y18.1115
G01 X31.2918 Y17.9217
G01 X31.1937 Y17.7406
G01 X31.0783 Y17.5701
G01 X30.9467 Y17.4116
G01 X30.8002 Y17.2669
G01 X30.6588 Y17.1510
G01 X30.6588 Y16.6688
G01 X30.7998 Y16.7829
G01 X30.9506 Y16.8837
G01 X31.1539 Y16.9923
G01 X31.3215 Y17.0617
G01 X31.5089 Y17.1203
G01 X31.7442 Y17.1676
G01 X32.0400 Y17.1888
G01 X35.3885 Y17.1888
G01 X35.1967 Y17.4112
G01 X35.0088 Y17.6925
G01 X34.8897 Y17.9235
G01 X34.8203 Y18.0911
G01 X34.7450 Y18.3235
G01 X34.6867 Y18.5927
G01 X34.6536 Y18.9293
G01 X34.6574 Y19.1892
G01 X34.6867 Y19.4474
G01 X34.7221 Y19.6253
G00 Z2.0000
G00 X34.5522 Y19.6679
G01 F60.00
G01 Z-0.0300
G01 F120.00
G01 X34.6554 Y20.0080
G01 X34.7798 Y20.2899
G01 X34.6554 Y20.5721
G01 X34.5755 Y20.8195
G01 X34.5173 Y21.0824
G01 X34.4982 Y21.2302
G01 X34.3321 Y21.1799
G01 X34.0666 Y21.1211
G01 X33.7473 Y21.0834
G01 X33.3527 Y21.0834
G01 X33.0580 Y21.1173
G01 X32.7680 Y21.1799
G01 X32.5779 Y21.2376
G01 X32.3020 Y21.3466
G01 X31.9540 Y21.5327
G01 X31.8023 Y21.6331
G01 X31.6740 Y21.7310
G01 X31.6740 Y18.8300
G01 X31.6703 Y18.7062
G01 X31.6473 Y18.4843
G01 X31.6026 Y18.2657
G01 X31.5366 Y18.0525
G01 X31.4606 Y17.8690
G01 X31.3565 Y17.6717
G01 X31.2336 Y17.4855
G01 X31.0929 Y17.3122
G01 X30.9360 Y17.1536
G01 X30.8340 Y17.0683
G01 X30.8340 Y17.0147
G01 X31.0568 Y17.1401
G01 X31.2856 Y17.2349
G01 X31.4655 Y17.2900
G01 X31.6697 Y17.3335
G01 X31.9162 Y17.3603
G01 X35.0137 Y17.3640
G01 X34.8586 Y17.6024
G01 X34.7314 Y17.8486
G01 X34.6289 Y18.1060
G01 X34.5755 Y18.2796
G01 X34.5173 Y18.5424
G01 X34.4825 Y18.8423
G01 X34.4786 Y19.1193
G01 X34.5019 Y19.3954
G01 X34.5522 Y19.6679
G00 Z2.0000
G00 X34.3823 Y19.7104
G01 F60.00
G01 Z-0.0300
G01 F120.00
G01 X34.4640 Y19.9931
G01 X34.5843 Y20.2900
G01 X34.4640 Y20.5870
G01 X34.4060 Y20.7756
G01 X34.3545 Y21.0050
G01 X34.0944 Y20.9482
G01 X33.9707 Y20.9297
G01 X33.6579 Y20.9037
G01 X33.3441 Y20.9085
G01 X33.0323 Y20.9441
G01 X32.7254 Y21.0100
G01 X32.4265 Y21.1057
G01 X32.1384 Y21.2302
G01 X31.8491 Y21.3922
G01 X31.8491 Y18.8300
G01 X31.8453 Y18.6976
G01 X31.8241 Y18.4829
G01 X31.7725 Y18.2231
G01 X31.7015 Y17.9935
G01 X31.6085 Y17.7719
G01 X31.5067 Y17.5816
G01 X31.4274 Y17.4608
G01 X31.6929 Y17.5141
G01 X31.9076 Y17.5353
G01 X32.0400 Y17.5391
G01 X34.6941 Y17.5391
G01 X34.5731 Y17.7737
G01 X34.4640 Y18.0470
G01 X34.3823 Y18.3296
G01 X34.3287 Y18.6190
G01 X34.3037 Y18.9121
G01 X34.3037 Y19.1279
G01 X34.3287 Y19.4211
G01 X34.3823 Y19.7104
G00 Z2.0000
G00 X34.2124 Y19.7530
G01 F60.00
G01 Z-0.0300
G01 F120.00
G01 X34.2991 Y20.0521
G01 X34.3935 Y20.2901
G01 X34.2991 Y20.5280
G01 X34.2204 Y20.7954
G01 X33.9964 Y20.7564
G01 X33.6665 Y20.7288
G01 X33.3355 Y20.7336
G01 X33.1037 Y20.7564
G01 X32.7781 Y20.8163
G01 X32.4599 Y20.9077
G01 X32.1523 Y21.0300
G01 X32.0243 Y21.0929
G01 X32.0202 Y18.6890
G01 X31.9938 Y18.4329
G01 X31.9424 Y18.1806
G01 X31.8664 Y17.9345
G01 X31.7669 Y17.6972
G01 X32.0400 Y17.7143
G01 X34.4083 Y17.7143
G01 X34.2991 Y17.9880
G01 X34.2124 Y18.2871
G01 X34.1670 Y18.5156
G01 X34.1326 Y18.8251
G01 X34.1326 Y19.2149
G01 X34.1670 Y19.5245
G01 X34.2124 Y19.7530
G00 Z2.0000
G00 X34.0425 Y19.7955
G01 F60.00
G01 Z-0.0300
G01 F120.00
G01 X34.1342 Y20.1111
G01 X34.2042 Y20.2901
G01 X34.1342 Y20.4690
G01 X34.0957 Y20.5941
G01 X33.6751 Y20.5538
G01 X33.3269 Y20.5587
G01 X33.0780 Y20.5832
G01 X32.6403 Y20.6702
G01 X32.4009 Y20.7428
G01 X32.1994 Y20.8211
G01 X32.1951 Y18.6804
G01 X32.1706 Y18.4315
G01 X32.1182 Y18.1618
G01 X32.0363 Y17.8893
G01 X34.1484 Y17.8894
G01 X34.0425 Y18.2445
G01 X33.9937 Y18.4899
G01 X33.9577 Y18.8165
G01 X33.9577 Y19.2235
G01 X33.9937 Y19.5502
G01 X34.0425 Y19.7955
G00 Z2.0000
G00 X33.8726 Y19.8381
G01 F60.00
G01 Z-0.0300
G01 F120.00
G01 X33.9693 Y20.1701
G01 X34.0149 Y20.2902
G01 X33.9716 Y20.4037
G01 X33.6837 Y20.3789
G01 X33.4163 Y20.3789
G01 X33.0523 Y20.4099
G01 X32.6930 Y20.4765
G01 X32.3745 Y20.5680
G01 X32.3713 Y18.6963
G01 X32.3403 Y18.3815
G01 X32.2728 Y18.0645
G01 X33.9094 Y18.0645
G01 X33.8726 Y18.2020
G01 X33.8256 Y18.4312
G01 X33.8090 Y18.5419
G01 X33.7789 Y18.8863
G01 X33.7828 Y19.2321
G01 X33.8205 Y19.5758
G01 X33.8726 Y19.8381
G00 Z2.0000
G00 X33.7028 Y19.8806
G01 F60.00
G01 Z-0.0300
G01 F120.00
G01 X33.7999 Y20.2143
G01 X33.6923 Y20.2040
G01 X33.3097 Y20.2088
G01 X32.9295 Y20.2511
G01 X32.5497 Y20.3321
G01 X32.5462 Y18.6878
G01 X32.5171 Y18.3801
G01 X32.4904 Y18.2397
G01 X33.6863 Y18.2397
G01 X33.6357 Y18.5162
G01 X33.6078 Y18.7993
G01 X33.6040 Y19.1623
G01 X33.6357 Y19.5239
G01 X33.7028 Y19.8806
G00 Z2.0000
G00 X33.5329 Y19.9232
G01 F60.00
G01 Z-0.0300
G01 F120.00
G01 X33.5609 Y20.0290
G01 X33.3011 Y20.0339
G01 X33.0009 Y20.0634
G01 X32.7248 Y20.1134
G01 X32.7248 Y18.8300
G01 X32.7199 Y18.6546
G01 X32.6963 Y18.4148
G01 X33.4737 Y18.4148
G01 X33.4329 Y18.7907
G01 X33.4290 Y19.1709
G01 X33.4625 Y19.5496
G01 X33.5329 Y19.9232
G00 Z2.0000
G00 X44.0391 Y19.1904
G01 F60.00
G01 Z-0.0300
G01 F120.00
G01 X44.0893 Y19.3590
G01 X44.1714 Y19.5145
G01 X44.2822 Y19.6511
G01 X44.4176 Y19.7634
G01 X44.5723 Y19.8471
G01 X44.7485 Y19.9007
G01 X44.9153 Y19.9172
G01 X45.0904 Y19.9009
G01 X45.2590 Y19.8507
G01 X45.4145 Y19.7687
G01 X45.5511 Y19.6578
G01 X45.6634 Y19.5224
G01 X45.7471 Y19.3678
G01 X45.8007 Y19.1916
G01 X45.8172 Y19.0153
G01 X45.8007 Y18.8485
G01 X45.7507 Y18.6811
G01 X45.6687 Y18.5255
G01 X45.5578 Y18.3890
G01 X45.4224 Y18.2767
G01 X45.2678 Y18.1930
G01 X45.0916 Y18.1393
G01 X44.9248 Y18.1228
G01 X44.7497 Y18.1391
G01 X44.5811 Y18.1893
G01 X44.4255 Y18.2714
G01 X44.2890 Y18.3822
G01 X44.1767 Y18.5176
G01 X44.0930 Y18.6723
G01 X44.0393 Y18.8485
G01 X44.0228 Y19.0153
G01 X44.0391 Y19.1904
G00 Z2.0000
G00 X44.5738 Y20.0341
G01 F60.00
G01 Z-0.0300
G01 F120.00
G01 X44.7240 Y20.0741
G01 X44.8282 Y20.0883
G01 X44.9334 Y20.0921
G01 X45.1161 Y20.0741
G01 X45.2622 Y20.0356
G01 X45.2093 Y20.1215
G01 X45.1754 Y20.2256
G01 X45.1689 Y20.2847
G01 X45.1754 Y20.3438
G01 X45.2016 Y20.4442
G01 X45.2249 Y20.4933
G01 X45.2663 Y20.5459
G01 X45.1194 Y20.5064
G01 X44.9334 Y20.4879
G01 X44.8282 Y20.4918
G01 X44.7240 Y20.5059
G01 X44.5778 Y20.5445
G01 X44.6307 Y20.4586
G01 X44.6646 Y20.3544
G01 X44.6711 Y20.2953
G01 X44.6646 Y20.2362
G01 X44.6385 Y20.1358
G01 X44.6152 Y20.0868
G01 X44.5738 Y20.0341
G00 Z2.0000
G00 X44.8448 Y20.2644
G01 F60.00
G01 Z-0.0300
G01 F120.00
G01 X44.9947 Y20.2645
G01 X44.9953 Y20.3156
G01 X44.8453 Y20.3156
G01 X44.8448 Y20.2644
G00 Z2.0000
G00 X44.0410 Y21.7397
G01 F60.00
G01 Z-0.0300
G01 F120.00
G01 X44.0930 Y21.9078
G01 X44.1767 Y22.0624
G01 X44.2890 Y22.1978
G01 X44.4255 Y22.3087
G01 X44.5811 Y22.3907
G01 X44.7485 Y22.4407
G01 X44.9248 Y22.4572
G01 X45.0997 Y22.4390
G01 X45.2678 Y22.3871
G01 X45.4224 Y22.3034
G01 X45.5578 Y22.1911
G01 X45.6687 Y22.0545
G01 X45.7507 Y21.8990
G01 X45.8007 Y21.7316
G01 X45.8172 Y21.5553
G01 X45.8007 Y21.3885
G01 X45.7471 Y21.2123
G01 X45.6634 Y21.0576
G01 X45.5511 Y20.9222
G01 X45.4145 Y20.8114
G01 X45.2590 Y20.7293
G01 X45.0916 Y20.6793
G01 X44.9153 Y20.6628
G01 X44.7403 Y20.6810
G01 X44.5723 Y20.7330
G01 X44.4176 Y20.8167
G01 X44.2822 Y20.9290
G01 X44.1714 Y21.0655
G01 X44.0893 Y21.2211
G01 X44.0393 Y21.3885
G01 X44.0228 Y21.5648
G01 X44.0410 Y21.7397
G00 Z2.0000
G00 X44.5738 Y22.5741
G01 F60.00
G01 Z-0.0300
G01 F120.00
G01 X44.6978 Y22.6089
G01 X44.8016 Y22.6257
G01 X44.9067 Y22.6321
G01 X45.0118 Y22.6283
G01 X45.1161 Y22.6141
G01 X45.2185 Y22.5899
G01 X45.3427 Y22.5454
G01 X45.4372 Y22.4992
G01 X45.5268 Y22.4440
G01 X45.6105 Y22.3803
G01 X45.6876 Y22.3087
G01 X45.7573 Y22.2298
G01 X45.8189 Y22.1445
G01 X45.8718 Y22.0536
G01 X45.9156 Y21.9580
G01 X45.9662 Y21.7931
G01 X46.0040 Y21.8886
G01 X46.0547 Y21.9539
G01 X46.1650 Y22.0373
G01 X46.2066 Y22.0560
G01 X46.2653 Y22.0696
G01 X46.1910 Y22.1084
G01 X46.1102 Y22.1713
G01 X45.2124 Y23.0687
G01 X45.0384 Y23.0344
G01 X44.9067 Y23.0279
G01 X44.7240 Y23.0459
G01 X44.5778 Y23.0845
G01 X44.6307 Y22.9986
G01 X44.6646 Y22.8944
G01 X44.6711 Y22.8353
G01 X44.6646 Y22.7762
G01 X44.6385 Y22.6758
G01 X44.6152 Y22.6268
G01 X44.5738 Y22.5741
G00 Z2.0000
G00 X44.8448 Y22.8044
G01 F60.00
G01 Z-0.0300
G01 F120.00
G01 X45.0641 Y22.7989
G01 X45.2791 Y22.7543
G01 X45.1577 Y22.8757
G01 X45.0204 Y22.8568
G01 X44.8453 Y22.8556
G01 X44.8448 Y22.8044
G00 Z2.0000
G00 X45.9583 Y23.8008
G01 F60.00
G01 Z-0.0300
G01 F120.00
G01 X45.9548 Y23.8131
G01 X45.9540 Y23.8181
G01 X45.9514 Y23.8077
G01 X45.9583 Y23.8008
G00 Z2.0000
G00 X44.8448 Y25.3444
G01 F60.00
G01 Z-0.0300
G01 F120.00
G01 X44.9947 Y25.3445
G01 X44.9953 Y25.3956
G01 X44.8453 Y25.3956
G01 X44.8448 Y25.3444
G00 Z2.0000
G00 X44.5738 Y25.1141
G01 F60.00
G01 Z-0.0300
G01 F120.00
G01 X44.8016 Y25.1657
G01 X44.9334 Y25.1721
G01 X45.1161 Y25.1541
G01 X45.2622 Y25.1156
G01 X45.2093 Y25.2015
G01 X45.1754 Y25.3056
G01 X45.1689 Y25.3647
