(G-code generated by FlatCAM Evo vUnstable - Version Date: 2023/6/31)

(Name: init_reader.drl_cnc)
(Type: G-code from Excellon)
(Units: MM)

(Created on Sunday, 01 March 2026 at 09:47)

(This preprocessor is the default preprocessor.)
(It is made to work with MACH3 compatible motion controllers.)


(TOOLS DIAMETER: )
(Tool: 4 -> Dia: 0.9)

(FEEDRATE Z: )
(Tool: 4 -> Feedrate: 300)

(FEEDRATE RAPIDS: )
(Tool: 4 -> Feedrate Rapids: 1500)

(Z_CUT: )
(Tool: 4 -> Z_Cut: -1.7)

(Tools Offset: )
(Tool: 4 -> Offset Z: 0.0)

(Z_MOVE: )
(Tool: 4 -> Z_Move: 2)

(Z Start: None mm)
(Z End: 15 mm)
(X,Y End: None mm)
(Steps per circle: 16)
(Preprocessor Excellon: default)

(X range:    4.3600 ...  138.5450  mm)
(Y range:    4.2800 ...   92.3900  mm)

(Spindle Speed: 500 RPM)
G21
G90
G94

G01 F300.00
G00 Z2.0000

M03 S500
G00 X58.5500 Y47.8200
G01 Z-1.7000
G01 Z0
G00 Z2.0000
G00 X39.0500 Y43.6300
G01 Z-1.7000
G01 Z0
G00 Z2.0000
G00 X39.0500 Y46.1700
G01 Z-1.7000
G01 Z0
G00 Z2.0000
G00 X39.0500 Y48.7100
G01 Z-1.7000
G01 Z0
G00 Z2.0000
G00 X39.0500 Y51.2500
G01 Z-1.7000
G01 Z0
G00 Z2.0000
G00 X39.0500 Y53.7900
G01 Z-1.7000
G01 Z0
G00 Z2.0000
G00 X39.0500 Y56.3300
G01 Z-1.7000
G01 Z0
G00 Z2.0000
G00 X39.0500 Y58.8700
G01 Z-1.7000
G01 Z0
G00 Z2.0000
G00 X39.0500 Y61.4100
G01 Z-1.7000
G01 Z0
G00 Z2.0000
G00 X39.0500 Y63.9500
G01 Z-1.7000
G01 Z0
G00 Z2.0000
G00 X39.0500 Y66.4900
G01 Z-1.7000
G01 Z0
G00 Z2.0000
G00 X39.0500 Y69.0300
G01 Z-1.7000
G01 Z0
G00 Z2.0000
G00 X39.0500 Y71.5700
G01 Z-1.7000
G01 Z0
G00 Z2.0000
G00 X39.0500 Y74.1100
G01 Z-1.7000
G01 Z0
G00 Z2.0000
G00 X39.0500 Y76.6500
G01 Z-1.7000
G01 Z0
G00 Z2.0000
G00 X39.0500 Y79.1900
G01 Z-1.7000
G01 Z0
G00 Z2.0000
G00 X39.0500 Y81.7300
G01 Z-1.7000
G01 Z0
G00 Z2.0000
G00 X39.0500 Y84.2700
G01 Z-1.7000
G01 Z0
G00 Z2.0000
G00 X39.0500 Y86.8100
G01 Z-1.7000
G01 Z0
G00 Z2.0000
G00 X39.0500 Y89.3500
G01 Z-1.7000
G01 Z0
G00 Z2.0000
G00 X39.0500 Y91.8900
G01 Z-1.7000
G01 Z0
G00 Z2.0000
G00 X35.0500 Y86.0500
G01 Z-1.7000
G01 Z0
G00 Z2.0000
G00 X32.8000 Y84.5500
G01 Z-1.7000
G01 Z0
G00 Z2.0000
G00 X21.2700 Y91.8900
G01 Z-1.7000
G01 Z0
G00 Z2.0000
G00 X21.2700 Y89.3500
G01 Z-1.7000
G01 Z0
G00 Z2.0000
G00 X21.2700 Y86.8100
G01 Z-1.7000
G01 Z0
G00 Z2.0000
G00 X21.2700 Y84.2700
G01 Z-1.7000
G01 Z0
G00 Z2.0000
G00 X21.2700 Y81.7300
G01 Z-1.7000
G01 Z0
G00 Z2.0000
G00 X21.2700 Y79.1900
G01 Z-1.7000
G01 Z0
G00 Z2.0000
G00 X21.2700 Y76.6500
G01 Z-1.7000
G01 Z0
G00 Z2.0000
G00 X21.2700 Y74.1100
G01 Z-1.7000
G01 Z0
G00 Z2.0000
G00 X21.2700 Y71.5700
G01 Z-1.7000
G01 Z0
G00 Z2.0000
G00 X21.2700 Y69.0300
G01 Z-1.7000
G01 Z0
G00 Z2.0000
G00 X21.2700 Y66.4900
G01 Z-1.7000
G01 Z0
G00 Z2.0000
G00 X21.2700 Y63.9500
G01 Z-1.7000
G01 Z0
G00 Z2.0000
G00 X21.2700 Y61.4100
G01 Z-1.7000
G01 Z0
G00 Z2.0000
G00 X21.2700 Y58.8700
G01 Z-1.7000
G01 Z0
G00 Z2.0000
G00 X14.6600 Y64.3300
G01 Z-1.7000
G01 Z0
G00 Z2.0000
G00 X14.6600 Y73.6800
G01 Z-1.7000
G01 Z0
G00 Z2.0000
G00 X5.6100 Y87.5300
G01 Z-1.7000
G01 Z0
G00 Z2.0000
G00 X6.1600 Y78.5310
G01 Z-1.7000
G01 Z0
G00 Z2.0000
G00 X6.1600 Y75.9910
G01 Z-1.7000
G01 Z0
G00 Z2.0000
G00 X6.1600 Y73.4510
G01 Z-1.7000
G01 Z0
G00 Z2.0000
G00 X6.1600 Y70.9110
G01 Z-1.7000
G01 Z0
G00 Z2.0000
G00 X6.1600 Y68.3710
G01 Z-1.7000
G01 Z0
G00 Z2.0000
G00 X6.1600 Y65.8310
G01 Z-1.7000
G01 Z0
G00 Z2.0000
G00 X6.1600 Y63.2910
G01 Z-1.7000
G01 Z0
G00 Z2.0000
G00 X6.1600 Y60.7510
G01 Z-1.7000
G01 Z0
G00 Z2.0000
G00 X6.1600 Y58.2110
G01 Z-1.7000
G01 Z0
G00 Z2.0000
G00 X6.1600 Y55.6710
G01 Z-1.7000
G01 Z0
G00 Z2.0000
G00 X6.1600 Y53.1310
G01 Z-1.7000
G01 Z0
G00 Z2.0000
G00 X6.1600 Y50.5910
G01 Z-1.7000
G01 Z0
G00 Z2.0000
G00 X6.1600 Y48.0510
G01 Z-1.7000
G01 Z0
G00 Z2.0000
G00 X6.1600 Y45.5110
G01 Z-1.7000
G01 Z0
G00 Z2.0000
G00 X6.1600 Y42.9710
G01 Z-1.7000
G01 Z0
G00 Z2.0000
G00 X6.1600 Y40.4310
G01 Z-1.7000
G01 Z0
G00 Z2.0000
G00 X9.2400 Y40.4700
G01 Z-1.7000
G01 Z0
G00 Z2.0000
G00 X9.3200 Y35.1000
G01 Z-1.7000
G01 Z0
G00 Z2.0000
G00 X21.2700 Y43.6300
G01 Z-1.7000
G01 Z0
G00 Z2.0000
G00 X21.2700 Y46.1700
G01 Z-1.7000
G01 Z0
G00 Z2.0000
G00 X21.2700 Y48.7100
G01 Z-1.7000
G01 Z0
G00 Z2.0000
G00 X21.2700 Y51.2500
G01 Z-1.7000
G01 Z0
G00 Z2.0000
G00 X21.2700 Y53.7900
G01 Z-1.7000
G01 Z0
G00 Z2.0000
G00 X21.2700 Y56.3300
G01 Z-1.7000
G01 Z0
G00 Z2.0000
G00 X29.5500 Y48.0500
G01 Z-1.7000
G01 Z0
G00 Z2.0000
G00 X29.5500 Y34.0500
G01 Z-1.7000
G01 Z0
G00 Z2.0000
G00 X35.0500 Y26.8000
G01 Z-1.7000
G01 Z0
G00 Z2.0000
G00 X33.5500 Y24.1000
G01 Z-1.7000
G01 Z0
G00 Z2.0000
G00 X34.1000 Y11.2100
G01 Z-1.7000
G01 Z0
G00 Z2.0000
G00 X31.3300 Y11.2100
G01 Z-1.7000
G01 Z0
G00 Z2.0000
G00 X28.5600 Y11.2100
G01 Z-1.7000
G01 Z0
G00 Z2.0000
G00 X25.7900 Y11.2100
G01 Z-1.7000
G01 Z0
G00 Z2.0000
G00 X5.6100 Y5.5300
G01 Z-1.7000
G01 Z0
G00 Z2.0000
G00 X18.8300 Y9.7900
G01 Z-1.7000
G01 Z0
G00 Z2.0000
G00 X27.1750 Y8.3700
G01 Z-1.7000
G01 Z0
G00 Z2.0000
G00 X29.9450 Y8.3700
G01 Z-1.7000
G01 Z0
G00 Z2.0000
G00 X32.7150 Y8.3700
G01 Z-1.7000
G01 Z0
G00 Z2.0000
G00 X35.4850 Y8.3700
G01 Z-1.7000
G01 Z0
G00 Z2.0000
G00 X36.8700 Y11.2100
G01 Z-1.7000
G01 Z0
G00 Z2.0000
G00 X43.8300 Y9.7900
G01 Z-1.7000
G01 Z0
G00 Z2.0000
G00 X57.5100 Y18.4300
G01 Z-1.7000
G01 Z0
G00 Z2.0000
G00 X57.5100 Y11.8900
G01 Z-1.7000
G01 Z0
G00 Z2.0000
G00 X60.6100 Y5.5300
G01 Z-1.7000
G01 Z0
G00 Z2.0000
G00 X73.8000 Y14.3000
G01 Z-1.7000
G01 Z0
G00 Z2.0000
G00 X73.8000 Y20.8000
G01 Z-1.7000
G01 Z0
G00 Z2.0000
G00 X78.3000 Y20.8000
G01 Z-1.7000
G01 Z0
G00 Z2.0000
G00 X78.3000 Y14.3000
G01 Z-1.7000
G01 Z0
G00 Z2.0000
G00 X96.1140 Y6.3800
G01 Z-1.7000
G01 Z0
G00 Z2.0000
G00 X102.9080 Y6.5700
G01 Z-1.7000
G01 Z0
G00 Z2.0000
G00 X115.0500 Y17.0800
G01 Z-1.7000
G01 Z0
G00 Z2.0000
G00 X137.4000 Y30.5700
G01 Z-1.7000
G01 Z0
G00 Z2.0000
G00 X115.0500 Y44.0500
G01 Z-1.7000
G01 Z0
G00 Z2.0000
G00 X102.8440 Y37.2410
G01 Z-1.7000
G01 Z0
G00 Z2.0000
G00 X96.0500 Y37.0500
G01 Z-1.7000
G01 Z0
G00 Z2.0000
G00 X96.0500 Y78.0500
G01 Z-1.7000
G01 Z0
G00 Z2.0000
G00 X96.0500 Y85.6500
G01 Z-1.7000
G01 Z0
G00 Z2.0000
G00 X78.3000 Y78.8000
G01 Z-1.7000
G01 Z0
G00 Z2.0000
G00 X73.8000 Y78.8000
G01 Z-1.7000
G01 Z0
G00 Z2.0000
G00 X60.6100 Y87.5300
G01 Z-1.7000
G01 Z0
G00 Z2.0000
G00 X73.8000 Y72.3000
G01 Z-1.7000
G01 Z0
G00 Z2.0000
G00 X78.3000 Y72.3000
G01 Z-1.7000
G01 Z0
G00 Z2.0000
G00 X73.8000 Y59.8000
G01 Z-1.7000
G01 Z0
G00 Z2.0000
G00 X78.3000 Y59.8000
G01 Z-1.7000
G01 Z0
G00 Z2.0000
G00 X78.3000 Y53.3000
G01 Z-1.7000
G01 Z0
G00 Z2.0000
G00 X73.8000 Y53.3000
G01 Z-1.7000
G01 Z0
G00 Z2.0000
G00 X78.3000 Y39.8000
G01 Z-1.7000
G01 Z0
G00 Z2.0000
G00 X78.3000 Y33.3000
G01 Z-1.7000
G01 Z0
G00 Z2.0000
G00 X73.8000 Y33.3000
G01 Z-1.7000
G01 Z0
G00 Z2.0000
G00 X73.8000 Y39.8000
G01 Z-1.7000
G01 Z0
G00 Z2.0000
G00 X58.5500 Y45.2800
G01 Z-1.7000
G01 Z0
G00 Z2.0000
M05
G00 Z15.00


