(G-code generated by FlatCAM Evo vUnstable - Version Date: 2023/6/31)

(Name: init_reader.drl_cnc)
(Type: G-code from Excellon)
(Units: MM)

(Created on Sunday, 01 March 2026 at 09:49)

(This preprocessor is the default preprocessor.)
(It is made to work with MACH3 compatible motion controllers.)


(TOOLS DIAMETER: )
(Tool: 2 -> Dia: 0.75)

(FEEDRATE Z: )
(Tool: 2 -> Feedrate: 300)

(FEEDRATE RAPIDS: )
(Tool: 2 -> Feedrate Rapids: 1500)

(Z_CUT: )
(Tool: 2 -> Z_Cut: -1.7)

(Tools Offset: )
(Tool: 2 -> Offset Z: 0.0)

(Z_MOVE: )
(Tool: 2 -> Z_Move: 2)

(Z Start: None mm)
(Z End: 15 mm)
(X,Y End: None mm)
(Steps per circle: 16)
(Preprocessor Excellon: default)

(X range:    4.3600 ...  138.5450  mm)
(Y range:    4.2800 ...   92.3900  mm)

(Spindle Speed: 500 RPM)
G21
G90
G94

G01 F300.00
G00 Z2.0000

M03 S500
G00 X87.0700 Y77.9400
G01 Z-1.7000
G01 Z0
G00 Z2.0000
G00 X103.4710 Y68.9310
G01 Z-1.7000
G01 Z0
G00 Z2.0000
G00 X100.9310 Y68.9310
G01 Z-1.7000
G01 Z0
G00 Z2.0000
G00 X98.3910 Y68.9310
G01 Z-1.7000
G01 Z0
G00 Z2.0000
G00 X95.8510 Y68.9310
G01 Z-1.7000
G01 Z0
G00 Z2.0000
G00 X72.8100 Y48.7100
G01 Z-1.7000
G01 Z0
G00 Z2.0000
G00 X72.9200 Y44.8000
G01 Z-1.7000
G01 Z0
G00 Z2.0000
G00 X72.6700 Y25.0500
G01 Z-1.7000
G01 Z0
G00 Z2.0000
G00 X65.0500 Y25.0500
G01 Z-1.7000
G01 Z0
G00 Z2.0000
G00 X50.8000 Y20.8000
G01 Z-1.7000
G01 Z0
G00 Z2.0000
G00 X50.8000 Y18.3000
G01 Z-1.7000
G01 Z0
G00 Z2.0000
G00 X44.9200 Y19.0200
G01 Z-1.7000
G01 Z0
G00 Z2.0000
G00 X44.9200 Y21.5600
G01 Z-1.7000
G01 Z0
G00 Z2.0000
G00 X44.9200 Y24.1000
G01 Z-1.7000
G01 Z0
G00 Z2.0000
G00 X37.3000 Y24.1000
G01 Z-1.7000
G01 Z0
G00 Z2.0000
G00 X37.3000 Y21.5600
G01 Z-1.7000
G01 Z0
G00 Z2.0000
G00 X37.3000 Y19.0200
G01 Z-1.7000
G01 Z0
G00 Z2.0000
G00 X26.5500 Y20.8000
G01 Z-1.7000
G01 Z0
G00 Z2.0000
G00 X24.0100 Y20.8000
G01 Z-1.7000
G01 Z0
G00 Z2.0000
G00 X26.6300 Y15.8000
G01 Z-1.7000
G01 Z0
G00 Z2.0000
G00 X19.0100 Y15.8000
G01 Z-1.7000
G01 Z0
G00 Z2.0000
G00 X14.3550 Y25.4500
G01 Z-1.7000
G01 Z0
G00 Z2.0000
G00 X11.8550 Y25.4500
G01 Z-1.7000
G01 Z0
G00 Z2.0000
G00 X18.9900 Y31.5500
G01 Z-1.7000
G01 Z0
G00 Z2.0000
G00 X24.0100 Y28.4200
G01 Z-1.7000
G01 Z0
G00 Z2.0000
G00 X26.5500 Y28.4200
G01 Z-1.7000
G01 Z0
G00 Z2.0000
G00 X26.6100 Y31.5500
G01 Z-1.7000
G01 Z0
G00 Z2.0000
G00 X37.3000 Y26.6400
G01 Z-1.7000
G01 Z0
G00 Z2.0000
G00 X37.3000 Y29.1800
G01 Z-1.7000
G01 Z0
G00 Z2.0000
G00 X37.3000 Y31.7200
G01 Z-1.7000
G01 Z0
G00 Z2.0000
G00 X37.3000 Y34.2600
G01 Z-1.7000
G01 Z0
G00 Z2.0000
G00 X37.3000 Y36.8000
G01 Z-1.7000
G01 Z0
G00 Z2.0000
G00 X44.9200 Y36.8000
G01 Z-1.7000
G01 Z0
G00 Z2.0000
G00 X44.9200 Y34.2600
G01 Z-1.7000
G01 Z0
G00 Z2.0000
G00 X44.9200 Y31.7200
G01 Z-1.7000
G01 Z0
G00 Z2.0000
G00 X44.9200 Y29.1800
G01 Z-1.7000
G01 Z0
G00 Z2.0000
G00 X44.9200 Y26.6400
G01 Z-1.7000
G01 Z0
G00 Z2.0000
G00 X50.7550 Y25.3000
G01 Z-1.7000
G01 Z0
G00 Z2.0000
G00 X50.7550 Y27.8000
G01 Z-1.7000
G01 Z0
G00 Z2.0000
G00 X50.8000 Y32.3000
G01 Z-1.7000
G01 Z0
G00 Z2.0000
G00 X50.8000 Y34.8000
G01 Z-1.7000
G01 Z0
G00 Z2.0000
G00 X50.5500 Y38.8450
G01 Z-1.7000
G01 Z0
G00 Z2.0000
G00 X50.5500 Y41.3450
G01 Z-1.7000
G01 Z0
G00 Z2.0000
G00 X10.9600 Y79.2000
G01 Z-1.7000
G01 Z0
G00 Z2.0000
G00 X10.9600 Y86.8200
G01 Z-1.7000
G01 Z0
G00 Z2.0000
G00 X58.5500 Y58.3600
G01 Z-1.7000
G01 Z0
G00 Z2.0000
G00 X58.5500 Y50.7400
G01 Z-1.7000
G01 Z0
G00 Z2.0000
G00 X65.3000 Y44.8000
G01 Z-1.7000
G01 Z0
G00 Z2.0000
G00 X65.1900 Y48.7100
G01 Z-1.7000
G01 Z0
G00 Z2.0000
G00 X65.9700 Y66.9100
G01 Z-1.7000
G01 Z0
G00 Z2.0000
G00 X73.5900 Y66.9100
G01 Z-1.7000
G01 Z0
G00 Z2.0000
G00 X71.5500 Y82.8000
G01 Z-1.7000
G01 Z0
G00 Z2.0000
G00 X79.1700 Y82.8000
G01 Z-1.7000
G01 Z0
G00 Z2.0000
G00 X84.5300 Y77.9400
G01 Z-1.7000
G01 Z0
G00 Z2.0000
G00 X85.8000 Y77.9400
G01 Z-1.7000
G01 Z0
G00 Z2.0000
M05
G00 Z15.00


