(G-code generated by FlatCAM Evo vUnstable - Version Date: 2023/6/31)

(Name: init_reader.drl_exc_cnc_cnc)
(Type: G-code from Geometry)
(Units: MM)

(Created on Sunday, 01 March 2026 at 09:51)

(This preprocessor is the default preprocessor.)
(It is made to work with MACH3 compatible motion controllers.)

(TOOL DIAMETER: 0.6 mm)
(Feedrate_XY: 120.0 mm/min)
(Feedrate_Z: 60.0 mm/min)
(Feedrate rapids 1500.0 mm/min)

(Z_Cut: -1.7 mm)
(DepthPerCut: 0.4 mm <=>5 passes)
(Z_Move: 2.0 mm)
(Z Start: None mm)
(Z End: 15.0 mm)
(X,Y End: None mm)
(Steps per circle: 16)
(Preprocessor Geometry: default)

(X range:    4.3600 ...  138.5450  mm)
(Y range:    4.2800 ...   92.3900  mm)

(Spindle Speed: 500.0 RPM)
G21
G90
G94

G01 F120.00
G00 Z2.0000

M03 S500.0
G01 F120.00
G00 X118.9807 Y4.7607
G01 F60.00
G01 Z-0.4000
G01 F120.00
G01 X118.9807 Y4.8193
G01 X118.9924 Y4.7600
G01 X118.9821 Y4.7605
G01 X118.9792 Y4.7610
G01 X118.9764 Y4.7617
G01 X118.9641 Y4.7691
G01 X118.9560 Y4.7958
G01 X118.9686 Y4.8147
G01 X118.9792 Y4.8191
G01 X118.9821 Y4.8195
G01 X118.9924 Y4.8200
G01 X120.5877 Y4.8200
G01 X120.5979 Y4.8195
G01 X120.6008 Y4.8191
G01 X120.6197 Y4.8065
G01 X120.6241 Y4.7842
G01 X120.6115 Y4.7654
G01 X120.6008 Y4.7610
G01 X120.5979 Y4.7605
G01 X120.5877 Y4.7600
G01 X118.9924 Y4.7600
G01 X119.5218 Y4.7600
G01 X119.5213 Y4.7636
G01 X119.5204 Y4.7768
G01 X119.5200 Y4.7900
G01 X119.5204 Y4.8033
G01 X119.5213 Y4.8165
G01 X119.5218 Y4.8200
G01 X120.0583 Y4.8200
G01 X120.0587 Y4.8165
G01 X120.0597 Y4.8033
G01 X120.0600 Y4.7900
G01 X120.0597 Y4.7768
G01 X120.0587 Y4.7636
G01 X120.0583 Y4.7600
G01 X120.5993 Y4.7607
G01 X120.5993 Y4.8193
G00 X120.5993 Y4.8193
G01 F60.00
G01 Z-0.8000
G01 F120.00
G01 X120.5993 Y4.7607
G01 X120.0583 Y4.7600
G01 X120.0587 Y4.7636
G01 X120.0597 Y4.7768
G01 X120.0600 Y4.7900
G01 X120.0597 Y4.8033
G01 X120.0587 Y4.8165
G01 X120.0583 Y4.8200
G01 X119.5218 Y4.8200
G01 X119.5213 Y4.8165
G01 X119.5204 Y4.8033
G01 X119.5200 Y4.7900
G01 X119.5204 Y4.7768
G01 X119.5213 Y4.7636
G01 X119.5218 Y4.7600
G01 X118.9924 Y4.7600
G01 X120.5877 Y4.7600
G01 X120.5979 Y4.7605
G01 X120.6008 Y4.7610
G01 X120.6115 Y4.7654
G01 X120.6241 Y4.7842
G01 X120.6197 Y4.8065
G01 X120.6008 Y4.8191
G01 X120.5979 Y4.8195
G01 X120.5877 Y4.8200
G01 X118.9924 Y4.8200
G01 X118.9821 Y4.8195
G01 X118.9792 Y4.8191
G01 X118.9686 Y4.8147
G01 X118.9560 Y4.7958
G01 X118.9641 Y4.7691
G01 X118.9764 Y4.7617
G01 X118.9792 Y4.7610
G01 X118.9821 Y4.7605
G01 X118.9924 Y4.7600
G01 X118.9807 Y4.8193
G01 X118.9807 Y4.7607
G00 X118.9807 Y4.7607
G01 F60.00
G01 Z-1.2000
G01 F120.00
G01 X118.9807 Y4.8193
G01 X118.9924 Y4.7600
G01 X118.9821 Y4.7605
G01 X118.9792 Y4.7610
G01 X118.9764 Y4.7617
G01 X118.9641 Y4.7691
G01 X118.9560 Y4.7958
G01 X118.9686 Y4.8147
G01 X118.9792 Y4.8191
G01 X118.9821 Y4.8195
G01 X118.9924 Y4.8200
G01 X120.5877 Y4.8200
G01 X120.5979 Y4.8195
G01 X120.6008 Y4.8191
G01 X120.6197 Y4.8065
G01 X120.6241 Y4.7842
G01 X120.6115 Y4.7654
G01 X120.6008 Y4.7610
G01 X120.5979 Y4.7605
G01 X120.5877 Y4.7600
G01 X118.9924 Y4.7600
G01 X119.5218 Y4.7600
G01 X119.5213 Y4.7636
G01 X119.5204 Y4.7768
G01 X119.5200 Y4.7900
G01 X119.5204 Y4.8033
G01 X119.5213 Y4.8165
G01 X119.5218 Y4.8200
G01 X120.0583 Y4.8200
G01 X120.0587 Y4.8165
G01 X120.0597 Y4.8033
G01 X120.0600 Y4.7900
G01 X120.0597 Y4.7768
G01 X120.0587 Y4.7636
G01 X120.0583 Y4.7600
G01 X120.5993 Y4.7607
G01 X120.5993 Y4.8193
G00 X120.5993 Y4.8193
G01 F60.00
G01 Z-1.6000
G01 F120.00
G01 X120.5993 Y4.7607
G01 X120.0583 Y4.7600
G01 X120.0587 Y4.7636
G01 X120.0597 Y4.7768
G01 X120.0600 Y4.7900
G01 X120.0597 Y4.8033
G01 X120.0587 Y4.8165
G01 X120.0583 Y4.8200
G01 X119.5218 Y4.8200
G01 X119.5213 Y4.8165
G01 X119.5204 Y4.8033
G01 X119.5200 Y4.7900
G01 X119.5204 Y4.7768
G01 X119.5213 Y4.7636
G01 X119.5218 Y4.7600
G01 X118.9924 Y4.7600
G01 X120.5877 Y4.7600
G01 X120.5979 Y4.7605
G01 X120.6008 Y4.7610
G01 X120.6115 Y4.7654
G01 X120.6241 Y4.7842
G01 X120.6197 Y4.8065
G01 X120.6008 Y4.8191
G01 X120.5979 Y4.8195
G01 X120.5877 Y4.8200
G01 X118.9924 Y4.8200
G01 X118.9821 Y4.8195
G01 X118.9792 Y4.8191
G01 X118.9686 Y4.8147
G01 X118.9560 Y4.7958
G01 X118.9641 Y4.7691
G01 X118.9764 Y4.7617
G01 X118.9792 Y4.7610
G01 X118.9821 Y4.7605
G01 X118.9924 Y4.7600
G01 X118.9807 Y4.8193
G01 X118.9807 Y4.7607
G00 X118.9807 Y4.7607
G01 F60.00
G01 Z-1.7000
G01 F120.00
G01 X118.9807 Y4.8193
G01 X118.9924 Y4.7600
G01 X118.9821 Y4.7605
G01 X118.9792 Y4.7610
G01 X118.9764 Y4.7617
G01 X118.9641 Y4.7691
G01 X118.9560 Y4.7958
G01 X118.9686 Y4.8147
G01 X118.9792 Y4.8191
G01 X118.9821 Y4.8195
G01 X118.9924 Y4.8200
G01 X120.5877 Y4.8200
G01 X120.5979 Y4.8195
G01 X120.6008 Y4.8191
G01 X120.6197 Y4.8065
G01 X120.6241 Y4.7842
G01 X120.6115 Y4.7654
G01 X120.6008 Y4.7610
G01 X120.5979 Y4.7605
G01 X120.5877 Y4.7600
G01 X118.9924 Y4.7600
G01 X119.5218 Y4.7600
G01 X119.5213 Y4.7636
G01 X119.5204 Y4.7768
G01 X119.5200 Y4.7900
G01 X119.5204 Y4.8033
G01 X119.5213 Y4.8165
G01 X119.5218 Y4.8200
G01 X120.0583 Y4.8200
G01 X120.0587 Y4.8165
G01 X120.0597 Y4.8033
G01 X120.0600 Y4.7900
G01 X120.0597 Y4.7768
G01 X120.0587 Y4.7636
G01 X120.0583 Y4.7600
G01 X120.5993 Y4.7607
G01 X120.5993 Y4.8193
G00 Z2.0000
G00 X131.8607 Y4.7607
G01 F60.00
G01 Z-0.4000
G01 F120.00
G01 X131.8607 Y4.8193
G01 X131.8724 Y4.7600
G01 X131.8621 Y4.7605
G01 X131.8592 Y4.7610
G01 X131.8564 Y4.7617
G01 X131.8441 Y4.7691
G01 X131.8360 Y4.7958
G01 X131.8486 Y4.8147
G01 X131.8592 Y4.8191
G01 X131.8621 Y4.8195
G01 X131.8724 Y4.8200
G01 X133.4677 Y4.8200
G01 X133.4779 Y4.8195
G01 X133.4808 Y4.8191
G01 X133.4836 Y4.8184
G01 X133.4938 Y4.8129
G01 X133.5047 Y4.7900
G01 X133.4938 Y4.7671
G01 X133.4836 Y4.7617
G01 X133.4808 Y4.7610
G01 X133.4779 Y4.7605
G01 X133.4677 Y4.7600
G01 X131.8724 Y4.7600
G01 X132.4018 Y4.7600
G01 X132.4013 Y4.7636
G01 X132.4004 Y4.7768
G01 X132.4000 Y4.7900
G01 X132.4004 Y4.8033
G01 X132.4013 Y4.8165
G01 X132.4018 Y4.8200
G01 X132.9383 Y4.8200
G01 X132.9387 Y4.8165
G01 X132.9397 Y4.8033
G01 X132.9400 Y4.7900
G01 X132.9397 Y4.7768
G01 X132.9387 Y4.7636
G01 X132.9383 Y4.7600
G01 X133.4793 Y4.7607
G01 X133.4793 Y4.8193
G00 X133.4793 Y4.8193
G01 F60.00
G01 Z-0.8000
G01 F120.00
G01 X133.4793 Y4.7607
G01 X132.9383 Y4.7600
G01 X132.9387 Y4.7636
G01 X132.9397 Y4.7768
G01 X132.9400 Y4.7900
G01 X132.9397 Y4.8033
G01 X132.9387 Y4.8165
G01 X132.9383 Y4.8200
G01 X132.4018 Y4.8200
G01 X132.4013 Y4.8165
G01 X132.4004 Y4.8033
G01 X132.4000 Y4.7900
G01 X132.4004 Y4.7768
G01 X132.4013 Y4.7636
G01 X132.4018 Y4.7600
G01 X131.8724 Y4.7600
G01 X133.4677 Y4.7600
G01 X133.4779 Y4.7605
G01 X133.4808 Y4.7610
G01 X133.4836 Y4.7617
G01 X133.4938 Y4.7671
G01 X133.5047 Y4.7900
G01 X133.4938 Y4.8129
G01 X133.4836 Y4.8184
G01 X133.4808 Y4.8191
G01 X133.4779 Y4.8195
G01 X133.4677 Y4.8200
G01 X131.8724 Y4.8200
G01 X131.8621 Y4.8195
G01 X131.8592 Y4.8191
G01 X131.8486 Y4.8147
G01 X131.8360 Y4.7958
G01 X131.8441 Y4.7691
G01 X131.8564 Y4.7617
G01 X131.8592 Y4.7610
G01 X131.8621 Y4.7605
G01 X131.8724 Y4.7600
G01 X131.8607 Y4.8193
G01 X131.8607 Y4.7607
G00 X131.8607 Y4.7607
G01 F60.00
G01 Z-1.2000
G01 F120.00
G01 X131.8607 Y4.8193
G01 X131.8724 Y4.7600
G01 X131.8621 Y4.7605
G01 X131.8592 Y4.7610
G01 X131.8564 Y4.7617
G01 X131.8441 Y4.7691
G01 X131.8360 Y4.7958
G01 X131.8486 Y4.8147
G01 X131.8592 Y4.8191
G01 X131.8621 Y4.8195
G01 X131.8724 Y4.8200
G01 X133.4677 Y4.8200
G01 X133.4779 Y4.8195
G01 X133.4808 Y4.8191
G01 X133.4836 Y4.8184
G01 X133.4938 Y4.8129
G01 X133.5047 Y4.7900
G01 X133.4938 Y4.7671
G01 X133.4836 Y4.7617
G01 X133.4808 Y4.7610
G01 X133.4779 Y4.7605
G01 X133.4677 Y4.7600
G01 X131.8724 Y4.7600
G01 X132.4018 Y4.7600
G01 X132.4013 Y4.7636
G01 X132.4004 Y4.7768
G01 X132.4000 Y4.7900
G01 X132.4004 Y4.8033
G01 X132.4013 Y4.8165
G01 X132.4018 Y4.8200
G01 X132.9383 Y4.8200
G01 X132.9387 Y4.8165
G01 X132.9397 Y4.8033
G01 X132.9400 Y4.7900
G01 X132.9397 Y4.7768
G01 X132.9387 Y4.7636
G01 X132.9383 Y4.7600
G01 X133.4793 Y4.7607
G01 X133.4793 Y4.8193
G00 X133.4793 Y4.8193
G01 F60.00
G01 Z-1.6000
G01 F120.00
G01 X133.4793 Y4.7607
G01 X132.9383 Y4.7600
G01 X132.9387 Y4.7636
G01 X132.9397 Y4.7768
G01 X132.9400 Y4.7900
G01 X132.9397 Y4.8033
G01 X132.9387 Y4.8165
G01 X132.9383 Y4.8200
G01 X132.4018 Y4.8200
G01 X132.4013 Y4.8165
G01 X132.4004 Y4.8033
G01 X132.4000 Y4.7900
G01 X132.4004 Y4.7768
G01 X132.4013 Y4.7636
G01 X132.4018 Y4.7600
G01 X131.8724 Y4.7600
G01 X133.4677 Y4.7600
G01 X133.4779 Y4.7605
G01 X133.4808 Y4.7610
G01 X133.4836 Y4.7617
G01 X133.4938 Y4.7671
G01 X133.5047 Y4.7900
G01 X133.4938 Y4.8129
G01 X133.4836 Y4.8184
G01 X133.4808 Y4.8191
G01 X133.4779 Y4.8195
G01 X133.4677 Y4.8200
G01 X131.8724 Y4.8200
G01 X131.8621 Y4.8195
G01 X131.8592 Y4.8191
G01 X131.8486 Y4.8147
G01 X131.8360 Y4.7958
G01 X131.8441 Y4.7691
G01 X131.8564 Y4.7617
G01 X131.8592 Y4.7610
G01 X131.8621 Y4.7605
G01 X131.8724 Y4.7600
G01 X131.8607 Y4.8193
G01 X131.8607 Y4.7607
G00 X131.8607 Y4.7607
G01 F60.00
G01 Z-1.7000
G01 F120.00
G01 X131.8607 Y4.8193
G01 X131.8724 Y4.7600
G01 X131.8621 Y4.7605
G01 X131.8592 Y4.7610
G01 X131.8564 Y4.7617
G01 X131.8441 Y4.7691
G01 X131.8360 Y4.7958
G01 X131.8486 Y4.8147
G01 X131.8592 Y4.8191
G01 X131.8621 Y4.8195
G01 X131.8724 Y4.8200
G01 X133.4677 Y4.8200
G01 X133.4779 Y4.8195
G01 X133.4808 Y4.8191
G01 X133.4836 Y4.8184
G01 X133.4938 Y4.8129
G01 X133.5047 Y4.7900
G01 X133.4938 Y4.7671
G01 X133.4836 Y4.7617
G01 X133.4808 Y4.7610
G01 X133.4779 Y4.7605
G01 X133.4677 Y4.7600
G01 X131.8724 Y4.7600
G01 X132.4018 Y4.7600
G01 X132.4013 Y4.7636
G01 X132.4004 Y4.7768
G01 X132.4000 Y4.7900
G01 X132.4004 Y4.8033
G01 X132.4013 Y4.8165
G01 X132.4018 Y4.8200
G01 X132.9383 Y4.8200
G01 X132.9387 Y4.8165
G01 X132.9397 Y4.8033
G01 X132.9400 Y4.7900
G01 X132.9397 Y4.7768
G01 X132.9387 Y4.7636
G01 X132.9383 Y4.7600
G01 X133.4793 Y4.7607
G01 X133.4793 Y4.8193
G00 Z2.0000
M05
G00 Z2.0000
G00 Z15.00


