(G-code generated by FlatCAM Evo vUnstable - Version Date: 2023/6/31)

(Name: init_reader-Edge_Cuts_cutout_cnc)
(Type: G-code from Geometry)
(Units: MM)

(Created on Sunday, 01 March 2026 at 09:54)

(This preprocessor is the default preprocessor.)
(It is made to work with MACH3 compatible motion controllers.)

(TOOL DIAMETER: 3.2 mm)
(Feedrate_XY: 120.0 mm/min)
(Feedrate_Z: 60.0 mm/min)
(Feedrate rapids 1500.0 mm/min)

(Z_Cut: -1.75 mm)
(DepthPerCut: 0.6 mm <=>3 passes)
(Z_Move: 2.0 mm)
(Z Start: None mm)
(Z End: 15.0 mm)
(X,Y End: None mm)
(Steps per circle: 16)
(Preprocessor Geometry: default)

(X range:   -1.7000 ...  144.8001  mm)
(Y range:   -1.7000 ...   96.8001  mm)

(Spindle Speed: 500.0 RPM)
G21
G90
G94

G01 F120.00
G00 Z2.0000

M03 S500.0
G01 F120.00
G00 X-1.7000 Y45.7000
G01 F60.00
G01 Z-0.6000
G01 F120.00
G01 X-1.6995 Y0.0083
G01 X-1.6814 Y-0.2043
G01 X-1.6469 Y-0.3776
G01 X-1.5667 Y-0.6198
G01 X-1.4934 Y-0.7749
G01 X-1.4051 Y-0.9222
G01 X-1.2483 Y-1.1234
G01 X-1.1234 Y-1.2483
G01 X-0.9223 Y-1.4050
G01 X-0.7004 Y-1.5309
G01 X-0.4580 Y-1.6246
G01 X-0.2092 Y-1.6806
G01 X0.0500 Y-1.7000
G01 X69.7000 Y-1.7000
G00 X69.7000 Y-1.7000
G01 F60.00
G01 Z-1.2000
G01 F120.00
G01 X0.0500 Y-1.7000
G01 X-0.2092 Y-1.6806
G01 X-0.4580 Y-1.6246
G01 X-0.7004 Y-1.5309
G01 X-0.9223 Y-1.4050
G01 X-1.1234 Y-1.2483
G01 X-1.2483 Y-1.1234
G01 X-1.4051 Y-0.9222
G01 X-1.4934 Y-0.7749
G01 X-1.5667 Y-0.6198
G01 X-1.6469 Y-0.3776
G01 X-1.6814 Y-0.2043
G01 X-1.6995 Y0.0083
G01 X-1.7000 Y45.7000
G00 X-1.7000 Y45.7000
G01 F60.00
G01 Z-1.7500
G01 F120.00
G01 X-1.6995 Y0.0083
G01 X-1.6814 Y-0.2043
G01 X-1.6469 Y-0.3776
G01 X-1.5667 Y-0.6198
G01 X-1.4934 Y-0.7749
G01 X-1.4051 Y-0.9222
G01 X-1.2483 Y-1.1234
G01 X-1.1234 Y-1.2483
G01 X-0.9223 Y-1.4050
G01 X-0.7004 Y-1.5309
G01 X-0.4580 Y-1.6246
G01 X-0.2092 Y-1.6806
G01 X0.0500 Y-1.7000
G01 X69.7000 Y-1.7000
G00 Z2.0000
G00 X-1.7000 Y49.4000
G01 F60.00
G01 Z-0.6000
G01 F120.00
G01 X-1.6995 Y95.0917
G01 X-1.6814 Y95.3044
G01 X-1.6469 Y95.4776
G01 X-1.5668 Y95.7197
G01 X-1.4934 Y95.8749
G01 X-1.4052 Y96.0221
G01 X-1.2483 Y96.2234
G01 X-1.1234 Y96.3483
G01 X-0.9222 Y96.5051
G01 X-0.6960 Y96.6330
G01 X-0.4580 Y96.7247
G01 X-0.2043 Y96.7814
G01 X0.0500 Y96.8001
G01 X69.7000 Y96.8001
G00 X69.7000 Y96.8001
G01 F60.00
G01 Z-1.2000
G01 F120.00
G01 X0.0500 Y96.8001
G01 X-0.2043 Y96.7814
G01 X-0.4580 Y96.7247
G01 X-0.6960 Y96.6330
G01 X-0.9222 Y96.5051
G01 X-1.1234 Y96.3483
G01 X-1.2483 Y96.2234
G01 X-1.4052 Y96.0221
G01 X-1.4934 Y95.8749
G01 X-1.5668 Y95.7197
G01 X-1.6469 Y95.4776
G01 X-1.6814 Y95.3044
G01 X-1.6995 Y95.0917
G01 X-1.7000 Y49.4000
G00 X-1.7000 Y49.4000
G01 F60.00
G01 Z-1.7500
G01 F120.00
G01 X-1.6995 Y95.0917
G01 X-1.6814 Y95.3044
G01 X-1.6469 Y95.4776
G01 X-1.5668 Y95.7197
G01 X-1.4934 Y95.8749
G01 X-1.4052 Y96.0221
G01 X-1.2483 Y96.2234
G01 X-1.1234 Y96.3483
G01 X-0.9222 Y96.5051
G01 X-0.6960 Y96.6330
G01 X-0.4580 Y96.7247
G01 X-0.2043 Y96.7814
G01 X0.0500 Y96.8001
G01 X69.7000 Y96.8001
G00 Z2.0000
G00 X73.4000 Y96.8001
G01 F60.00
G01 Z-0.6000
G01 F120.00
G01 X143.0500 Y96.8001
G01 X143.3092 Y96.7807
G01 X143.5581 Y96.7247
G01 X143.7960 Y96.6330
G01 X144.0223 Y96.5051
G01 X144.2234 Y96.3483
G01 X144.3483 Y96.2234
G01 X144.5050 Y96.0224
G01 X144.5934 Y95.8749
G01 X144.6669 Y95.7197
G01 X144.7469 Y95.4776
G01 X144.7814 Y95.3044
G01 X144.7995 Y95.0917
G01 X144.8001 Y49.4000
G00 X144.8001 Y49.4000
G01 F60.00
G01 Z-1.2000
G01 F120.00
G01 X144.7995 Y95.0917
G01 X144.7814 Y95.3044
G01 X144.7469 Y95.4776
G01 X144.6669 Y95.7197
G01 X144.5934 Y95.8749
G01 X144.5050 Y96.0224
G01 X144.3483 Y96.2234
G01 X144.2234 Y96.3483
G01 X144.0223 Y96.5051
G01 X143.7960 Y96.6330
G01 X143.5581 Y96.7247
G01 X143.3092 Y96.7807
G01 X143.0500 Y96.8001
G01 X73.4000 Y96.8001
G00 X73.4000 Y96.8001
G01 F60.00
G01 Z-1.7500
G01 F120.00
G01 X143.0500 Y96.8001
G01 X143.3092 Y96.7807
G01 X143.5581 Y96.7247
G01 X143.7960 Y96.6330
G01 X144.0223 Y96.5051
G01 X144.2234 Y96.3483
G01 X144.3483 Y96.2234
G01 X144.5050 Y96.0224
G01 X144.5934 Y95.8749
G01 X144.6669 Y95.7197
G01 X144.7469 Y95.4776
G01 X144.7814 Y95.3044
G01 X144.7995 Y95.0917
G01 X144.8001 Y49.4000
G00 Z2.0000
G00 X144.8001 Y45.7000
G01 F60.00
G01 Z-0.6000
G01 F120.00
G01 X144.7995 Y0.0083
G01 X144.7814 Y-0.2043
G01 X144.7469 Y-0.3776
G01 X144.6669 Y-0.6196
G01 X144.5934 Y-0.7750
G01 X144.4571 Y-0.9905
G01 X144.3450 Y-1.1270
G01 X144.1602 Y-1.3028
G01 X144.0223 Y-1.4050
G01 X143.8005 Y-1.5309
G01 X143.5580 Y-1.6246
G01 X143.3044 Y-1.6814
G01 X143.0500 Y-1.7000
G01 X73.4000 Y-1.7000
G00 X73.4000 Y-1.7000
G01 F60.00
G01 Z-1.2000
G01 F120.00
G01 X143.0500 Y-1.7000
G01 X143.3044 Y-1.6814
G01 X143.5580 Y-1.6246
G01 X143.8005 Y-1.5309
G01 X144.0223 Y-1.4050
G01 X144.1602 Y-1.3028
G01 X144.3450 Y-1.1270
G01 X144.4571 Y-0.9905
G01 X144.5934 Y-0.7750
G01 X144.6669 Y-0.6196
G01 X144.7469 Y-0.3776
G01 X144.7814 Y-0.2043
G01 X144.7995 Y0.0083
G01 X144.8001 Y45.7000
G00 X144.8001 Y45.7000
G01 F60.00
G01 Z-1.7500
G01 F120.00
G01 X144.7995 Y0.0083
G01 X144.7814 Y-0.2043
G01 X144.7469 Y-0.3776
G01 X144.6669 Y-0.6196
G01 X144.5934 Y-0.7750
G01 X144.4571 Y-0.9905
G01 X144.3450 Y-1.1270
G01 X144.1602 Y-1.3028
G01 X144.0223 Y-1.4050
G01 X143.8005 Y-1.5309
G01 X143.5580 Y-1.6246
G01 X143.3044 Y-1.6814
G01 X143.0500 Y-1.7000
G01 X73.4000 Y-1.7000
G00 Z2.0000
M05
G00 Z2.0000
G00 Z15.00


